; generated by Slic3r 0.9.9 on 2016-04-02 at 00:49:36

; layer_height = 0.4
; perimeters = 3
; top_solid_layers = 3
; bottom_solid_layers = 3
; fill_density = 0.4
; perimeter_speed = 50
; infill_speed = 80
; travel_speed = 130
; nozzle_diameter = 0.5
; filament_diameter = 3
; extrusion_multiplier = 1
; perimeters extrusion width = 0.53mm
; infill extrusion width = 0.53mm
; solid infill extrusion width = 0.53mm
; top infill extrusion width = 0.53mm
; support material extrusion width = 0.53mm
; first layer extrusion width = 0.70mm

G21 ; set units to millimeters
M107
M104 S200 ; set temperature
G28 ; home all axes
G1 Z5 F5000 ; lift nozzle

M109 S200 ; wait for temperature to be reached
G90 ; use absolute coordinates
G92 E0
M82 ; use absolute distances for extrusion
G1 F1800.000 E-1.00000
G92 E0
G1 Z0.350 F7800.000
G1 X-10.000 Y-16.380
G1 F1800.000 E1.00000
G1 X10.000 Y-16.380 F808.495 E1.65070
G1 X10.540 Y-16.360 E1.66829
G1 X11.330 Y-16.240 E1.69428
G1 X12.110 Y-16.030 E1.72056
G1 X12.610 Y-15.840 E1.73797
G1 X13.330 Y-15.490 E1.76401
G1 X13.780 Y-15.200 E1.78143
G1 X14.210 Y-14.880 E1.79887
G1 X14.610 Y-14.520 E1.81638
G1 X15.160 Y-13.930 E1.84262
G1 X15.480 Y-13.500 E1.86006
G1 X15.770 Y-13.050 E1.87748
G1 X16.120 Y-12.330 E1.90352
G1 X16.310 Y-11.830 E1.92093
G1 X16.460 Y-11.310 E1.93854
G1 X16.570 Y-10.790 E1.95583
G1 X16.640 Y-10.260 E1.97322
G1 X16.660 Y-9.720 E1.99080
G1 X16.660 Y10.000 E2.63240
G1 X16.640 Y10.540 E2.64998
G1 X16.520 Y11.330 E2.67598
G1 X16.310 Y12.110 E2.70226
G1 X16.010 Y12.850 E2.72824
G1 X15.770 Y13.330 E2.74570
G1 X15.630 Y13.560 E2.75446
G1 X15.160 Y14.210 E2.78055
G1 X14.800 Y14.610 E2.79806
G1 X14.210 Y15.160 E2.82431
G1 X13.780 Y15.480 E2.84174
G1 X13.330 Y15.770 E2.85916
G1 X12.610 Y16.120 E2.88521
G1 X12.110 Y16.310 E2.90261
G1 X11.590 Y16.460 E2.92022
G1 X11.070 Y16.570 E2.93751
G1 X10.540 Y16.640 E2.95491
G1 X10.000 Y16.660 E2.97249
G1 X-10.000 Y16.660 E3.62319
G1 X-10.540 Y16.640 E3.64077
G1 X-11.330 Y16.520 E3.66677
G1 X-12.110 Y16.310 E3.69305
G1 X-12.850 Y16.010 E3.71903
G1 X-13.330 Y15.770 E3.73649
G1 X-13.560 Y15.630 E3.74525
G1 X-14.210 Y15.160 E3.77135
G1 X-14.610 Y14.800 E3.78886
G1 X-15.160 Y14.210 E3.81510
G1 X-15.480 Y13.780 E3.83254
G1 X-15.770 Y13.330 E3.84996
G1 X-16.120 Y12.610 E3.87600
G1 X-16.310 Y12.110 E3.89340
G1 X-16.460 Y11.590 E3.91101
G1 X-16.570 Y11.070 E3.92831
G1 X-16.640 Y10.540 E3.94570
G1 X-16.660 Y10.000 E3.96328
G1 X-16.660 Y-9.720 E4.60487
G1 X-16.640 Y-10.260 E4.62246
G1 X-16.570 Y-10.790 E4.63985
G1 X-16.460 Y-11.310 E4.65714
G1 X-16.310 Y-11.830 E4.67475
G1 X-16.120 Y-12.330 E4.69215
G1 X-15.770 Y-13.050 E4.71820
G1 X-15.480 Y-13.500 E4.73562
G1 X-15.160 Y-13.930 E4.75306
G1 X-14.800 Y-14.330 E4.77056
G1 X-14.210 Y-14.880 E4.79681
G1 X-13.780 Y-15.200 E4.81425
G1 X-13.330 Y-15.490 E4.83166
G1 X-12.850 Y-15.730 E4.84912
G1 X-12.360 Y-15.940 E4.86647
G1 X-11.850 Y-16.110 E4.88396
G1 X-11.330 Y-16.240 E4.90140
G1 X-10.540 Y-16.360 E4.92740
G1 X-10.098 Y-16.376 E4.94177
G1 F1800.000 E3.94177
G92 E0
G1 X10.000 Y-9.712 F7800.000
G1 F1800.000 E1.00000
G1 X-10.000 Y-9.712 F970.194 E1.65070
G1 X-10.000 Y-8.398 E1.69346
G1 X10.000 Y-8.398 E2.34416
G1 X10.000 Y-7.084 E2.38692
G1 X-10.000 Y-7.084 E3.03763
G1 X-10.000 Y-5.770 E3.08038
G1 X10.000 Y-5.770 E3.73109
G1 X10.000 Y-4.456 E3.77384
G1 X-10.000 Y-4.456 E4.42455
G1 X-10.000 Y-3.142 E4.46730
G1 X10.000 Y-3.142 E5.11801
G1 X10.000 Y-1.827 E5.16076
G1 X-10.000 Y-1.827 E5.81147
G1 X-10.000 Y-0.513 E5.85423
G1 X10.000 Y-0.513 E6.50493
G1 X10.000 Y0.801 E6.54769
G1 X-10.000 Y0.801 E7.19839
G1 X-10.000 Y2.115 E7.24115
G1 X10.000 Y2.115 E7.89185
G1 X10.000 Y3.429 E7.93461
G1 X-10.000 Y3.429 E8.58531
G1 X-10.000 Y4.743 E8.62807
G1 X10.000 Y4.743 E9.27877
G1 X10.000 Y6.058 E9.32153
G1 X-10.000 Y6.058 E9.97223
G1 X-10.000 Y7.372 E10.01499
G1 X10.000 Y7.372 E10.66569
G1 X10.000 Y8.686 E10.70845
G1 X-10.000 Y8.686 E11.35915
G1 X-10.000 Y10.000 E11.40191
G1 X10.000 Y10.000 E12.05262
M106 S255
G1 F1800.000 E11.05262
G92 E0
G1 Z0.750 F7800.000
G1 X8.701 Y8.701
G1 F1800.000 E1.00000
G1 X-8.701 Y8.701 F1739.801 E1.51171
G1 X-8.701 Y-8.701 E2.02341
G1 X8.701 Y-8.701 E2.53512
G1 X8.701 Y8.623 E3.04453
G1 X9.221 Y9.221 F7800.000
G1 X-9.221 Y9.221 F1739.801 E3.58680
G1 X-9.221 Y-9.221 E4.12907
G1 X9.221 Y-9.221 E4.67133
G1 X9.221 Y9.143 E5.21131
G1 X9.740 Y9.740 F7800.000
G1 X-9.740 Y9.740 F1217.861 E5.78413
G1 X-9.740 Y-9.740 E6.35696
G1 X9.740 Y-9.740 E6.92979
G1 X9.740 Y9.662 E7.50032
G1 X9.290 Y9.480 F7800.000
G1 X8.324 Y8.324
M106 S255
G1 X7.769 Y8.324 F3600.000 E7.51575
G1 X8.324 Y7.769 E7.53758
G1 X8.324 Y7.213 E7.55300
G1 X7.213 Y8.324 E7.59665
G1 X6.658 Y8.324 E7.61207
G1 X8.324 Y6.658 E7.67753
G1 X8.324 Y6.103 E7.69296
G1 X6.103 Y8.324 E7.78023
G1 X5.547 Y8.324 E7.79566
G1 X8.324 Y5.547 E7.90475
G1 X8.324 Y4.992 E7.92017
G1 X4.992 Y8.324 E8.05108
G1 X4.437 Y8.324 E8.06651
G1 X8.324 Y4.437 E8.21923
G1 X8.324 Y3.881 E8.23466
G1 X3.881 Y8.324 E8.40920
G1 X3.326 Y8.324 E8.42463
G1 X8.324 Y3.326 E8.62098
G1 X8.324 Y2.770 E8.63641
G1 X2.770 Y8.324 E8.85459
G1 X2.215 Y8.324 E8.87001
G1 X8.324 Y2.215 E9.11000
G1 X8.324 Y1.660 E9.12543
G1 X1.660 Y8.324 E9.38724
G1 X1.104 Y8.324 E9.40266
G1 X8.324 Y1.104 E9.68629
G1 X8.324 Y0.549 E9.70171
G1 X0.549 Y8.324 E10.00715
G1 X-0.006 Y8.324 E10.02258
G1 X8.324 Y-0.006 E10.34984
G1 X8.324 Y-0.562 E10.36526
G1 X-0.562 Y8.324 E10.71434
G1 X-1.117 Y8.324 E10.72976
G1 X8.324 Y-1.117 E11.10065
G1 X8.324 Y-1.672 E11.11608
G1 X-1.672 Y8.324 E11.50879
G1 X-2.228 Y8.324 E11.52422
G1 X8.324 Y-2.228 E11.93874
G1 X8.324 Y-2.783 E11.95417
G1 X-2.783 Y8.324 E12.39051
G1 X-3.338 Y8.324 E12.40593
G1 X8.324 Y-3.338 E12.86409
G1 X8.324 Y-3.894 E12.87952
G1 X-3.894 Y8.324 E13.35949
G1 X-4.449 Y8.324 E13.37492
G1 X8.324 Y-4.449 E13.87671
G1 X8.324 Y-5.005 E13.89213
G1 X-5.005 Y8.324 E14.41574
G1 X-5.560 Y8.324 E14.43117
G1 X8.324 Y-5.560 E14.97659
G1 X8.324 Y-6.115 E14.99202
G1 X-6.115 Y8.324 E15.55926
G1 X-6.671 Y8.324 E15.57468
G1 X8.324 Y-6.671 E16.16374
G1 X8.324 Y-7.226 E16.17916
G1 X-7.226 Y8.324 E16.79004
G1 X-7.781 Y8.324 E16.80546
G1 X8.324 Y-7.781 E17.43815
G1 X8.312 Y-8.324 E17.45324
G1 X-8.324 Y8.312 E18.10677
G1 X-8.324 Y7.757 E18.12220
G1 X7.757 Y-8.324 E18.75391
G1 X7.201 Y-8.324 E18.76934
G1 X-8.324 Y7.201 E19.37924
G1 X-8.324 Y6.646 E19.39466
G1 X6.646 Y-8.324 E19.98274
G1 X6.090 Y-8.324 E19.99817
G1 X-8.324 Y6.090 E20.56444
G1 X-8.324 Y5.535 E20.57986
G1 X5.535 Y-8.324 E21.12431
G1 X4.980 Y-8.324 E21.13974
G1 X-8.324 Y4.980 E21.66237
G1 X-8.324 Y4.424 E21.67779
G1 X4.424 Y-8.324 E22.17861
G1 X3.869 Y-8.324 E22.19404
G1 X-8.324 Y3.869 E22.67303
G1 X-8.324 Y3.314 E22.68846
G1 X3.314 Y-8.324 E23.14564
G1 X2.758 Y-8.324 E23.16107
G1 X-8.324 Y2.758 E23.59643
G1 X-8.324 Y2.203 E23.61186
G1 X2.203 Y-8.324 E24.02541
G1 X1.648 Y-8.324 E24.04084
G1 X-8.324 Y1.648 E24.43257
G1 X-8.324 Y1.092 E24.44799
G1 X1.092 Y-8.324 E24.81791
G1 X0.537 Y-8.324 E24.83334
G1 X-8.324 Y0.537 E25.18143
G1 X-8.324 Y-0.019 E25.19686
G1 X-0.019 Y-8.324 E25.52314
G1 X-0.574 Y-8.324 E25.53857
G1 X-8.324 Y-0.574 E25.84303
G1 X-8.324 Y-1.129 E25.85846
G1 X-1.129 Y-8.324 E26.14111
G1 X-1.685 Y-8.324 E26.15654
G1 X-8.324 Y-1.685 E26.41737
G1 X-8.324 Y-2.240 E26.43279
G1 X-2.240 Y-8.324 E26.67181
G1 X-2.795 Y-8.324 E26.68724
G1 X-8.324 Y-2.795 E26.90444
G1 X-8.324 Y-3.351 E26.91986
G1 X-3.351 Y-8.324 E27.11524
G1 X-3.906 Y-8.324 E27.13067
G1 X-8.324 Y-3.906 E27.30424
G1 X-8.324 Y-4.461 E27.31966
G1 X-4.461 Y-8.324 E27.47141
G1 X-5.017 Y-8.324 E27.48684
G1 X-8.324 Y-5.017 E27.61677
G1 X-8.324 Y-5.572 E27.63220
G1 X-5.572 Y-8.324 E27.74031
G1 X-6.127 Y-8.324 E27.75574
G1 X-8.324 Y-6.127 E27.84204
G1 X-8.324 Y-6.683 E27.85747
G1 X-6.683 Y-8.324 E27.92195
G1 X-7.238 Y-8.324 E27.93737
G1 X-8.324 Y-7.238 E27.98004
G1 X-8.324 Y-7.794 E27.99547
G1 X-7.794 Y-8.324 E28.01632
G1 F1800.000 E27.01632
M106 S255
G92 E0
G1 Z1.150 F7800.000
G1 X-8.701 Y-8.701
G1 F1800.000 E1.00000
G1 X8.701 Y-8.701 F1212.066 E1.51171
G1 X8.701 Y8.701 E2.02341
G1 X-8.701 Y8.701 E2.53512
G1 X-8.701 Y-8.623 E3.04453
G1 X-9.221 Y-9.221 F7800.000
G1 X9.221 Y-9.221 F1212.066 E3.58680
G1 X9.221 Y9.221 E4.12907
G1 X-9.221 Y9.221 E4.67133
G1 X-9.221 Y-9.143 E5.21131
G1 X-9.740 Y-9.740 F7800.000
G1 X9.740 Y-9.740 F848.446 E5.78413
G1 X9.740 Y9.740 E6.35696
G1 X-9.740 Y9.740 E6.92979
G1 X-9.740 Y-9.662 E7.50032
G1 X-9.290 Y-9.480 F7800.000
G1 X8.324 Y-8.324
G1 X7.584 Y-8.324 F1939.305 E7.52223
G1 X8.324 Y-7.584 E7.55322
G1 X8.324 Y-6.844 E7.57513
G1 X6.844 Y-8.324 E7.63710
G1 X6.104 Y-8.324 E7.65901
G1 X8.324 Y-6.104 E7.75196
G1 X8.324 Y-5.364 E7.77386
G1 X5.364 Y-8.324 E7.89780
G1 X4.625 Y-8.324 E7.91971
G1 X8.324 Y-4.625 E8.07462
G1 X8.324 Y-3.885 E8.09653
G1 X3.885 Y-8.324 E8.28243
G1 X3.145 Y-8.324 E8.30433
G1 X8.324 Y-3.145 E8.52121
G1 X8.324 Y-2.405 E8.54312
G1 X2.405 Y-8.324 E8.79098
G1 X1.665 Y-8.324 E8.81289
G1 X8.324 Y-1.665 E9.09173
G1 X8.324 Y-0.925 E9.11364
G1 X0.925 Y-8.324 E9.42347
G1 X0.185 Y-8.324 E9.44538
G1 X8.324 Y-0.185 E9.78618
G1 X8.324 Y0.555 E9.80809
G1 X-0.555 Y-8.324 E10.17988
G1 X-1.295 Y-8.324 E10.20179
G1 X8.324 Y1.295 E10.60456
G1 X8.324 Y2.035 E10.62647
G1 X-2.035 Y-8.324 E11.06022
G1 X-2.775 Y-8.324 E11.08213
G1 X8.324 Y2.775 E11.54686
G1 X8.324 Y3.515 E11.56877
G1 X-3.515 Y-8.324 E12.06449
G1 X-4.255 Y-8.324 E12.08639
G1 X8.324 Y4.255 E12.61309
G1 X8.324 Y4.995 E12.63500
G1 X-4.995 Y-8.324 E13.19268
G1 X-5.735 Y-8.324 E13.21459
G1 X8.324 Y5.735 E13.80325
G1 X8.324 Y6.474 E13.82516
G1 X-6.474 Y-8.324 E14.44481
G1 X-7.214 Y-8.324 E14.46671
G1 X8.324 Y7.214 E15.11734
G1 X8.324 Y7.954 E15.13925
G1 X-7.954 Y-8.324 E15.82086
G1 X-8.324 Y-7.954 E15.83635
G1 X7.954 Y8.324 E16.51796
G1 X7.214 Y8.324 E16.53987
G1 X-8.324 Y-7.214 E17.19050
G1 X-8.324 Y-6.475 E17.21241
G1 X6.474 Y8.324 E17.83205
G1 X5.735 Y8.324 E17.85396
G1 X-8.324 Y-5.735 E18.44263
G1 X-8.324 Y-4.995 E18.46453
G1 X4.995 Y8.324 E19.02222
G1 X4.255 Y8.324 E19.04412
G1 X-8.324 Y-4.255 E19.57083
G1 X-8.324 Y-3.515 E19.59273
G1 X3.515 Y8.324 E20.08845
G1 X2.775 Y8.324 E20.11036
G1 X-8.324 Y-2.775 E20.57510
G1 X-8.324 Y-2.035 E20.59701
G1 X2.035 Y8.324 E21.03076
G1 X1.295 Y8.324 E21.05267
G1 X-8.324 Y-1.295 E21.45544
G1 X-8.324 Y-0.555 E21.47735
G1 X0.555 Y8.324 E21.84914
G1 X-0.185 Y8.324 E21.87105
G1 X-8.324 Y0.185 E22.21186
G1 X-8.324 Y0.925 E22.23377
G1 X-0.925 Y8.324 E22.54360
G1 X-1.665 Y8.324 E22.56550
G1 X-8.324 Y1.665 E22.84435
G1 X-8.324 Y2.405 E22.86626
G1 X-2.405 Y8.324 E23.11412
G1 X-3.145 Y8.324 E23.13603
G1 X-8.324 Y3.145 E23.35291
G1 X-8.324 Y3.885 E23.37482
G1 X-3.885 Y8.324 E23.56072
G1 X-4.624 Y8.324 E23.58263
G1 X-8.324 Y4.624 E23.73754
G1 X-8.324 Y5.364 E23.75945
G1 X-5.364 Y8.324 E23.88339
G1 X-6.104 Y8.324 E23.90530
G1 X-8.324 Y6.104 E23.99825
G1 X-8.324 Y6.844 E24.02016
G1 X-6.844 Y8.324 E24.08213
G1 X-7.584 Y8.324 E24.10404
G1 X-8.324 Y7.584 E24.13503
G1 X-8.324 Y8.324 E24.15694
G1 F1800.000 E23.15694
G92 E0
G1 Z1.550 F7800.000
G1 X-8.701 Y8.701
G1 F1800.000 E1.00000
G1 X-8.701 Y-8.701 F1212.066 E1.51171
G1 X8.701 Y-8.701 E2.02341
G1 X8.701 Y8.701 E2.53512
G1 X-8.623 Y8.701 E3.04453
G1 X-9.221 Y9.221 F7800.000
G1 X-9.221 Y-9.221 F1212.066 E3.58680
G1 X9.221 Y-9.221 E4.12907
G1 X9.221 Y9.221 E4.67133
G1 X-9.143 Y9.221 E5.21131
G1 X-9.740 Y9.740 F7800.000
G1 X-9.740 Y-9.740 F848.446 E5.78413
G1 X9.740 Y-9.740 E6.35696
G1 X9.740 Y9.740 E6.92979
G1 X-9.662 Y9.740 E7.50032
G1 X-9.480 Y9.290 F7800.000
G1 X-8.324 Y-8.324
G1 X-8.324 Y-7.584 F1939.305 E7.52223
G1 X-7.584 Y-8.324 E7.55322
G1 X-6.844 Y-8.324 E7.57513
G1 X-8.324 Y-6.844 E7.63710
G1 X-8.324 Y-6.104 E7.65901
G1 X-6.104 Y-8.324 E7.75196
G1 X-5.364 Y-8.324 E7.77386
G1 X-8.324 Y-5.364 E7.89780
G1 X-8.324 Y-4.625 E7.91971
G1 X-4.625 Y-8.324 E8.07462
G1 X-3.885 Y-8.324 E8.09653
G1 X-8.324 Y-3.885 E8.28243
G1 X-8.324 Y-3.145 E8.30433
G1 X-3.145 Y-8.324 E8.52121
G1 X-2.405 Y-8.324 E8.54312
G1 X-8.324 Y-2.405 E8.79098
G1 X-8.324 Y-1.665 E8.81289
G1 X-1.665 Y-8.324 E9.09173
G1 X-0.925 Y-8.324 E9.11364
G1 X-8.324 Y-0.925 E9.42347
G1 X-8.324 Y-0.185 E9.44538
G1 X-0.185 Y-8.324 E9.78618
G1 X0.555 Y-8.324 E9.80809
G1 X-8.324 Y0.555 E10.17988
G1 X-8.324 Y1.295 E10.20179
G1 X1.295 Y-8.324 E10.60456
G1 X2.035 Y-8.324 E10.62647
G1 X-8.324 Y2.035 E11.06022
G1 X-8.324 Y2.775 E11.08213
G1 X2.775 Y-8.324 E11.54686
G1 X3.515 Y-8.324 E11.56877
G1 X-8.324 Y3.515 E12.06449
G1 X-8.324 Y4.255 E12.08639
G1 X4.255 Y-8.324 E12.61309
G1 X4.995 Y-8.324 E12.63500
G1 X-8.324 Y4.995 E13.19268
G1 X-8.324 Y5.735 E13.21459
G1 X5.735 Y-8.324 E13.80325
G1 X6.474 Y-8.324 E13.82516
G1 X-8.324 Y6.474 E14.44481
G1 X-8.324 Y7.214 E14.46671
G1 X7.214 Y-8.324 E15.11734
G1 X7.954 Y-8.324 E15.13925
G1 X-8.324 Y7.954 E15.82086
G1 X-7.954 Y8.324 E15.83635
G1 X8.324 Y-7.954 E16.51796
G1 X8.324 Y-7.214 E16.53987
G1 X-7.214 Y8.324 E17.19050
G1 X-6.475 Y8.324 E17.21241
G1 X8.324 Y-6.475 E17.83205
G1 X8.324 Y-5.735 E17.85396
G1 X-5.735 Y8.324 E18.44263
G1 X-4.995 Y8.324 E18.46453
G1 X8.324 Y-4.995 E19.02222
G1 X8.324 Y-4.255 E19.04412
G1 X-4.255 Y8.324 E19.57083
G1 X-3.515 Y8.324 E19.59273
G1 X8.324 Y-3.515 E20.08845
G1 X8.324 Y-2.775 E20.11036
G1 X-2.775 Y8.324 E20.57510
G1 X-2.035 Y8.324 E20.59701
G1 X8.324 Y-2.035 E21.03076
G1 X8.324 Y-1.295 E21.05267
G1 X-1.295 Y8.324 E21.45544
G1 X-0.555 Y8.324 E21.47735
G1 X8.324 Y-0.555 E21.84914
G1 X8.324 Y0.185 E21.87105
G1 X0.185 Y8.324 E22.21186
G1 X0.925 Y8.324 E22.23377
G1 X8.324 Y0.925 E22.54360
G1 X8.324 Y1.665 E22.56550
G1 X1.665 Y8.324 E22.84435
G1 X2.405 Y8.324 E22.86626
G1 X8.324 Y2.405 E23.11412
G1 X8.324 Y3.145 E23.13603
G1 X3.145 Y8.324 E23.35291
G1 X3.885 Y8.324 E23.37482
G1 X8.324 Y3.885 E23.56072
G1 X8.324 Y4.624 E23.58263
G1 X4.624 Y8.324 E23.73754
G1 X5.364 Y8.324 E23.75945
G1 X8.324 Y5.364 E23.88339
G1 X8.324 Y6.104 E23.90530
G1 X6.104 Y8.324 E23.99825
G1 X6.844 Y8.324 E24.02016
G1 X8.324 Y6.844 E24.08213
G1 X8.324 Y7.584 E24.10404
G1 X7.584 Y8.324 E24.13503
G1 X8.324 Y8.324 E24.15694
G1 F1800.000 E23.15694
G92 E0
G1 Z1.950 F7800.000
G1 X8.701 Y8.701
G1 F1800.000 E1.00000
G1 X-8.701 Y8.701 F842.485 E1.51171
G1 X-8.701 Y-8.701 E2.02341
G1 X8.701 Y-8.701 E2.53512
G1 X8.701 Y8.623 E3.04453
G1 X9.221 Y9.221 F7800.000
G1 X-9.221 Y9.221 F842.485 E3.58680
G1 X-9.221 Y-9.221 E4.12907
G1 X9.221 Y-9.221 E4.67133
G1 X9.221 Y9.143 E5.21131
G1 X9.740 Y9.740 F7800.000
G1 X-9.740 Y9.740 F600.000 E5.78413
G1 X-9.740 Y-9.740 E6.35696
G1 X9.740 Y-9.740 E6.92979
G1 X9.740 Y9.662 E7.50032
G1 X9.290 Y9.480 F7800.000
G1 X8.324 Y8.324
G1 X8.324 Y8.188 F1347.976 E7.50433
G1 X7.815 Y8.324 E7.51982
G1 X6.286 Y8.324 F7800.000
G1 X5.973 Y8.011 F1347.976 E7.53285
G1 X4.804 Y8.324 E7.56844
G1 X1.585 Y8.324 F7800.000
G1 X1.724 Y7.804 F1347.976 E7.58426
G1 X3.463 Y7.338 E7.63719
G1 X4.100 Y7.975 E7.66366
G1 X5.838 Y7.509 E7.71659
G1 X6.071 Y6.640 E7.74306
G1 X7.810 Y6.174 E7.79599
G1 X8.324 Y6.688 E7.81737
G1 X8.324 Y4.691 E7.87609
G1 X7.908 Y4.802 E7.88875
G1 X7.675 Y5.672 E7.91521
G1 X5.937 Y6.138 E7.96815
G1 X5.300 Y5.501 E7.99461
G1 X3.562 Y5.967 E8.04754
G1 X3.329 Y6.837 E8.07401
G1 X1.590 Y7.302 E8.12694
G1 X0.954 Y6.666 E8.15341
G1 X-0.785 Y7.132 E8.20634
G1 X-1.018 Y8.001 E8.23280
G1 X-2.223 Y8.324 E8.26949
G1 X-2.900 Y8.324 F7800.000
G1 X-3.393 Y7.831 F1347.976 E8.29001
G1 X-5.132 Y8.297 E8.34294
G1 X-5.139 Y8.324 E8.34378
G1 X-7.829 Y8.324 F7800.000
G1 X-7.642 Y7.624 F1347.976 E8.36509
G1 X-5.903 Y7.158 E8.41802
G1 X-5.267 Y7.795 E8.44449
G1 X-3.528 Y7.329 E8.49742
G1 X-3.295 Y6.459 E8.52388
G1 X-1.556 Y5.994 E8.57681
G1 X-0.920 Y6.630 E8.60328
G1 X0.819 Y6.164 E8.65621
G1 X1.052 Y5.295 E8.68268
G1 X2.791 Y4.829 E8.73561
G1 X3.427 Y5.465 E8.76208
G1 X5.166 Y4.999 E8.81501
G1 X5.399 Y4.130 E8.84147
G1 X7.138 Y3.664 E8.89440
G1 X7.774 Y4.301 E8.92087
G1 X8.324 Y4.153 E8.93762
G1 X8.324 Y2.001 E9.00090
G1 X7.236 Y2.293 E9.03403
G1 X7.003 Y3.162 E9.06049
G1 X5.264 Y3.628 E9.11342
G1 X4.628 Y2.992 E9.13989
G1 X2.889 Y3.458 E9.19282
G1 X2.656 Y4.327 E9.21929
G1 X0.917 Y4.793 E9.27222
G1 X0.281 Y4.156 E9.29868
G1 X-1.458 Y4.622 E9.35161
G1 X-1.691 Y5.492 E9.37808
G1 X-3.429 Y5.958 E9.43101
