; generated by Slic3r 0.9.9 on 2016-04-03 at 18:35:56

; layer_height = 0.2
; perimeters = 1
; top_solid_layers = 3
; bottom_solid_layers = 3
; fill_density = 0.5
; perimeter_speed = 50
; infill_speed = 80
; travel_speed = 130
; nozzle_diameter = 0.5
; filament_diameter = 1.75
; extrusion_multiplier = 1
; perimeters extrusion width = 0.75mm
; infill extrusion width = 1.02mm
; solid infill extrusion width = 0.85mm
; top infill extrusion width = 0.85mm
; support material extrusion width = 0.85mm
; first layer extrusion width = 0.40mm

G21 ; set units to millimeters
M104 S200 ; set temperature
G28 ; home all axes
G1 Z5 F5000 ; lift nozzle

M109 S200 ; wait for temperature to be reached
G90 ; use absolute coordinates
G92 E0
M82 ; use absolute distances for extrusion
M106 S89
G1 F1800.000 E-1.00000
G92 E0
G1 Z0.200 F7800.000
G1 X16.370 Y1.322
G1 F1800.000 E1.00000
G1 X12.700 Y31.022 F2100.000 E2.04874
G1 X12.570 Y31.752 E2.07472
G1 X12.370 Y32.602 E2.10533
G1 X12.080 Y33.532 E2.13947
G1 X11.750 Y34.372 E2.17109
G1 X11.290 Y35.322 E2.20808
G1 X10.800 Y36.162 E2.24216
G1 X10.540 Y36.582 E2.25947
G1 X10.090 Y37.162 E2.28520
G1 X9.180 Y38.222 E2.33416
G1 X8.980 Y38.422 E2.34407
G1 X8.770 Y38.622 E2.35423
G1 X8.330 Y38.982 E2.37416
G1 X7.220 Y39.832 E2.42315
G1 X6.700 Y40.192 E2.44531
G1 X6.150 Y40.512 E2.46761
G1 X5.870 Y40.642 E2.47843
G1 X5.280 Y40.872 E2.50062
G1 X2.100 Y41.812 E2.61683
G1 X1.780 Y41.892 E2.62839
G1 X1.150 Y42.012 E2.65087
G1 X0.500 Y42.082 E2.67378
G1 X-0.510 Y42.082 E2.70917
G1 X-1.480 Y41.962 E2.74343
G1 X-2.110 Y41.812 E2.76612
G1 X-4.990 Y40.972 E2.87125
G1 X-5.880 Y40.642 E2.90452
G1 X-6.440 Y40.362 E2.92646
G1 X-6.970 Y40.022 E2.94853
G1 X-7.230 Y39.832 E2.95981
G1 X-8.570 Y38.802 E3.01904
G1 X-9.010 Y38.402 E3.03988
G1 X-9.410 Y37.972 E3.06046
G1 X-10.120 Y37.132 E3.09901
G1 X-10.770 Y36.212 E3.13848
G1 X-11.270 Y35.372 E3.17274
G1 X-11.760 Y34.372 E3.21177
G1 X-12.090 Y33.532 E3.24339
G1 X-12.380 Y32.602 E3.27753
G1 X-12.580 Y31.752 E3.30813
G1 X-12.710 Y31.022 E3.33412
G1 X-16.380 Y1.322 E4.38286
G1 X-16.480 Y0.212 E4.42192
G1 X-16.500 Y-1.198 E4.47133
G1 X-16.480 Y-1.768 E4.49132
G1 X-16.410 Y-2.608 E4.52086
G1 X-16.310 Y-3.308 E4.54564
G1 X-16.030 Y-4.698 E4.59533
G1 X-15.800 Y-5.538 E4.62585
G1 X-15.620 Y-6.098 E4.64647
G1 X-15.310 Y-6.938 E4.67784
G1 X-15.020 Y-7.598 E4.70311
G1 X-14.600 Y-8.448 E4.73633
G1 X-14.290 Y-9.018 E4.75907
G1 X-13.770 Y-9.858 E4.79369
G1 X-13.330 Y-10.488 E4.82062
G1 X-12.670 Y-11.328 E4.85806
G1 X-12.210 Y-11.848 E4.88239
G1 X-11.390 Y-12.698 E4.92378
G1 X-10.650 Y-13.368 E4.95876
G1 X-9.560 Y-14.208 E5.00699
G1 X-8.660 Y-14.798 E5.04470
G1 X-7.120 Y-15.638 E5.10618
G1 X-6.610 Y-15.888 E5.12608
G1 X-6.080 Y-16.098 E5.14606
G1 X-5.250 Y-16.328 E5.17624
G1 X-4.690 Y-16.418 E5.19612
G1 X-4.120 Y-16.468 E5.21617
G1 X4.110 Y-16.468 E5.50459
G1 X4.680 Y-16.418 E5.52464
G1 X5.240 Y-16.328 E5.54452
G1 X6.070 Y-16.098 E5.57470
G1 X6.600 Y-15.888 E5.59468
G1 X7.110 Y-15.638 E5.61458
G1 X8.650 Y-14.798 E5.67606
G1 X9.570 Y-14.188 E5.71474
G1 X10.650 Y-13.348 E5.76269
G1 X11.350 Y-12.728 E5.79546
G1 X12.180 Y-11.878 E5.83709
G1 X12.660 Y-11.328 E5.86268
G1 X13.320 Y-10.488 E5.90011
G1 X13.760 Y-9.858 E5.92704
G1 X14.280 Y-9.018 E5.96167
G1 X14.590 Y-8.448 E5.98440
G1 X15.010 Y-7.598 E6.01763
G1 X15.300 Y-6.938 E6.04289
G1 X15.610 Y-6.098 E6.07427
G1 X15.790 Y-5.538 E6.09489
G1 X16.020 Y-4.698 E6.12541
G1 X16.140 Y-4.158 E6.14479
G1 X16.300 Y-3.308 E6.17510
G1 X16.400 Y-2.608 E6.19988
G1 X16.470 Y-1.768 E6.22942
G1 X16.490 Y-0.358 E6.27884
G1 X16.470 Y0.212 E6.29883
G1 X16.377 Y1.259 E6.33567
G1 X15.950 Y1.272 F7800.000
G1 X12.280 Y30.972 F2100.000 E7.38441
G1 X12.160 Y31.652 E7.40861
G1 X11.960 Y32.502 E7.43921
G1 X11.690 Y33.382 E7.47147
G1 X11.360 Y34.222 E7.50310
G1 X10.930 Y35.112 E7.53773
G1 X10.440 Y35.952 E7.57181
G1 X10.190 Y36.342 E7.58805
G1 X9.770 Y36.892 E7.61230
G1 X8.870 Y37.932 E7.66050
G1 X8.490 Y38.312 E7.67933
G1 X8.070 Y38.652 E7.69827
G1 X6.960 Y39.502 E7.74726
G1 X6.480 Y39.842 E7.76788
G1 X5.690 Y40.262 E7.79923
G1 X5.140 Y40.472 E7.81986
G1 X1.980 Y41.402 E7.93530
G1 X1.390 Y41.552 E7.95663
G1 X1.090 Y41.602 E7.96729
G1 X0.480 Y41.652 E7.98874
G1 X-0.490 Y41.652 E8.02274
G1 X-1.100 Y41.602 E8.04418
G1 X-1.400 Y41.552 E8.05484
G1 X-1.990 Y41.402 E8.07618
G1 X-5.150 Y40.472 E8.19161
G1 X-5.700 Y40.262 E8.21225
G1 X-6.490 Y39.842 E8.24360
G1 X-6.970 Y39.502 E8.26421
G1 X-8.300 Y38.482 E8.32295
G1 X-8.710 Y38.102 E8.34254
G1 X-9.080 Y37.702 E8.36164
G1 X-9.790 Y36.862 E8.40018
G1 X-10.410 Y35.992 E8.43762
G1 X-10.910 Y35.152 E8.47188
G1 X-11.370 Y34.222 E8.50824
G1 X-11.700 Y33.382 E8.53987
G1 X-11.970 Y32.502 E8.57212
G1 X-12.170 Y31.652 E8.60273
G1 X-12.290 Y30.972 E8.62692
G1 X-15.960 Y1.272 E9.67566
G1 X-16.060 Y0.172 E9.71437
G1 X-16.080 Y-1.198 E9.76239
G1 X-16.060 Y-1.728 E9.78097
G1 X-15.990 Y-2.568 E9.81051
G1 X-15.900 Y-3.228 E9.83386
G1 X-15.740 Y-4.078 E9.86417
G1 X-15.620 Y-4.588 E9.88253
G1 X-15.390 Y-5.428 E9.91305
G1 X-15.220 Y-5.948 E9.93222
G1 X-14.910 Y-6.788 E9.96360
G1 X-14.650 Y-7.408 E9.98716
G1 X-14.230 Y-8.258 E10.02039
G1 X-13.930 Y-8.798 E10.04204
G1 X-13.410 Y-9.638 E10.07666
G1 X-13.000 Y-10.228 E10.10184
G1 X-12.340 Y-11.068 E10.13927
G1 X-11.910 Y-11.558 E10.16212
G1 X-11.090 Y-12.408 E10.20351
G1 X-10.390 Y-13.038 E10.23651
G1 X-9.300 Y-13.878 E10.28474
G1 X-8.450 Y-14.428 E10.32022
G1 X-6.660 Y-15.398 E10.39157
G1 X-5.850 Y-15.728 E10.42222
G1 X-5.290 Y-15.888 E10.44263
G1 X-5.000 Y-15.948 E10.45301
G1 X-4.420 Y-16.028 E10.47352
G1 X-3.840 Y-16.048 E10.49386
G1 X3.830 Y-16.048 E10.76265
G1 X4.410 Y-16.028 E10.78299
G1 X4.990 Y-15.948 E10.80351
G1 X5.280 Y-15.888 E10.81389
G1 X5.840 Y-15.728 E10.83430
G1 X6.650 Y-15.398 E10.86495
G1 X8.440 Y-14.428 E10.93630
G1 X9.310 Y-13.858 E10.97275
G1 X10.390 Y-13.018 E11.02070
G1 X11.040 Y-12.438 E11.05122
G1 X11.870 Y-11.588 E11.09286
G1 X12.330 Y-11.068 E11.11719
G1 X12.990 Y-10.228 E11.15463
G1 X13.400 Y-9.638 E11.17980
G1 X13.920 Y-8.798 E11.21443
G1 X14.220 Y-8.258 E11.23607
G1 X14.640 Y-7.408 E11.26930
G1 X14.900 Y-6.788 E11.29286
G1 X15.210 Y-5.948 E11.32424
G1 X15.380 Y-5.428 E11.34341
G1 X15.730 Y-4.078 E11.39229
G1 X15.890 Y-3.228 E11.42260
G1 X15.980 Y-2.568 E11.44594
G1 X16.050 Y-1.728 E11.47548
G1 X16.070 Y-0.358 E11.52350
G1 X16.050 Y0.172 E11.54208
G1 X15.957 Y1.209 E11.57858
G1 F1800.000 E10.57858
G92 E0
G1 X7.444 Y20.585 F7800.000
G1 F1800.000 E1.00000
G1 X7.911 Y21.506 F2100.000 E1.03616
G1 X9.376 Y23.337 E1.11836
G1 X9.685 Y23.556 E1.13161
G1 X9.790 Y23.854 E1.14268
G1 X11.129 Y25.527 E1.21781
G1 X10.853 Y26.103 E1.24020
G1 X10.904 Y26.152 E1.24268
G1 X10.946 Y27.143 E1.27743
G1 X11.465 Y28.618 E1.33224
G1 X11.370 Y28.753 E1.33800
G1 X11.430 Y28.829 E1.34141
G1 X11.081 Y30.296 E1.39427
G1 X11.125 Y31.328 E1.43047
G1 X11.329 Y31.682 E1.44480
G1 X10.347 Y33.377 E1.51344
G1 X10.200 Y33.993 E1.53564
G1 X9.813 Y34.300 E1.55295
G1 X9.039 Y35.636 E1.60706
G1 X8.812 Y36.375 E1.63416
G1 X5.431 Y38.944 E1.78297
G1 X3.925 Y39.452 E1.83865
G1 X3.636 Y39.452 E1.84878
G1 X2.793 Y40.295 E1.89055
G1 X-0.560 Y40.295 E2.00809
G1 X-1.245 Y40.196 E2.03233
G1 X-6.717 Y38.594 E2.23213
G1 X-7.311 Y37.670 E2.27062
G1 X-9.184 Y35.446 E2.37253
G1 X-9.481 Y35.244 E2.38511
G1 X-9.593 Y34.961 E2.39578
G1 X-11.011 Y33.278 E2.47291
G1 X-10.844 Y32.919 E2.48677
G1 X-11.365 Y32.398 E2.51259
G1 X-11.365 Y30.471 E2.58010
G1 X-11.461 Y30.227 E2.58930
G1 X-11.365 Y30.086 E2.59530
G1 X-11.365 Y28.745 E2.64228
G1 X-11.471 Y28.595 E2.64872
G1 X-11.365 Y28.300 E2.65972
G1 X-11.365 Y27.983 E2.67082
G1 X-11.188 Y27.806 E2.67958
G1 X-10.902 Y27.007 E2.70934
G1 X-10.841 Y26.077 E2.74198
G1 X-10.463 Y25.723 E2.76015
G1 X-10.463 Y24.245 E2.81193
G1 X-10.605 Y23.862 E2.82625
G1 X-10.255 Y23.560 E2.84244
G1 X-7.624 Y20.929 E2.97286
G1 X-7.203 Y20.929 E2.98761
G1 X-5.951 Y19.850 E3.04551
G1 X-5.303 Y19.609 E3.06976
G1 X-4.094 Y18.400 E3.12967
G1 X2.048 Y18.400 E3.34492
G1 X3.051 Y18.615 E3.38086
G1 X7.387 Y20.559 E3.54738
G1 F1800.000 E2.54738
G92 E0
G1 X5.817 Y12.811 F7800.000
G1 F1800.000 E1.00000
G1 X4.615 Y13.124 F2100.000 E1.04354
G1 X3.452 Y13.124 E1.08430
G1 X2.609 Y13.967 E1.12608
G1 X-0.286 Y13.967 E1.22751
G1 X-0.795 Y13.913 E1.24546
G1 X-7.344 Y12.509 E1.48020
G1 X-7.920 Y11.715 E1.51458
G1 X-11.194 Y9.124 E1.66088
G1 X-11.344 Y8.609 E1.67968
G1 X-12.136 Y7.578 E1.72525
G1 X-12.373 Y7.430 E1.73502
G1 X-12.581 Y7.000 E1.75178
G1 X-14.066 Y5.070 E1.83710
G1 X-13.801 Y4.532 E1.85811
G1 X-13.831 Y4.423 E1.86210
G1 X-14.320 Y3.413 E1.90140
G1 X-15.034 Y2.699 E1.93682
G1 X-15.034 Y-1.717 E2.09155
G1 X-14.715 Y-2.036 E2.10740
G1 X-14.699 Y-2.123 E2.11048
G1 X-14.696 Y-3.410 E2.15560
G1 X-14.641 Y-3.465 E2.15830
G1 X-14.641 Y-3.932 E2.17468
G1 X-14.744 Y-4.098 E2.18152
G1 X-14.641 Y-4.306 E2.18967
G1 X-14.641 Y-5.931 E2.24661
G1 X-14.002 Y-6.570 E2.27827
G1 X-14.042 Y-6.651 E2.28141
G1 X-12.521 Y-8.596 E2.36793
G1 X-12.323 Y-8.997 E2.38360
G1 X-12.099 Y-9.136 E2.39285
G1 X-11.277 Y-10.188 E2.43965
G1 X-11.121 Y-10.708 E2.45867
G1 X-7.932 Y-13.186 E2.60022
G1 X-6.447 Y-14.671 E2.67381
G1 X4.500 Y-14.671 E3.05742
G1 X5.683 Y-14.368 E3.10023
G1 X9.666 Y-12.185 E3.25939
G1 X9.906 Y-11.632 E3.28051
G1 X11.344 Y-10.169 E3.35241
G1 X11.525 Y-10.068 E3.35966
G1 X11.661 Y-9.847 E3.36877
G1 X13.482 Y-7.996 E3.45978
G1 X13.223 Y-7.378 E3.48325
G1 X13.286 Y-7.207 E3.48962
G1 X14.443 Y-5.329 E3.56694
G1 X14.191 Y-4.877 E3.58509
G1 X14.231 Y-4.656 E3.59294
G1 X14.907 Y-2.833 E3.66109
G1 X14.698 Y-2.532 E3.67391
G1 X14.699 Y-2.125 E3.68819
G1 X14.860 Y-1.249 E3.71939
G1 X14.992 Y-1.092 E3.72658
G1 X14.942 Y-0.808 E3.73670
G1 X15.002 Y-0.483 E3.74826
G1 X14.853 Y-0.305 E3.75641
G1 X14.704 Y0.539 E3.78642
G1 X14.705 Y0.968 E3.80147
G1 X14.915 Y1.269 E3.81434
G1 X14.257 Y3.070 E3.88155
G1 X14.214 Y3.316 E3.89030
G1 X14.465 Y3.763 E3.90826
G1 X13.314 Y5.651 E3.98575
G1 X13.259 Y5.802 E3.99139
G1 X13.517 Y6.411 E4.01454
G1 X11.715 Y8.274 E4.10538
G1 X11.570 Y8.511 E4.11511
G1 X11.385 Y8.615 E4.12255
G1 X9.997 Y10.050 E4.19252
G1 X9.761 Y10.605 E4.21366
G1 X5.872 Y12.780 E4.36979
G1 F1800.000 E3.36979
G92 E0
G1 X2.919 Y19.018 F7800.000
G1 F1800.000 E1.00000
G1 X7.136 Y20.909 F2100.000 E1.16195
G1 X7.555 Y21.735 E1.19441
G1 X9.084 Y23.647 E1.28021
G1 X9.332 Y23.822 E1.29084
G1 X9.416 Y24.061 E1.29971
G1 X10.635 Y25.584 E1.36807
G1 X10.340 Y26.196 E1.39187
G1 X10.490 Y26.339 E1.39914
G1 X10.528 Y27.223 E1.43014
G1 X10.995 Y28.553 E1.47952
G1 X10.844 Y28.766 E1.48869
G1 X10.973 Y28.930 E1.49600
G1 X10.657 Y30.256 E1.54376
G1 X10.699 Y31.246 E1.57848
G1 X10.632 Y31.316 E1.58192
G1 X10.842 Y31.682 E1.59670
G1 X9.951 Y33.220 E1.65898
G1 X9.824 Y33.753 E1.67821
G1 X9.488 Y34.019 E1.69321
G1 X8.650 Y35.466 E1.75182
G1 X8.449 Y36.122 E1.77586
G1 X5.231 Y38.567 E1.91749
G1 X3.856 Y39.030 E1.96833
G1 X3.462 Y39.030 E1.98216
G1 X2.619 Y39.873 E2.02393
G1 X-0.530 Y39.873 E2.13429
G1 X-1.156 Y39.784 E2.15643
G1 X-6.447 Y38.233 E2.34966
G1 X-7.003 Y37.369 E2.38568
G1 X-8.899 Y35.130 E2.48850
G1 X-9.137 Y34.968 E2.49857
G1 X-9.226 Y34.742 E2.50710
G1 X-10.515 Y33.212 E2.57722
G1 X-10.337 Y32.829 E2.59200
G1 X-10.943 Y32.223 E2.62203
G1 X-10.943 Y30.391 E2.68624
G1 X-10.987 Y30.280 E2.69043
G1 X-10.943 Y30.215 E2.69316
G1 X-10.943 Y28.612 E2.74936
G1 X-11.000 Y28.531 E2.75282
G1 X-10.943 Y28.373 E2.75872
G1 X-10.943 Y28.157 E2.76627
G1 X-10.823 Y28.037 E2.77223
G1 X-10.485 Y27.093 E2.80736
G1 X-10.431 Y26.271 E2.83625
G1 X-10.069 Y25.931 E2.85365
G1 X-10.041 Y25.854 E2.85651
G1 X-10.041 Y24.169 E2.91557
G1 X-10.108 Y23.990 E2.92227
G1 X-9.968 Y23.870 E2.92873
G1 X-7.449 Y21.350 E3.05358
G1 X-7.046 Y21.350 E3.06770
G1 X-5.733 Y20.219 E3.12844
G1 X-5.070 Y19.972 E3.15325
G1 X-3.919 Y18.822 E3.21027
G1 X2.004 Y18.822 E3.41784
G1 X2.858 Y19.004 E3.44844
G1 F1800.000 E2.44844
G92 E0
G1 X2.434 Y13.546 F7800.000
G1 F1800.000 E1.00000
G1 X-0.263 Y13.546 F2100.000 E1.09453
G1 X-0.728 Y13.496 E1.11092
G1 X-7.098 Y12.131 E1.33921
G1 X-7.641 Y11.382 E1.37165
G1 X-7.678 Y11.369 E1.37303
G1 X-10.827 Y8.877 E1.51373
G1 X-10.961 Y8.415 E1.53060
G1 X-11.848 Y7.261 E1.58160
G1 X-12.046 Y7.137 E1.58978
G1 X-12.221 Y6.777 E1.60381
G1 X-13.572 Y5.021 E1.68145
G1 X-13.352 Y4.576 E1.69885
G1 X-13.434 Y4.274 E1.70980
G1 X-13.971 Y3.166 E1.75297
G1 X-14.613 Y2.524 E1.78477
G1 X-14.613 Y-1.542 E1.92726
G1 X-14.324 Y-1.831 E1.94158
G1 X-14.277 Y-2.084 E1.95059
G1 X-14.275 Y-3.235 E1.99094
G1 X-14.220 Y-3.290 E1.99366
G1 X-14.220 Y-4.052 E2.02038
G1 X-14.263 Y-4.121 E2.02323
G1 X-14.220 Y-4.208 E2.02661
G1 X-14.220 Y-5.757 E2.08088
G1 X-13.492 Y-6.485 E2.11696
G1 X-13.547 Y-6.599 E2.12141
G1 X-12.163 Y-8.370 E2.20021
G1 X-11.999 Y-8.702 E2.21318
G1 X-11.813 Y-8.817 E2.22083
G1 X-10.896 Y-9.991 E2.27304
G1 X-10.756 Y-10.458 E2.29012
G1 X-7.652 Y-12.869 E2.42786
G1 X-6.272 Y-14.249 E2.49627
G1 X4.447 Y-14.249 E2.87190
G1 X5.527 Y-13.973 E2.91098
G1 X9.336 Y-11.884 E3.06322
G1 X9.550 Y-11.392 E3.08203
G1 X11.086 Y-9.831 E3.15879
G1 X11.224 Y-9.754 E3.16431
G1 X11.327 Y-9.585 E3.17124
G1 X12.985 Y-7.900 E3.25409
G1 X12.770 Y-7.387 E3.27357
G1 X12.906 Y-7.022 E3.28722
G1 X13.955 Y-5.318 E3.35734
G1 X13.749 Y-4.949 E3.37215
G1 X13.824 Y-4.544 E3.38659
G1 X14.435 Y-2.893 E3.44830
G1 X14.276 Y-2.664 E3.45806
G1 X14.277 Y-2.086 E3.47833
G1 X14.466 Y-1.063 E3.51476
G1 X14.543 Y-0.972 E3.51895
G1 X14.514 Y-0.806 E3.52485
G1 X14.551 Y-0.601 E3.53216
G1 X14.457 Y-0.488 E3.53730
G1 X14.283 Y0.502 E3.57255
G1 X14.284 Y1.101 E3.59354
G1 X14.444 Y1.331 E3.60335
G1 X13.849 Y2.961 E3.66417
G1 X13.772 Y3.391 E3.67950
G1 X13.976 Y3.754 E3.69409
G1 X12.932 Y5.467 E3.76439
G1 X12.806 Y5.814 E3.77732
G1 X13.020 Y6.318 E3.79652
G1 X11.379 Y8.015 E3.87922
G1 X11.268 Y8.197 E3.88672
G1 X11.125 Y8.278 E3.89247
G1 X9.640 Y9.813 E3.96733
G1 X9.429 Y10.308 E3.98615
G1 X5.659 Y12.417 E4.13756
G1 X4.561 Y12.703 E4.17732
G1 X3.277 Y12.703 E4.22231
G1 X2.479 Y13.501 E4.26187
G1 F1800.000 E3.26187
G92 E0
G1 X1.959 Y19.243 F7800.000
G1 F1800.000 E1.00000
G1 X2.788 Y19.420 F2100.000 E1.02969
G1 X6.827 Y21.232 E1.18485
G1 X7.198 Y21.964 E1.21361
G1 X8.792 Y23.956 E1.30301
G1 X8.979 Y24.088 E1.31102
G1 X9.042 Y24.268 E1.31771
G1 X10.140 Y25.640 E1.37928
G1 X9.828 Y26.289 E1.40451
G1 X10.076 Y26.527 E1.41654
G1 X10.109 Y27.304 E1.44382
G1 X10.525 Y28.487 E1.48775
G1 X10.317 Y28.780 E1.50034
G1 X10.516 Y29.031 E1.51155
G1 X10.234 Y30.215 E1.55420
G1 X10.271 Y31.084 E1.58468
G1 X10.109 Y31.253 E1.59289
G1 X10.355 Y31.681 E1.61021
G1 X9.556 Y33.062 E1.66612
G1 X9.448 Y33.513 E1.68239
G1 X9.164 Y33.738 E1.69508
G1 X8.261 Y35.296 E1.75820
G1 X8.086 Y35.868 E1.77916
G1 X5.031 Y38.190 E1.91362
G1 X3.787 Y38.609 E1.95962
G1 X3.287 Y38.609 E1.97714
G1 X2.444 Y39.452 E2.01891
G1 X-0.500 Y39.452 E2.12210
G1 X-1.066 Y39.371 E2.14213
G1 X-6.178 Y37.873 E2.32880
G1 X-6.715 Y37.039 E2.36358
G1 X-6.757 Y37.019 E2.36522
G1 X-8.614 Y34.814 E2.46624
G1 X-8.792 Y34.693 E2.47379
G1 X-8.859 Y34.523 E2.48018
G1 X-10.020 Y33.146 E2.54331
G1 X-9.831 Y32.740 E2.55899
G1 X-10.522 Y32.049 E2.59324
G1 X-10.522 Y28.332 E2.72350
G1 X-10.458 Y28.268 E2.72665
G1 X-10.068 Y27.180 E2.76718
G1 X-10.022 Y26.464 E2.79229
G1 X-9.706 Y26.169 E2.80743
G1 X-9.620 Y25.928 E2.81642
G1 X-9.620 Y24.117 E2.87986
G1 X-7.274 Y21.772 E2.99610
G1 X-6.889 Y21.772 E3.00959
G1 X-5.515 Y20.587 E3.07317
G1 X-4.837 Y20.335 E3.09854
G1 X-3.745 Y19.243 E3.15267
G1 X1.896 Y19.243 E3.35034
G1 F1800.000 E2.35034
G92 E0
G1 X2.260 Y13.124 F7800.000
G1 F1800.000 E1.00000
G1 X-0.241 Y13.124 F2100.000 E1.08764
G1 X-0.662 Y13.080 E1.10246
G1 X-6.851 Y11.753 E1.32431
G1 X-7.377 Y11.027 E1.35572
G1 X-7.473 Y10.994 E1.35925
G1 X-10.459 Y8.630 E1.49274
G1 X-10.579 Y8.221 E1.50767
G1 X-11.561 Y6.944 E1.56411
G1 X-11.720 Y6.845 E1.57070
G1 X-11.861 Y6.555 E1.58200
G1 X-13.078 Y4.972 E1.65196
G1 X-12.904 Y4.619 E1.66575
G1 X-13.038 Y4.126 E1.68366
G1 X-13.623 Y2.918 E1.73071
G1 X-14.192 Y2.350 E1.75887
G1 X-14.192 Y-1.367 E1.88913
G1 X-13.933 Y-1.626 E1.90192
G1 X-13.856 Y-2.045 E1.91686
G1 X-13.854 Y-3.060 E1.95243
G1 X-13.798 Y-3.115 E1.95517
