; generated by Slic3r 0.9.9 on 2016-04-03 at 17:00:58

; layer_height = 0.2
; perimeters = 1
; top_solid_layers = 3
; bottom_solid_layers = 3
; fill_density = 0.5
; perimeter_speed = 50
; infill_speed = 80
; travel_speed = 130
; nozzle_diameter = 0.5
; filament_diameter = 1.75
; extrusion_multiplier = 1
; perimeters extrusion width = 0.75mm
; infill extrusion width = 1.02mm
; solid infill extrusion width = 0.85mm
; top infill extrusion width = 0.85mm
; support material extrusion width = 0.85mm
; first layer extrusion width = 0.40mm

G21 ; set units to millimeters
M104 S200 ; set temperature
G28 ; home all axes
G1 Z5 F5000 ; lift nozzle

M109 S200 ; wait for temperature to be reached
G90 ; use absolute coordinates
G92 E0
M82 ; use absolute distances for extrusion
M106 S89
G1 F1800.000 E-1.00000
G92 E0
G1 Z0.200 F7800.000
G1 X3.951 Y-18.790
G1 F1800.000 E1.00000
G1 X4.531 Y-18.740 F2100.000 E1.02040
G1 X5.111 Y-18.640 E1.04103
G1 X5.671 Y-18.490 E1.06134
G1 X6.221 Y-18.300 E1.08174
G1 X8.301 Y-17.460 E1.16035
G1 X9.311 Y-16.950 E1.20000
G1 X10.701 Y-16.100 E1.25710
G1 X11.331 Y-15.660 E1.28403
G1 X12.411 Y-14.820 E1.33198
G1 X12.961 Y-14.340 E1.35756
G1 X13.831 Y-13.500 E1.39994
G1 X14.251 Y-13.070 E1.42100
G1 X14.981 Y-12.230 E1.46000
G1 X15.371 Y-11.730 E1.48223
G1 X15.981 Y-10.880 E1.51889
G1 X16.271 Y-10.440 E1.53736
G1 X16.781 Y-9.600 E1.57180
G1 X17.051 Y-9.110 E1.59140
G1 X17.681 Y-7.820 E1.64171
G1 X18.031 Y-6.970 E1.67393
G1 X18.471 Y-5.680 E1.72169
G1 X18.811 Y-4.490 E1.76506
G1 X18.951 Y-3.880 E1.78700
G1 X19.101 Y-3.040 E1.81690
G1 X19.291 Y-1.320 E1.87754
G1 X19.331 Y-0.480 E1.90701
G1 X19.291 Y1.250 E1.96766
G1 X19.221 Y2.100 E1.99755
G1 X19.151 Y2.660 E2.01732
G1 X19.011 Y3.500 E2.04717
G1 X18.921 Y3.960 E2.06359
G1 X18.621 Y5.170 E2.10728
G1 X18.371 Y6.010 E2.13800
G1 X18.191 Y6.540 E2.15761
G1 X17.861 Y7.390 E2.18956
G1 X17.261 Y8.690 E2.23974
G1 X16.581 Y9.930 E2.28930
G1 X16.291 Y10.400 E2.30866
G1 X15.721 Y11.250 E2.34452
G1 X15.331 Y11.780 E2.36758
G1 X14.641 Y12.620 E2.40568
G1 X14.251 Y13.060 E2.42628
G1 X13.431 Y13.900 E2.46742
G1 X12.961 Y14.330 E2.48974
G1 X11.961 Y15.180 E2.53574
G1 X11.311 Y15.680 E2.56448
G1 X10.041 Y16.520 E2.61784
G1 X9.211 Y16.990 E2.65126
G1 X7.131 Y17.970 E2.73184
G1 X6.131 Y18.300 E2.76875
G1 X1.401 Y19.210 E2.93755
G1 X0.881 Y19.290 E2.95598
G1 X0.371 Y19.330 E2.97391
G1 X-0.169 Y19.330 E2.99284
G1 X-0.909 Y19.260 E3.01888
G1 X-6.099 Y18.310 E3.20379
G1 X-6.799 Y18.100 E3.22940
G1 X-7.139 Y17.970 E3.24216
G1 X-9.219 Y16.980 E3.32288
G1 X-10.009 Y16.530 E3.35474
G1 X-11.289 Y15.690 E3.40840
G1 X-11.969 Y15.180 E3.43819
G1 X-12.969 Y14.330 E3.48418
G1 X-13.439 Y13.900 E3.50650
G1 X-14.259 Y13.060 E3.54764
G1 X-14.649 Y12.620 E3.56825
G1 X-15.339 Y11.780 E3.60634
G1 X-15.729 Y11.250 E3.62940
G1 X-16.559 Y9.990 E3.68228
G1 X-17.039 Y9.150 E3.71618
G1 X-17.309 Y8.630 E3.73672
G1 X-17.699 Y7.790 E3.76917
G1 X-18.199 Y6.540 E3.81635
G1 X-18.359 Y6.080 E3.83342
G1 X-18.619 Y5.240 E3.86424
G1 X-18.939 Y3.890 E3.91286
G1 X-19.159 Y2.660 E3.95665
G1 X-19.229 Y2.100 E3.97642
G1 X-19.299 Y1.250 E4.00631
G1 X-19.339 Y0.010 E4.04979
G1 X-19.339 Y-0.480 E4.06696
G1 X-19.299 Y-1.320 E4.09643
G1 X-19.259 Y-1.790 E4.11296
G1 X-19.099 Y-3.040 E4.15713
G1 X-18.949 Y-3.880 E4.18703
G1 X-18.639 Y-5.180 E4.23386
G1 X-18.469 Y-5.750 E4.25471
G1 X-18.059 Y-6.900 E4.29750
G1 X-17.719 Y-7.750 E4.32958
G1 X-17.489 Y-8.270 E4.34950
G1 X-17.069 Y-9.110 E4.38242
G1 X-16.769 Y-9.650 E4.40406
G1 X-16.249 Y-10.490 E4.43869
G1 X-15.379 Y-11.730 E4.49177
G1 X-14.989 Y-12.230 E4.51399
G1 X-14.259 Y-13.070 E4.55299
G1 X-13.839 Y-13.500 E4.57406
G1 X-12.969 Y-14.340 E4.61644
G1 X-12.419 Y-14.820 E4.64202
G1 X-11.339 Y-15.660 E4.68997
G1 X-10.689 Y-16.110 E4.71767
G1 X-9.289 Y-16.960 E4.77507
G1 X-8.319 Y-17.450 E4.81316
G1 X-6.259 Y-18.290 E4.89112
G1 X-5.429 Y-18.570 E4.92182
G1 X-5.139 Y-18.640 E4.93227
G1 X-4.559 Y-18.740 E4.95290
G1 X-3.969 Y-18.790 E4.97365
G1 X3.888 Y-18.790 E5.24898
G1 X3.971 Y-18.360 F7800.000
G1 X4.581 Y-18.310 F2100.000 E5.27043
G1 X5.191 Y-18.190 E5.29222
G1 X5.481 Y-18.110 E5.30276
G1 X6.061 Y-17.900 E5.32438
G1 X8.141 Y-17.060 E5.40299
G1 X9.091 Y-16.590 E5.44014
G1 X10.481 Y-15.740 E5.49723
G1 X11.071 Y-15.330 E5.52241
G1 X12.151 Y-14.490 E5.57036
G1 X12.671 Y-14.040 E5.59446
G1 X13.541 Y-13.200 E5.63684
G1 X13.931 Y-12.790 E5.65667
G1 X14.661 Y-11.950 E5.69567
G1 X15.031 Y-11.480 E5.71663
G1 X15.641 Y-10.630 E5.75330
G1 X15.911 Y-10.220 E5.77050
G1 X16.421 Y-9.380 E5.80494
G1 X16.671 Y-8.920 E5.82329
G1 X17.291 Y-7.650 E5.87282
G1 X17.641 Y-6.800 E5.90503
G1 X18.071 Y-5.550 E5.95135
G1 X18.401 Y-4.380 E5.99396
G1 X18.531 Y-3.810 E6.01444
G1 X18.681 Y-2.970 E6.04435
G1 X18.751 Y-2.520 E6.06031
G1 X18.841 Y-1.670 E6.09026
G1 X18.911 Y0.000 E6.14884
G1 X18.891 Y0.840 E6.17828
G1 X18.801 Y2.070 E6.22150
G1 X18.731 Y2.600 E6.24024
G1 X18.511 Y3.870 E6.28541
G1 X18.311 Y4.710 E6.31567
G1 X17.801 Y6.380 E6.37686
G1 X17.281 Y7.670 E6.42560
G1 X16.881 Y8.510 E6.45821
G1 X16.211 Y9.730 E6.50699
G1 X15.941 Y10.170 E6.52508
G1 X15.371 Y11.020 E6.56094
G1 X15.001 Y11.520 E6.58274
G1 X13.951 Y12.770 E6.63995
G1 X13.131 Y13.610 E6.68109
G1 X12.691 Y14.010 E6.70193
G1 X11.691 Y14.860 E6.74792
G1 X11.071 Y15.330 E6.77519
G1 X9.801 Y16.170 E6.82855
G1 X9.031 Y16.610 E6.85963
G1 X6.971 Y17.580 E6.93942
G1 X6.661 Y17.700 E6.95107
G1 X6.031 Y17.890 E6.97413
G1 X1.321 Y18.800 E7.14224
G1 X0.841 Y18.870 E7.15924
G1 X0.351 Y18.910 E7.17647
G1 X-0.149 Y18.910 E7.19399
G1 X-1.079 Y18.810 E7.22677
G1 X-5.669 Y17.970 E7.39030
G1 X-6.329 Y17.810 E7.41410
G1 X-6.979 Y17.580 E7.43826
G1 X-7.289 Y17.440 E7.45018
G1 X-9.039 Y16.600 E7.51821
G1 X-9.779 Y16.180 E7.54803
G1 X-11.059 Y15.340 E7.60168
G1 X-11.699 Y14.860 E7.62972
G1 X-12.699 Y14.010 E7.67571
G1 X-13.139 Y13.610 E7.69655
G1 X-13.959 Y12.770 E7.73769
G1 X-15.009 Y11.520 E7.79490
G1 X-15.379 Y11.020 E7.81670
G1 X-15.949 Y10.170 E7.85256
G1 X-16.199 Y9.780 E7.86880
G1 X-16.679 Y8.940 E7.90270
G1 X-17.479 Y7.230 E7.96886
G1 X-17.809 Y6.380 E8.00081
G1 X-17.949 Y5.960 E8.01633
G1 X-18.339 Y4.640 E8.06456
G1 X-18.529 Y3.800 E8.09475
G1 X-18.739 Y2.600 E8.13744
G1 X-18.809 Y2.070 E8.15617
G1 X-18.879 Y1.220 E8.18606
G1 X-18.919 Y0.000 E8.22884
G1 X-18.839 Y-1.740 E8.28988
G1 X-18.739 Y-2.590 E8.31987
G1 X-18.529 Y-3.810 E8.36326
G1 X-18.229 Y-5.080 E8.40899
G1 X-18.069 Y-5.620 E8.42873
G1 X-17.779 Y-6.460 E8.45987
G1 X-17.329 Y-7.590 E8.50249
G1 X-17.109 Y-8.080 E8.52132
G1 X-16.689 Y-8.920 E8.55423
G1 X-16.409 Y-9.430 E8.57462
G1 X-15.649 Y-10.630 E8.62440
G1 X-15.039 Y-11.480 E8.66106
G1 X-14.669 Y-11.950 E8.68202
G1 X-13.939 Y-12.790 E8.72102
G1 X-13.549 Y-13.200 E8.74085
G1 X-12.679 Y-14.040 E8.78323
G1 X-12.159 Y-14.490 E8.80733
G1 X-11.079 Y-15.330 E8.85528
G1 X-10.469 Y-15.750 E8.88124
G1 X-9.069 Y-16.600 E8.93863
G1 X-8.159 Y-17.060 E8.97437
G1 X-6.099 Y-17.900 E9.05233
G1 X-5.519 Y-18.100 E9.07383
G1 X-4.919 Y-18.250 E9.09550
G1 X-4.609 Y-18.300 E9.10651
G1 X-4.299 Y-18.340 E9.11746
G1 X-3.679 Y-18.370 E9.13922
G1 X3.908 Y-18.362 E9.40509
G1 X4.172 Y-16.992 F7800.000
G1 X5.091 Y-16.813 F2100.000 E9.43791
G1 X9.710 Y-14.940 E9.61257
G1 X9.984 Y-14.435 E9.63270
G1 X12.877 Y-12.178 E9.76128
G1 X12.999 Y-11.766 E9.77634
G1 X13.840 Y-10.792 E9.82145
G1 X14.033 Y-10.684 E9.82921
G1 X14.263 Y-10.303 E9.84480
G1 X15.956 Y-8.344 E9.93552
G1 X15.737 Y-7.865 E9.95398
G1 X16.411 Y-6.749 E9.99967
G1 X17.436 Y-5.724 E10.05048
G1 X17.436 Y-3.709 E10.12110
G1 X17.475 Y-3.615 E10.12466
G1 X17.436 Y-3.557 E10.12710
G1 X17.436 Y-2.385 E10.16815
G1 X17.453 Y-2.063 E10.17948
G1 X17.585 Y-1.341 E10.20520
G1 X17.701 Y-1.214 E10.21122
G1 X17.672 Y-0.866 E10.22347
G1 X17.781 Y-0.269 E10.24472
G1 X17.603 Y-0.057 E10.25443
G1 X17.594 Y0.054 E10.25832
G1 X17.717 Y0.177 E10.26440
G1 X17.717 Y4.592 E10.41913
G1 X16.780 Y5.529 E10.46558
G1 X16.419 Y6.291 E10.49509
G1 X16.645 Y6.718 E10.51201
G1 X15.330 Y8.644 E10.59376
G1 X15.549 Y9.162 E10.61344
G1 X13.639 Y11.124 E10.70941
G1 X13.474 Y11.366 E10.71967
G1 X13.329 Y11.443 E10.72542
G1 X12.192 Y12.610 E10.78252
G1 X12.035 Y13.045 E10.79871
G1 X8.410 Y15.448 E10.95115
G1 X8.352 Y15.466 E10.95326
G1 X7.114 Y16.703 E11.01461
G1 X3.563 Y16.703 E11.13908
G1 X2.720 Y17.546 E11.18085
G1 X-2.518 Y17.546 E11.36440
G1 X-3.361 Y16.703 E11.40618
G1 X-5.101 Y16.703 E11.46717
G1 X-6.168 Y16.460 E11.50550
G1 X-10.407 Y14.415 E11.67044
G1 X-10.624 Y13.963 E11.68801
G1 X-12.451 Y12.425 E11.77169
G1 X-12.512 Y12.396 E11.77408
G1 X-12.572 Y12.323 E11.77736
G1 X-14.795 Y10.452 E11.87920
G1 X-14.580 Y9.864 E11.90114
G1 X-16.156 Y7.933 E11.98847
G1 X-15.930 Y7.457 E12.00695
G1 X-17.027 Y5.527 E12.08473
G1 X-16.811 Y5.158 E12.09972
G1 X-17.558 Y3.256 E12.17130
G1 X-17.347 Y2.948 E12.18439
G1 X-17.365 Y2.735 E12.19188
G1 X-17.529 Y2.024 E12.21744
G1 X-17.635 Y1.913 E12.22281
G1 X-17.623 Y1.620 E12.23311
G1 X-17.767 Y0.997 E12.25551
G1 X-17.586 Y0.770 E12.26568
G1 X-17.568 Y0.358 E12.28012
G1 X-17.604 Y-0.064 E12.29495
G1 X-17.773 Y-0.266 E12.30419
G1 X-17.670 Y-0.834 E12.32441
G1 X-17.702 Y-1.211 E12.33769
G1 X-17.576 Y-1.348 E12.34421
G1 X-17.468 Y-1.940 E12.36529
G1 X-17.456 Y-2.226 E12.37534
G1 X-17.658 Y-2.507 E12.38744
G1 X-17.412 Y-3.235 E12.41437
G1 X-17.408 Y-3.342 E12.41810
G1 X-17.362 Y-3.386 E12.42034
G1 X-17.019 Y-4.412 E12.45827
G1 X-17.234 Y-4.761 E12.47262
G1 X-16.262 Y-6.695 E12.54849
G1 X-16.481 Y-7.125 E12.56540
G1 X-15.086 Y-9.053 E12.64881
G1 X-15.300 Y-9.582 E12.66881
G1 X-13.306 Y-11.514 E12.76612
G1 X-13.159 Y-11.716 E12.77487
G1 X-13.027 Y-11.784 E12.78007
G1 X-11.702 Y-13.067 E12.84470
G1 X-11.530 Y-13.500 E12.86103
G1 X-7.733 Y-15.794 E13.01650
G1 X-7.387 Y-15.890 E13.02908
G1 X-6.285 Y-16.992 E13.08370
G1 X4.109 Y-16.992 E13.44795
G1 X4.131 Y-16.570 F7800.000
G1 X4.971 Y-16.407 F2100.000 E13.47792
G1 X9.411 Y-14.606 E13.64585
G1 X9.655 Y-14.156 E13.66377
G1 X12.511 Y-11.929 E13.79070
G1 X12.621 Y-11.559 E13.80421
G1 X13.570 Y-10.461 E13.85506
G1 X13.730 Y-10.371 E13.86152
G1 X13.921 Y-10.054 E13.87448
G1 X15.460 Y-8.273 E13.95696
G1 X15.269 Y-7.856 E13.97305
G1 X15.311 Y-7.755 E13.97687
G1 X16.077 Y-6.487 E14.02879
G1 X17.015 Y-5.549 E14.07527
G1 X17.015 Y-2.374 E14.18653
G1 X17.033 Y-2.014 E14.19919
G1 X17.192 Y-1.145 E14.23013
G1 X17.266 Y-1.065 E14.23393
G1 X17.247 Y-0.845 E14.24167
G1 X17.331 Y-0.388 E14.25797
G1 X17.194 Y-0.224 E14.26542
G1 X17.157 Y0.214 E14.28082
G1 X17.295 Y0.351 E14.28765
G1 X17.295 Y4.418 E14.43014
G1 X16.430 Y5.283 E14.47303
G1 X16.016 Y6.157 E14.50694
G1 X15.964 Y6.331 E14.51327
G1 X16.154 Y6.690 E14.52751
G1 X14.858 Y8.608 E14.60864
G1 X15.052 Y9.068 E14.62615
G1 X13.311 Y10.856 E14.71360
G1 X13.185 Y11.042 E14.72149
G1 X13.073 Y11.101 E14.72590
G1 X11.827 Y12.382 E14.78853
G1 X11.686 Y12.771 E14.80302
G1 X8.229 Y15.063 E14.94839
G1 X8.129 Y15.093 E14.95204
G1 X6.940 Y16.282 E15.01098
G1 X3.388 Y16.282 E15.13546
G1 X2.545 Y17.125 E15.17723
G1 X-2.343 Y17.125 E15.34854
G1 X-3.186 Y16.282 E15.39032
G1 X-5.054 Y16.282 E15.45576
G1 X-6.027 Y16.059 E15.49076
G1 X-10.091 Y14.099 E15.64887
G1 X-10.283 Y13.699 E15.66444
G1 X-14.298 Y10.319 E15.84833
G1 X-14.110 Y9.806 E15.86747
G1 X-14.174 Y9.695 E15.87197
G1 X-15.661 Y7.873 E15.95437
G1 X-15.460 Y7.449 E15.97084
G1 X-16.540 Y5.530 E16.04802
G1 X-16.359 Y5.219 E16.06064
G1 X-16.394 Y5.067 E16.06610
G1 X-17.084 Y3.310 E16.13225
G1 X-16.914 Y3.061 E16.14278
G1 X-16.948 Y2.669 E16.15658
G1 X-17.145 Y1.816 E16.18725
G1 X-17.207 Y1.752 E16.19038
G1 X-17.199 Y1.581 E16.19638
G1 X-17.310 Y1.100 E16.21366
G1 X-17.171 Y0.925 E16.22151
G1 X-17.146 Y0.349 E16.24170
G1 X-17.195 Y-0.232 E16.26214
G1 X-17.323 Y-0.385 E16.26912
G1 X-17.245 Y-0.814 E16.28440
G1 X-17.266 Y-1.063 E16.29315
G1 X-17.183 Y-1.153 E16.29745
G1 X-17.049 Y-1.893 E16.32382
G1 X-17.029 Y-2.354 E16.33998
G1 X-17.189 Y-2.577 E16.34962
G1 X-16.613 Y-4.288 E16.41289
G1 X-16.575 Y-4.496 E16.42028
G1 X-16.752 Y-4.782 E16.43206
G1 X-15.828 Y-6.620 E16.50414
G1 X-15.797 Y-6.712 E16.50755
G1 X-15.988 Y-7.087 E16.52231
G1 X-14.693 Y-8.877 E16.59974
G1 X-14.619 Y-9.024 E16.60551
G1 X-14.803 Y-9.477 E16.62264
G1 X-12.986 Y-11.237 E16.71129
G1 X-12.877 Y-11.387 E16.71778
G1 X-12.779 Y-11.437 E16.72164
G1 X-11.344 Y-12.827 E16.79165
G1 X-11.191 Y-13.213 E16.80619
G1 X-7.564 Y-15.403 E16.95467
G1 X-7.167 Y-15.514 E16.96911
G1 X-6.110 Y-16.570 E17.02149
G1 X4.068 Y-16.570 E17.37819
G1 X4.091 Y-16.149 F7800.000
G1 X4.850 Y-16.001 F2100.000 E17.40531
G1 X9.113 Y-14.272 E17.56651
G1 X9.326 Y-13.878 E17.58221
G1 X12.146 Y-11.680 E17.70751
G1 X12.243 Y-11.353 E17.71946
G1 X13.299 Y-10.130 E17.77606
G1 X13.426 Y-10.058 E17.78121
G1 X13.579 Y-9.806 E17.79155
G1 X14.964 Y-8.202 E17.86580
G1 X14.809 Y-7.864 E17.87882
G1 X14.933 Y-7.564 E17.89020
G1 X15.742 Y-6.225 E17.94503
G1 X16.593 Y-5.374 E17.98720
G1 X16.593 Y-2.363 E18.09272
G1 X16.614 Y-1.964 E18.10671
G1 X16.799 Y-0.949 E18.14287
G1 X16.830 Y-0.916 E18.14446
G1 X16.822 Y-0.825 E18.14768
G1 X16.880 Y-0.506 E18.15903
G1 X16.786 Y-0.392 E18.16422
G1 X16.730 Y0.267 E18.18740
G1 X16.736 Y0.389 E18.19167
G1 X16.874 Y0.526 E18.19848
G1 X16.874 Y4.243 E18.32874
G1 X16.080 Y5.037 E18.36807
G1 X15.622 Y6.005 E18.40563
G1 X15.510 Y6.374 E18.41913
G1 X15.662 Y6.662 E18.43055
G1 X14.518 Y8.339 E18.50168
G1 X14.396 Y8.598 E18.51172
G1 X14.555 Y8.975 E18.52605
G1 X12.984 Y10.589 E18.60499
G1 X12.895 Y10.718 E18.61049
G1 X12.818 Y10.760 E18.61357
G1 X11.461 Y12.153 E18.68172
G1 X11.337 Y12.496 E18.69452
G1 X8.048 Y14.677 E18.83282
G1 X7.906 Y14.720 E18.83801
G1 X6.765 Y15.860 E18.89455
G1 X3.213 Y15.860 E19.01902
G1 X2.370 Y16.703 E19.06079
G1 X-2.169 Y16.703 E19.21987
G1 X-3.012 Y15.860 E19.26164
G1 X-5.006 Y15.860 E19.33154
G1 X-5.887 Y15.659 E19.36321
G1 X-9.775 Y13.784 E19.51448
G1 X-9.943 Y13.435 E19.52805
G1 X-13.801 Y10.187 E19.70478
G1 X-13.637 Y9.739 E19.72147
G1 X-13.677 Y9.716 E19.72307
G1 X-13.825 Y9.456 E19.73358
G1 X-15.166 Y7.813 E19.80789
G1 X-15.001 Y7.465 E19.82141
G1 X-15.100 Y7.212 E19.83092
G1 X-16.054 Y5.532 E19.89862
G1 X-15.911 Y5.286 E19.90860
G1 X-15.991 Y4.942 E19.92100
G1 X-16.610 Y3.363 E19.98043
G1 X-16.482 Y3.175 E19.98841
G1 X-16.531 Y2.603 E20.00851
G1 X-16.760 Y1.609 E20.04429
G1 X-16.778 Y1.590 E20.04517
G1 X-16.854 Y1.203 E20.05899
G1 X-16.756 Y1.080 E20.06451
G1 X-16.724 Y0.340 E20.09046
G1 X-16.787 Y-0.400 E20.11649
G1 X-16.873 Y-0.503 E20.12122
G1 X-16.820 Y-0.793 E20.13155
G1 X-16.831 Y-0.914 E20.13579
G1 X-16.790 Y-0.958 E20.13786
G1 X-16.629 Y-1.846 E20.16951
G1 X-16.601 Y-2.481 E20.19180
G1 X-16.721 Y-2.648 E20.19897
G1 X-16.204 Y-4.183 E20.25574
G1 X-16.132 Y-4.579 E20.26987
G1 X-16.269 Y-4.803 E20.27906
G1 X-15.438 Y-6.457 E20.34395
G1 X-15.341 Y-6.745 E20.35461
G1 X-15.496 Y-7.049 E20.36655
G1 X-14.332 Y-8.657 E20.43613
G1 X-14.157 Y-9.005 E20.44978
G1 X-14.306 Y-9.372 E20.46364
G1 X-12.666 Y-10.960 E20.54364
G1 X-12.595 Y-11.058 E20.54787
G1 X-12.531 Y-11.091 E20.55038
G1 X-10.986 Y-12.588 E20.62578
G1 X-10.852 Y-12.925 E20.63852
G1 X-7.396 Y-15.012 E20.78000
G1 X-6.948 Y-15.137 E20.79631
G1 X-5.936 Y-16.149 E20.84645
G1 X4.027 Y-16.149 E21.19561
G1 X4.050 Y-15.728 F7800.000
G1 X4.729 Y-15.595 F2100.000 E21.21987
G1 X8.814 Y-13.939 E21.37435
G1 X8.998 Y-13.600 E21.38784
G1 X11.780 Y-11.430 E21.51149
G1 X11.864 Y-11.146 E21.52189
G1 X13.028 Y-9.799 E21.58424
G1 X13.123 Y-9.745 E21.58808
G1 X13.237 Y-9.557 E21.59579
G1 X14.468 Y-8.132 E21.66180
G1 X14.325 Y-7.818 E21.67388
G1 X14.391 Y-7.774 E21.67667
G1 X14.556 Y-7.374 E21.69184
G1 X15.408 Y-5.963 E21.74959
G1 X16.172 Y-5.200 E21.78743
G1 X16.172 Y-2.352 E21.88722
G1 X16.194 Y-1.915 E21.90255
G1 X16.430 Y-0.624 E21.94855
G1 X16.377 Y-0.560 E21.95148
G1 X16.308 Y0.260 E21.98033
G1 X16.324 Y0.572 E21.99128
G1 X16.452 Y0.701 E21.99764
G1 X16.452 Y4.068 E22.11566
G1 X15.730 Y4.790 E22.15144
G1 X15.228 Y5.854 E22.19266
G1 X15.057 Y6.418 E22.21333
G1 X15.171 Y6.634 E22.22191
G1 X14.152 Y8.129 E22.28530
G1 X14.011 Y8.427 E22.29685
G1 X13.898 Y8.501 E22.30160
G1 X14.058 Y8.881 E22.31604
G1 X12.656 Y10.321 E22.38647
G1 X12.606 Y10.395 E22.38959
