; generated by Slic3r 1.2.9 on 2016-04-04 at 21:06:36

; external perimeters extrusion width = 0.40mm
; perimeters extrusion width = 0.75mm
; infill extrusion width = 0.48mm
; solid infill extrusion width = 0.48mm
; top infill extrusion width = 0.48mm

M104 S190 ; set temperature
G28 ; home all axes
G1 Z5 F5000 ; lift nozzle
M106 S200
M109 S190 ; wait for temperature to be reached
G21 ; set units to millimeters
G90 ; use absolute coordinates
M82 ; use absolute distances for extrusion
G92 E0
M106 S232.05
G1 E-1.00000 F1800.00000
G92 E0
G1 Z0.370 F9000.000
G1 X0.000 Y14.945 F9000.000
G1 E1.00000 F1800.00000
G1 X-14.569 Y14.945 E1.97332 F2520.000
G1 X-16.906 Y14.547 E2.13165
G1 X-18.980 Y13.401 E2.28998
G1 X-20.559 Y11.633 E2.44831
G1 X-21.464 Y9.443 E2.60664
G1 X-21.641 Y7.873 E2.71214
G1 X-21.641 Y-7.873 E3.76411
G1 X-21.244 Y-10.210 E3.92244
G1 X-20.097 Y-12.284 E4.08077
G1 X-18.329 Y-13.863 E4.23910
G1 X-16.139 Y-14.768 E4.39743
G1 X-14.569 Y-14.945 E4.50292
G1 X14.569 Y-14.945 E6.44957
G1 X16.906 Y-14.547 E6.60790
G1 X18.980 Y-13.401 E6.76623 F2520.000
G1 X20.559 Y-11.633 E6.92456
G1 X21.464 Y-9.443 E7.08289
G1 X21.641 Y-7.873 E7.18838
G1 X21.641 Y7.873 E8.24035
G1 X21.244 Y10.210 E8.39868
G1 X20.097 Y12.284 E8.55701
G1 X18.329 Y13.863 E8.71534
G1 X16.139 Y14.768 E8.87367
G1 X14.569 Y14.945 E8.97917
G1 X0.060 Y14.945 E9.94848
G1 X0.000 Y14.409 F9000.000
G1 X-14.569 Y14.409 E10.92180 F2520.000
G1 X-16.812 Y14.012 E11.07397
G1 X-18.783 Y12.869 E11.22614
G1 X-20.242 Y11.120 E11.37832
G1 X-21.105 Y7.873 E11.60274
G1 X-21.105 Y-7.873 E12.65472
G1 X-20.708 Y-10.116 E12.80689
G1 X-19.566 Y-12.087 E12.95906
G1 X-17.816 Y-13.546 E13.11123
G1 X-14.569 Y-14.409 E13.33566
G1 X14.569 Y-14.409 E15.28230
G1 X16.812 Y-14.012 E15.43447
G1 X18.783 Y-12.869 E15.58664 F2520.000
G1 X20.242 Y-11.120 E15.73881
G1 X21.105 Y-7.873 E15.96324
G1 X21.105 Y7.873 E17.01521
G1 X20.708 Y10.116 E17.16738
G1 X19.566 Y12.087 E17.31955
G1 X17.816 Y13.546 E17.47173
G1 X14.569 Y14.409 E17.69616
G1 X0.060 Y14.409 E18.66547
G1 E17.66547 F1800.00000
G92 E0
G1 X0.000 Y10.284 F9000.000
G1 E1.00000 F1800.00000
G1 X-15.568 Y10.284 E2.04002 F2520.000
G1 X-16.980 Y8.872 E2.17341
G1 X-16.980 Y-8.872 E3.35877
G1 X-15.568 Y-10.284 E3.49217
G1 X15.568 Y-10.284 E5.57220
G1 X16.980 Y-8.872 E5.70560
G1 X16.980 Y8.872 E6.89096 F2520.000
G1 X15.568 Y10.284 E7.02435
G1 X0.060 Y10.284 E8.06036
G1 X0.000 Y9.748 F9000.000
G1 X-15.346 Y9.748 E9.08556 F2520.000
G1 X-16.444 Y8.650 E9.18931
G1 X-16.444 Y-8.650 E10.34503
G1 X-15.346 Y-9.748 E10.44878
G1 X15.346 Y-9.748 E12.49917
G1 X16.444 Y-8.650 E12.60292 F2520.000
G1 X16.444 Y8.650 E13.75864
G1 X15.346 Y9.748 E13.86239
G1 X0.060 Y9.748 E14.88358
G1 X0.000 Y9.212 F9000.000
G1 X-15.124 Y9.212 E15.89395 F2520.000
G1 X-15.909 Y8.428 E15.96806
G1 X-15.909 Y-8.428 E17.09414
G1 X-15.124 Y-9.212 E17.16825
G1 X15.124 Y-9.212 E19.18900
G1 X15.909 Y-8.428 E19.26310
G1 X15.909 Y8.428 E20.38918 F2520.000
G1 X15.124 Y9.212 E20.46329
G1 X0.060 Y9.212 E21.46965
G1 X0.000 Y8.677 F9000.000
G1 X-14.902 Y8.677 E22.46521 F2520.000
G1 X-15.373 Y8.206 E22.50967
G1 X-15.373 Y-8.206 E23.60611
G1 X-14.902 Y-8.677 E23.65057
G1 X14.902 Y-8.677 E25.64168
G1 X15.373 Y-8.206 E25.68614 F2520.000
G1 X15.373 Y8.206 E26.78258
G1 X14.902 Y8.677 E26.82704
G1 X0.060 Y8.677 E27.81858
G1 E26.81858 F1800.00000
G92 E0
G1 X14.680 Y8.141 F9000.000
G1 E1.00000 F1800.00000
G1 X-14.680 Y8.141 E2.96146 F2520.000
G1 X-14.837 Y7.984 E2.97628
G1 X-14.837 Y-7.984 E4.04308
G1 X-14.680 Y-8.141 E4.05790
G1 X14.680 Y-8.141 E6.01936
G1 X14.837 Y-7.984 E6.03418
G1 X14.837 Y7.984 E7.10097
G1 X14.723 Y8.099 E7.11179
G1 X14.269 Y7.573 F9000.000
G1 X-14.269 Y7.573 E9.01834 F1764.000
G1 X-14.269 Y-7.573 E10.03023
G1 X14.269 Y-7.573 E11.93679
G1 X14.269 Y7.513 E12.94467
G1 E11.94467 F1800.00000
G92 E0
G1 X13.569 Y6.873 F9000.000
G1 X2.781 Y2.849 F9000.000
G1 X0.944 Y0.883 F9000.000
G1 X0.976 Y-0.671 F9000.000
G1 X0.985 Y-1.390 F9000.000
G1 X0.990 Y-1.556 F9000.000
G1 X0.550 Y-2.096 F9000.000
G1 X-9.420 Y-4.019 F9000.000
G1 E1.00000 F1800.00000
G1 X-9.666 Y-4.030 E1.01650 F1260.000
G1 X-9.764 Y-3.715 E1.03851
G1 X-9.911 Y-3.418 E1.06065
G1 X-10.093 Y-3.162 E1.08162
G1 X-10.299 Y-2.948 E1.10143
G1 X-10.547 Y-2.757 E1.12235
G1 X-10.822 Y-2.606 E1.14333
G1 X-11.118 Y-2.498 E1.16435
G1 X-11.443 Y-2.435 E1.18648
G1 X-11.757 Y-2.425 E1.20750
G1 X-12.068 Y-2.462 E1.22843
G1 X-12.355 Y-2.541 E1.24829
G1 X-12.657 Y-2.676 E1.27038
G1 X-12.920 Y-2.848 E1.29135
G1 X-13.141 Y-3.045 E1.31116
G1 X-13.342 Y-3.286 E1.33213
G1 X-13.511 Y-3.571 E1.35427
G1 X-13.627 Y-3.863 E1.37524
G1 X-13.695 Y-4.152 E1.39505
G1 X-13.720 Y-4.465 E1.41602
G1 X-13.695 Y-4.795 E1.43816
G1 X-13.622 Y-5.100 E1.45913
G1 X-13.511 Y-5.375 E1.47894
G1 X-13.352 Y-5.645 E1.49987
G1 X-13.154 Y-5.889 E1.52084
G1 X-12.920 Y-6.099 E1.54186
G1 X-12.641 Y-6.279 E1.56400
G1 X-12.354 Y-6.406 E1.58502
G1 X-12.051 Y-6.488 E1.60594
G1 X-11.757 Y-6.522 E1.62575
G1 X-11.443 Y-6.511 E1.64673
G1 X-11.118 Y-6.448 E1.66886
G1 X-10.823 Y-6.341 E1.68984
G1 X-10.562 Y-6.199 E1.70965
G1 X-10.312 Y-6.010 E1.73062
G1 X-10.082 Y-5.771 E1.75275
G1 X-9.902 Y-5.513 E1.77377
G1 X-9.764 Y-5.231 E1.79475
G1 X-9.666 Y-4.917 E1.81671
G1 X-9.420 Y-4.927 E1.83321
G1 X-9.375 Y-5.127 E1.84688
G1 X-9.256 Y-5.441 E1.86931
G1 X-9.083 Y-5.751 E1.89300
G1 X-8.877 Y-6.016 E1.91544
G1 X-8.648 Y-6.236 E1.93662
G1 X-8.377 Y-6.432 E1.95902
G1 X-8.078 Y-6.587 E1.98150
G1 X-7.742 Y-6.702 E2.00519
G1 X-7.412 Y-6.761 E2.02762
G1 X-7.095 Y-6.773 E2.04881
G1 X-6.761 Y-6.737 E2.07124
G1 X-6.418 Y-6.648 E2.09493
G1 X-6.109 Y-6.515 E2.11737
G1 X-5.839 Y-6.350 E2.13855
G1 X-5.580 Y-6.137 E2.16094
G1 X-5.354 Y-5.887 E2.18343
G1 X-5.159 Y-5.591 E2.20712
G1 X-5.017 Y-5.286 E2.22955
G1 X-4.926 Y-4.982 E2.25078
G1 X-4.875 Y-4.633 E2.27438
G1 X-4.875 Y-4.315 E2.29561
G1 X-4.922 Y-3.983 E2.31800
G1 X-5.017 Y-3.661 E2.34044
G1 X-5.159 Y-3.356 E2.36292
G1 X-5.354 Y-3.060 E2.38661
G1 X-5.580 Y-2.811 E2.40905
G1 X-5.824 Y-2.608 E2.43027
G1 X-6.125 Y-2.423 E2.45388
G1 X-6.418 Y-2.299 E2.47510
G1 X-6.742 Y-2.213 E2.49749
G1 X-7.076 Y-2.175 E2.51998
G1 X-7.430 Y-2.188 E2.54367
G1 X-7.760 Y-2.250 E2.56610
G1 X-8.061 Y-2.353 E2.58733
G1 X-8.376 Y-2.515 E2.61098
G1 X-8.649 Y-2.712 E2.63346
G1 X-8.889 Y-2.945 E2.65585
G1 X-9.083 Y-3.196 E2.67703
G1 X-9.249 Y-3.488 E2.69947
G1 X-9.375 Y-3.819 E2.72312
G1 X-9.407 Y-3.961 E2.73282
G1 E1.73282 F1800.00000
G92 E0
G1 X-4.559 Y-2.996 F9000.000
G1 X-4.616 Y-1.133 F9000.000
G1 X-4.695 Y0.905 F9000.000
G1 X-4.754 Y2.497 F9000.000
G1 X-3.897 Y2.654 F9000.000
G1 X-3.453 Y2.715 F9000.000
G1 X-2.331 Y-1.289 F9000.000
G1 X0.868 Y-4.274 F9000.000
G1 E1.00000 F1800.00000
G1 X0.857 Y-4.126 E1.00988 F1260.000
G1 X0.787 Y-3.785 E1.03314
G1 X0.670 Y-3.457 E1.05640
G1 X0.510 Y-3.148 E1.07965
G1 X0.309 Y-2.864 E1.10291
G1 X0.071 Y-2.609 E1.12617
G1 X-0.199 Y-2.390 E1.14942
G1 X-0.496 Y-2.209 E1.17268
G1 X-0.815 Y-2.070 E1.19594
G1 X-1.151 Y-1.976 E1.21920
G1 X-1.495 Y-1.929 E1.24245
G1 X-1.844 Y-1.929 E1.26571
G1 X-2.188 Y-1.976 E1.28897
G1 X-2.524 Y-2.070 E1.31222
G1 X-2.843 Y-2.209 E1.33548
G1 X-3.140 Y-2.390 E1.35874
G1 X-3.410 Y-2.609 E1.38200
G1 X-3.648 Y-2.864 E1.40525
G1 X-3.849 Y-3.148 E1.42851
G1 X-4.009 Y-3.457 E1.45177
G1 X-4.126 Y-3.785 E1.47502
G1 X-4.196 Y-4.126 E1.49828
G1 X-4.219 Y-4.454 E1.52023
G1 X-4.197 Y-4.820 E1.54471
G1 X-4.126 Y-5.162 E1.56804
G1 X-4.009 Y-5.490 E1.59130
G1 X-3.849 Y-5.799 E1.61456
G1 X-3.648 Y-6.083 E1.63781
G1 X-3.410 Y-6.338 E1.66107
G1 X-3.140 Y-6.557 E1.68433
G1 X-2.843 Y-6.738 E1.70758
G1 X-2.524 Y-6.877 E1.73084
G1 X-2.207 Y-6.965 E1.75279
G1 X-1.845 Y-7.018 E1.77727
G1 X-1.495 Y-7.018 E1.80060
G1 X-1.151 Y-6.971 E1.82386
G1 X-0.815 Y-6.877 E1.84712
G1 X-0.496 Y-6.738 E1.87037
G1 X-0.199 Y-6.557 E1.89363
G1 X0.072 Y-6.338 E1.91689
G1 X0.309 Y-6.083 E1.94014
G1 X0.510 Y-5.799 E1.96340
G1 X0.702 Y-5.428 E1.99127
G1 X0.788 Y-5.156 E2.01032
G1 X0.857 Y-4.821 E2.03322
G1 X0.868 Y-4.664 E2.04374
G1 X1.169 Y-4.664 E2.06380
G1 X1.180 Y-4.840 E2.07559
G1 X1.253 Y-5.190 E2.09947
G1 X1.364 Y-5.509 E2.12203
G1 X1.534 Y-5.846 E2.14722
G1 X1.737 Y-6.139 E2.17109
G1 X1.964 Y-6.390 E2.19366
G1 X2.251 Y-6.633 E2.21880
G1 X2.536 Y-6.815 E2.24137
G1 X2.860 Y-6.966 E2.26525
G1 X3.220 Y-7.078 E2.29047
G1 X3.573 Y-7.136 E2.31439
G1 X3.930 Y-7.147 E2.33822
G1 X4.266 Y-7.113 E2.36079
G1 X4.633 Y-7.026 E2.38597
G1 X4.966 Y-6.896 E2.40985
G1 X5.262 Y-6.734 E2.43241
G1 X5.566 Y-6.510 E2.45760
G1 X5.821 Y-6.260 E2.48147
G1 X6.031 Y-5.995 E2.50404
G1 X6.223 Y-5.671 E2.52923
G1 X6.361 Y-5.341 E2.55310
G1 X6.450 Y-5.016 E2.57567
G1 X6.501 Y-4.642 E2.60085
G1 X6.499 Y-4.285 E2.62473
G1 X6.454 Y-3.950 E2.64729
G1 X6.355 Y-3.586 E2.67248
G1 X6.214 Y-3.258 E2.69635
G1 X6.042 Y-2.967 E2.71892
G1 X5.808 Y-2.671 E2.74411
G1 X5.550 Y-2.424 E2.76798
G1 X5.278 Y-2.223 E2.79055
G1 X4.947 Y-2.042 E2.81573
G1 X4.613 Y-1.915 E2.83965
G1 X4.266 Y-1.834 E2.86348
G1 X3.929 Y-1.800 E2.88605
G1 X3.553 Y-1.812 E2.91119
G1 X3.220 Y-1.869 E2.93376
G1 X2.878 Y-1.973 E2.95764
G1 X2.536 Y-2.132 E2.98286
G1 X2.235 Y-2.326 E3.00674
G1 X1.977 Y-2.544 E3.02930
G1 X1.725 Y-2.823 E3.05445
G1 X1.534 Y-3.101 E3.07701
G1 X1.371 Y-3.420 E3.10089
G1 X1.248 Y-3.776 E3.12611
G1 X1.178 Y-4.127 E3.14999
G1 X1.168 Y-4.273 E3.15980
G1 X0.928 Y-4.274 E3.17586
G1 E2.17586 F1800.00000
G92 E0
G1 X6.042 Y-1.924 F9000.000
G1 X6.701 Y-2.004 F9000.000
G1 X6.716 Y-2.545 F9000.000
G1 X6.714 Y-2.629 F9000.000
G1 X6.714 Y-2.636 F9000.000
G1 X6.718 Y-2.735 F9000.000
G1 X6.989 Y-4.408 F9000.000
G1 E1.00000 F1800.00000
G1 X7.013 Y-4.774 E1.02447 F1260.000
G1 X7.080 Y-5.113 E1.04756
G1 X7.201 Y-5.479 E1.07334
G1 X7.364 Y-5.809 E1.09788
G1 X7.567 Y-6.113 E1.12236
G1 X7.809 Y-6.389 E1.14683
G1 X8.084 Y-6.630 E1.17130
G1 X8.389 Y-6.834 E1.19578
G1 X8.718 Y-6.996 E1.22025
G1 X9.065 Y-7.114 E1.24473
G1 X9.424 Y-7.185 E1.26920
G1 X9.769 Y-7.208 E1.29229 F1260.000
G1 X10.154 Y-7.185 E1.31806
G1 X10.514 Y-7.114 E1.34261
G1 X10.861 Y-6.996 E1.36708
G1 X11.190 Y-6.834 E1.39156
G1 X11.494 Y-6.630 E1.41603
G1 X11.770 Y-6.389 E1.44050
G1 X12.011 Y-6.113 E1.46498
G1 X12.215 Y-5.809 E1.48945
G1 X12.377 Y-5.480 E1.51392
G1 X12.495 Y-5.133 E1.53840
G1 X12.566 Y-4.774 E1.56287
G1 X12.590 Y-4.408 E1.58735
G1 X12.566 Y-4.043 E1.61182
G1 X12.499 Y-3.704 E1.63491
G1 X12.377 Y-3.338 E1.66068
G1 X12.215 Y-3.008 E1.68523
G1 X12.011 Y-2.703 E1.70970
G1 X11.770 Y-2.428 E1.73418
G1 X11.494 Y-2.186 E1.75865
G1 X11.190 Y-1.983 E1.78312
G1 X10.861 Y-1.821 E1.80760
G1 X10.514 Y-1.703 E1.83207
G1 X10.155 Y-1.632 E1.85654
G1 X9.789 Y-1.608 E1.88102
G1 X9.424 Y-1.632 E1.90549
G1 X9.065 Y-1.703 E1.92997
G1 X8.718 Y-1.821 E1.95444
G1 X8.389 Y-1.983 E1.97891
G1 X8.084 Y-2.186 E2.00339
G1 X7.809 Y-2.428 E2.02786
G1 X7.567 Y-2.703 E2.05233
G1 X7.364 Y-3.008 E2.07681
G1 X7.202 Y-3.337 E2.10128
G1 X7.084 Y-3.683 E2.12575
G1 X7.013 Y-4.043 E2.15023
G1 X6.993 Y-4.348 E2.17069
G1 X6.869 Y-5.466 F9000.000
G1 X6.604 Y-5.730 E2.20127 F3780.000
G1 X7.199 Y-6.062 E2.25691
G1 X6.009 Y-7.252 E2.39444
G1 X6.935 Y-7.252 E2.47014
G1 X7.609 Y-6.578 E2.54802
G1 X7.862 Y-7.252 E2.60682
G1 X8.123 Y-6.990 E2.63706
G1 E1.63706 F1800.00000
G92 E0
G1 X6.434 Y-3.081 F9000.000
G1 E1.00000 F1800.00000
G1 X13.948 Y4.433 E1.71337 F3780.000
G1 X13.948 Y5.194 E1.76447
G1 X6.125 Y-2.628 E2.50714
G1 X5.754 Y-2.239 E2.54328
G1 X13.948 Y5.956 E3.32123
G1 X13.948 Y6.717 E3.37233
G1 X5.310 Y-1.921 E4.19236
G1 X4.795 Y-1.675 E4.23070
G1 X13.722 Y7.252 E5.07823
G1 X12.961 Y7.252 E5.12933
G1 X4.195 Y-1.514 E5.96156
G1 X3.458 Y-1.490 E6.01106
G1 X12.199 Y7.252 E6.84099
G1 X11.438 Y7.252 E6.89209
G1 X2.419 Y-1.767 E7.74835
G1 E6.74835 F1800.00000
G92 E0
G1 X0.612 Y-2.813 F9000.000
G1 E1.00000 F1800.00000
G1 X10.677 Y7.252 E1.95554 F3780.000
G1 X9.916 Y7.252 E2.00664
G1 X0.258 Y-2.406 E2.92357
G1 X-0.175 Y-2.077 E2.96003
G1 X9.155 Y7.252 E3.84574
G1 X8.394 Y7.252 E3.89684
G1 X-0.677 Y-1.819 E4.75796
G1 X-1.269 Y-1.650 E4.79931
G1 X7.632 Y7.252 E5.64440
G1 X6.871 Y7.252 E5.69550
G1 X-1.988 Y-1.607 E6.53655
G1 X-3.015 Y-1.873 E6.60778
G1 X6.110 Y7.252 E7.47408
G1 X5.349 Y7.252 E7.52518
G1 X-4.998 Y-3.095 E8.50750
G1 X-5.335 Y-2.671 E8.54386
G1 X4.588 Y7.252 E9.48594
G1 X3.826 Y7.252 E9.53704
G1 X-5.751 Y-2.325 E10.44627
G1 X-6.247 Y-2.061 E10.48405
G1 X3.065 Y7.252 E11.36816
G1 X2.304 Y7.252 E11.41926
G1 X-6.838 Y-1.891 E12.28722
G1 X-7.576 Y-1.867 E12.33676
G1 X1.543 Y7.252 E13.20248
G1 X0.782 Y7.252 E13.25358
G1 X-9.703 Y-3.233 E14.24900
G1 X-10.046 Y-2.815 E14.28531
G1 X0.021 Y7.252 E15.24102
G1 X-0.741 Y7.252 E15.29212
G1 X-10.471 Y-2.479 E16.21591
G1 X-10.990 Y-2.237 E16.25436
G1 X-1.502 Y7.252 E17.15518
G1 X-2.263 Y7.252 E17.20628
G1 X-11.626 Y-2.111 E18.09518
G1 X-12.483 Y-2.207 E18.15307
G1 X-3.024 Y7.252 E19.05107
G1 X-3.785 Y7.252 E19.10217
G1 X-13.948 Y-2.911 E20.06699
G1 X-13.948 Y-2.150 E20.11809
G1 X-4.547 Y7.252 E21.01064
G1 X-5.308 Y7.252 E21.06174
G1 X-13.948 Y-1.388 E21.88203
G1 X-13.948 Y-0.627 E21.93313
G1 X-6.069 Y7.252 E22.68115
G1 X-6.830 Y7.252 E22.73225
G1 X-13.948 Y0.134 E23.40800
G1 X-13.948 Y0.895 E23.45910
G1 X-7.591 Y7.252 E24.06259
G1 X-8.352 Y7.252 E24.11369
G1 X-13.948 Y1.656 E24.64492
G1 X-13.948 Y2.418 E24.69602
G1 X-9.114 Y7.252 E25.15498
G1 X-9.875 Y7.252 E25.20608
G1 X-13.948 Y3.179 E25.59277
G1 X-13.948 Y3.940 E25.64387
G1 X-10.636 Y7.252 E25.95830
G1 X-11.397 Y7.252 E26.00940
G1 X-13.948 Y4.701 E26.25156
G1 X-13.948 Y5.462 E26.30266
G1 X-12.158 Y7.252 E26.47256
G1 X-12.919 Y7.252 E26.52366
G1 X-13.948 Y6.223 E26.62129
G1 X-13.948 Y6.985 E26.67239
G1 X-13.681 Y7.252 E26.69776
G1 E25.69776 F1800.00000
G92 E0
G1 X-4.278 Y-3.136 F9000.000
G1 E1.00000 F1800.00000
G1 X-4.735 Y-3.593 E1.04337 F3780.000
G1 E0.04337 F1800.00000
G92 E0
G1 X1.005 Y-2.635 F9000.000
G1 X4.033 Y2.886 F9000.000
G1 X6.653 Y-0.131 F9000.000
G1 X6.702 Y-1.934 F9000.000
G1 X6.716 Y-2.441 F9000.000
G1 X6.714 Y-2.629 F9000.000
G1 X6.714 Y-2.636 F9000.000
G1 X6.718 Y-2.735 F9000.000
G1 X8.891 Y-1.385 F9000.000
G1 E1.00000 F1800.00000
G1 X13.948 Y3.672 E1.48009 F3780.000
G1 X13.948 Y2.911 E1.53119
G1 X9.747 Y-1.290 E1.92999
G1 X10.421 Y-1.377 E1.97561
G1 X13.948 Y2.150 E2.31042
G1 X13.948 Y1.388 E2.36152
G1 X10.990 Y-1.569 E2.64230
G1 X11.479 Y-1.842 E2.67985
G1 X13.948 Y0.627 E2.91427
G1 X13.948 Y-0.134 E2.96537
G1 X11.903 Y-2.179 E3.15953
G1 X12.263 Y-2.580 E3.19572
G1 X13.948 Y-0.895 E3.35569
G1 X13.948 Y-1.656 E3.40679
G1 X12.552 Y-3.052 E3.53930
G1 X12.770 Y-3.595 E3.57860
G1 X13.948 Y-2.417 E3.69043
G1 X13.948 Y-3.179 E3.74153
G1 X12.894 Y-4.233 E3.84162
G1 X12.870 Y-5.017 E3.89431
G1 X13.948 Y-3.940 E3.99661
G1 X13.948 Y-4.701 E4.04771
G1 X12.419 Y-6.230 E4.19284
G1 X12.158 Y-7.252 E4.26365
G1 X13.948 Y-5.462 E4.43355
G1 X13.948 Y-6.223 E4.48465
G1 X12.919 Y-7.252 E4.58229
G1 X13.681 Y-7.252 E4.63339
G1 X13.948 Y-6.985 E4.65876
G1 E3.65876 F1800.00000
G92 E0
G1 X-2.966 Y-6.990 F9000.000
G1 E1.00000 F1800.00000
G1 X-3.228 Y-7.252 E1.02658 F3780.000
G1 X-3.450 Y-6.660 E1.07195
G1 X-4.042 Y-7.252 E1.13201
G1 X-4.856 Y-7.252 E1.19045
G1 X-3.861 Y-6.257 E1.29142
G1 X-4.184 Y-5.766 E1.33362
G1 X-5.364 Y-6.946 E1.45348
G1 X-4.696 Y-5.464 F9000.000
G1 X-4.439 Y-5.207 E1.47958 F3780.000
G1 E0.47958 F1800.00000
G92 E0
G1 X-5.875 Y-6.706 F9000.000
G1 E1.00000 F1800.00000
G1 X-6.310 Y-6.980 E1.03435 F840.000
G1 X-6.674 Y-7.151 E1.06119
G1 X-7.072 Y-7.173 E1.08783
G1 X-7.465 Y-7.166 E1.11412
G1 X-7.867 Y-7.129 E1.14105
G1 X-8.544 Y-7.016 E1.18692
G1 X-8.884 Y-6.980 F9000.000
G1 X-9.156 Y-7.252 E1.21811 F3780.000
G1 X-10.077 Y-7.252 E1.29292
G1 X-9.052 Y-6.227 E1.41060
G1 X-9.453 Y-5.707 E1.46393
G1 X-10.478 Y-6.732 E1.58163
G1 X-10.767 Y-6.982 F9000.000
G1 X-11.362 Y-7.040 E1.66638 F840.000
G1 X-11.759 Y-7.048 E1.72260
G1 X-12.134 Y-7.028 E1.77575
G1 X-12.580 Y-6.970 E1.83945
G1 X-12.922 Y-6.981 F9000.000
G1 X-13.192 Y-7.252 E1.87515 F3780.000
G1 X-13.948 Y-6.949 E1.95111
G1 X-13.208 Y-6.209 E2.04879
G1 X-13.701 Y-5.644 E2.11877
G1 X-13.948 Y-5.891 E2.15140
G1 E1.15140 F1800.00000
G92 E0
G1 X-5.055 Y-6.601 F9000.000
G1 X-4.573 Y-6.549 F9000.000
G1 X-3.899 Y-6.860 F9000.000
