; generated by Slic3r 0.9.9 on 2016-04-04 at 14:00:21

; layer_height = 0.15
; perimeters = 1
; top_solid_layers = 3
; bottom_solid_layers = 3
; fill_density = 0.25
; perimeter_speed = 60
; infill_speed = 90
; travel_speed = 150
; nozzle_diameter = 0.4
; filament_diameter = 1.75
; extrusion_multiplier = 1
; perimeters extrusion width = 0.75mm
; infill extrusion width = 0.87mm
; solid infill extrusion width = 0.68mm
; top infill extrusion width = 0.68mm
; first layer extrusion width = 0.40mm

G21 ; set units to millimeters
M104 S190 ; set temperature
G28 ; home all axes
G1 Z5 F5000 ; lift nozzle
M106 S200
M109 S190 ; wait for temperature to be reached
G90 ; use absolute coordinates
G92 E0
M82 ; use absolute distances for extrusion
M106 S89
G1 F1800.000 E-1.00000
G92 E0
G1 Z0.270 F9000.000
G1 X1.810 Y-27.700
G1 F1800.000 E1.00000
G1 X42.000 Y-27.700 F2520.000 E2.33672
G1 X42.550 Y-27.680 E2.35503
G1 X42.820 Y-27.650 E2.36407
G1 X43.630 Y-27.500 E2.39146
G1 X44.150 Y-27.350 E2.40946
G1 X44.670 Y-27.160 E2.42788
G1 X45.400 Y-26.790 E2.45510
G1 X46.090 Y-26.340 E2.48250
G1 X46.710 Y-25.800 E2.50984
G1 X47.270 Y-25.200 E2.53714
G1 X47.440 Y-24.990 E2.54613
G1 X47.750 Y-24.530 E2.56458
G1 X48.020 Y-24.060 E2.58261
G1 X48.260 Y-23.570 E2.60075
G1 X48.450 Y-23.050 E2.61917
G1 X48.660 Y-22.260 E2.64635
G1 X48.780 Y-21.450 E2.67359
G1 X48.800 Y-20.900 E2.69189
G1 X48.800 Y-2.700 E3.29723
G1 X48.780 Y-2.140 E3.31587
G1 X48.750 Y-1.860 E3.32523
G1 X48.710 Y-1.580 E3.33464
G1 X48.590 Y-1.030 E3.35336
G1 X48.430 Y-0.490 E3.37210
G1 X48.110 Y0.290 E3.40014
G1 X47.840 Y0.790 E3.41904
G1 X47.530 Y1.260 E3.43776
G1 X47.180 Y1.710 E3.45672
G1 X46.800 Y2.120 E3.47532
G1 X-1.350 Y46.230 E5.64721
G1 X-1.980 Y46.750 E5.67438
G1 X-2.690 Y47.230 E5.70289
G1 X-3.390 Y47.590 E5.72907
G1 X-4.250 Y47.920 E5.75970
G1 X-4.720 Y48.070 E5.77611
G1 X-5.580 Y48.240 E5.80527
G1 X-6.090 Y48.290 E5.82231
G1 X-6.710 Y48.320 E5.84296
G1 X-31.500 Y48.320 E6.66748
G1 X-32.120 Y48.290 E6.68812
G1 X-32.630 Y48.240 E6.70517
G1 X-33.210 Y48.130 E6.72480
G1 X-34.000 Y47.910 E6.75208
G1 X-34.450 Y47.750 E6.76796
G1 X-34.890 Y47.560 E6.78390
G1 X-35.300 Y47.350 E6.79922
G1 X-35.780 Y47.070 E6.81771
G1 X-36.230 Y46.750 E6.83607
G1 X-36.820 Y46.270 E6.86137
G1 X-37.380 Y45.710 E6.88771
G1 X-37.860 Y45.120 E6.91301
G1 X-38.180 Y44.670 E6.93137
G1 X-38.460 Y44.190 E6.94986
G1 X-38.680 Y43.760 E6.96592
G1 X-38.880 Y43.280 E6.98322
G1 X-39.110 Y42.580 E7.00772
G1 X-39.340 Y41.550 E7.04282
G1 X-39.430 Y40.490 E7.07821
G1 X-39.840 Y5.480 E8.24272
G1 X-39.840 Y-18.510 E9.04063
G1 X-39.740 Y-19.670 E9.07936
G1 X-39.590 Y-20.440 E9.10545
G1 X-39.450 Y-20.930 E9.12240
G1 X-39.270 Y-21.430 E9.14008
G1 X-38.810 Y-22.420 E9.17638
G1 X-38.360 Y-23.160 E9.20519
G1 X-38.180 Y-23.410 E9.21544
G1 X-37.790 Y-23.870 E9.23549
G1 X-37.590 Y-24.090 E9.24538
G1 X-36.750 Y-24.880 E9.28374
G1 X-36.320 Y-25.210 E9.30176
G1 X-35.900 Y-25.490 E9.31855
G1 X-35.220 Y-25.860 E9.34430
G1 X-34.160 Y-26.300 E9.38247
G1 X-33.570 Y-26.490 E9.40309
G1 X-32.920 Y-26.630 E9.42521
G1 X-31.700 Y-26.740 E9.46595
G1 X1.750 Y-27.698 E10.57896
G1 X1.820 Y-27.300 F9000.000
G1 X42.000 Y-27.300 F2520.000 E11.91535
G1 X42.530 Y-27.280 E11.93299
G1 X42.790 Y-27.250 E11.94169
G1 X43.310 Y-27.160 E11.95925
G1 X43.830 Y-27.030 E11.97707
G1 X44.570 Y-26.760 E12.00327
G1 X45.280 Y-26.400 E12.02975
G1 X45.930 Y-25.950 E12.05604
G1 X46.530 Y-25.430 E12.08245
G1 X47.050 Y-24.830 E12.10886
G1 X47.500 Y-24.180 E12.13515
G1 X47.750 Y-23.710 E12.15286
G1 X48.050 Y-22.980 E12.17911
G1 X48.260 Y-22.210 E12.20566
G1 X48.380 Y-21.430 E12.23190
G1 X48.400 Y-20.900 E12.24954
G1 X48.400 Y-2.700 E12.85488
G1 X48.380 Y-2.140 E12.87352
G1 X48.350 Y-1.860 E12.88288
G1 X48.250 Y-1.310 E12.90148
G1 X48.010 Y-0.510 E12.92926
G1 X47.680 Y0.260 E12.95712
G1 X47.400 Y0.740 E12.97560
G1 X47.080 Y1.200 E12.99424
G1 X46.530 Y1.830 E13.02205
G1 X-1.620 Y45.940 E15.19395
G1 X-2.220 Y46.430 E15.21971
G1 X-2.890 Y46.880 E15.24656
G1 X-3.560 Y47.220 E15.27155
G1 X-4.370 Y47.540 E15.30051
G1 X-4.830 Y47.680 E15.31651
G1 X-5.090 Y47.750 E15.32546
G1 X-5.640 Y47.840 E15.34400
G1 X-6.130 Y47.890 E15.36038
G1 X-6.710 Y47.920 E15.37970
G1 X-31.500 Y47.920 E16.20422
G1 X-32.080 Y47.890 E16.22353
G1 X-32.580 Y47.840 E16.24025
G1 X-32.850 Y47.800 E16.24932
G1 X-33.390 Y47.680 E16.26772
G1 X-34.090 Y47.460 E16.29213
G1 X-34.720 Y47.200 E16.31479
G1 X-35.340 Y46.870 E16.33816
G1 X-35.780 Y46.590 E16.35550
G1 X-36.560 Y45.970 E16.38864
G1 X-37.080 Y45.450 E16.41310
G1 X-37.700 Y44.670 E16.44624
G1 X-37.980 Y44.230 E16.46359
G1 X-38.420 Y43.370 E16.49572
G1 X-38.670 Y42.670 E16.52044
G1 X-38.730 Y42.470 E16.52738
G1 X-38.940 Y41.490 E16.56072
G1 X-39.030 Y40.480 E16.59445
G1 X-39.440 Y5.470 E17.75896
G1 X-39.440 Y-18.510 E18.55654
G1 X-39.350 Y-19.600 E18.59292
G1 X-39.140 Y-20.580 E18.62625
G1 X-38.890 Y-21.290 E18.65129
G1 X-38.460 Y-22.220 E18.68537
G1 X-38.190 Y-22.690 E18.70339
G1 X-37.860 Y-23.170 E18.72277
G1 X-37.300 Y-23.830 E18.75156
G1 X-36.500 Y-24.560 E18.78758
G1 X-35.890 Y-25.020 E18.81299
G1 X-35.490 Y-25.270 E18.82868
G1 X-35.030 Y-25.510 E18.84593
G1 X-34.040 Y-25.920 E18.88157
G1 X-33.460 Y-26.100 E18.90177
G1 X-32.550 Y-26.280 E18.93263
G1 X-31.690 Y-26.340 E18.96130
G1 X1.760 Y-27.298 E20.07431
G1 F1800.000 E19.07431
G92 E0
G1 X-5.737 Y12.584 F9000.000
G1 F1800.000 E1.00000
G1 X-5.347 Y12.699 F2520.000 E1.01351
G1 X-4.689 Y12.993 E1.03748
G1 X-4.518 Y13.100 E1.04419
G1 X18.224 Y13.100 E1.80060
G1 X19.981 Y14.857 E1.88326
G1 X19.981 Y21.343 E2.09896
G1 X18.224 Y23.100 E2.18163
G1 X-2.576 Y23.100 E2.87344
G1 X-2.577 Y40.570 E3.45450
G1 X-2.594 Y40.792 E3.46191
G1 X-2.663 Y41.258 E3.47757
G1 X-2.733 Y41.537 E3.48714
G1 X-2.901 Y42.012 E3.50389
G1 X-3.023 Y42.274 E3.51349
G1 X-3.279 Y42.708 E3.53024
G1 X-3.448 Y42.941 E3.53983
G1 X-3.782 Y43.318 E3.55659
G1 X-3.993 Y43.515 E3.56618
G1 X-4.392 Y43.821 E3.58293
G1 X-4.636 Y43.974 E3.59249
G1 X-5.081 Y44.196 E3.60903
G1 X-5.338 Y44.296 E3.61820
G1 X-5.791 Y44.426 E3.63388
G1 X-6.062 Y44.477 E3.64303
G1 X-6.628 Y44.524 E3.66194
G1 X-31.572 Y44.524 E4.49157
G1 X-32.152 Y44.476 E4.51092
G1 X-32.447 Y44.417 E4.52095
G1 X-32.960 Y44.260 E4.53879
G1 X-33.239 Y44.143 E4.54883
G1 X-33.687 Y43.900 E4.56580
G1 X-33.926 Y43.739 E4.57538
G1 X-34.314 Y43.418 E4.59213
G1 X-34.518 Y43.214 E4.60172
G1 X-34.839 Y42.826 E4.61848
G1 X-35.000 Y42.587 E4.62805
G1 X-35.240 Y42.144 E4.64480
G1 X-35.353 Y41.879 E4.65440
G1 X-35.504 Y41.398 E4.67115
G1 X-35.564 Y41.117 E4.68074
G1 X-35.624 Y40.505 E4.70119
G1 X-35.624 Y16.468 E5.50066
G1 X-35.516 Y15.637 E5.52853
G1 X-35.401 Y15.247 E5.54203
G1 X-35.110 Y14.595 E5.56579
G1 X-34.897 Y14.252 E5.57923
G1 X-34.457 Y13.718 E5.60225
G1 X-34.169 Y13.450 E5.61533
G1 X-33.615 Y13.055 E5.63795
G1 X-33.280 Y12.875 E5.65060
G1 X-32.676 Y12.643 E5.67213
G1 X-32.320 Y12.554 E5.68434
G1 X-31.592 Y12.476 E5.70869
G1 X-6.568 Y12.476 E6.54099
G1 X-5.796 Y12.575 E6.56687
G1 F1800.000 E5.56687
G92 E0
G1 X-5.892 Y8.939 F9000.000
G1 X-5.975 Y9.883
G1 F1800.000 E1.00000
G1 X-6.628 Y9.938 F2520.000 E1.02178
G1 X-31.579 Y9.938 E1.85164
G1 X-32.283 Y9.873 E1.87518
G1 X-32.578 Y9.811 E1.88520
G1 X-33.141 Y9.634 E1.90482
G1 X-33.406 Y9.521 E1.91440
G1 X-33.918 Y9.243 E1.93380
G1 X-34.157 Y9.082 E1.94338
G1 X-34.608 Y8.711 E1.96279
G1 X-34.812 Y8.507 E1.97239
G1 X-35.187 Y8.051 E1.99205
G1 X-35.355 Y7.800 E2.00207
G1 X-35.646 Y7.251 E2.02274
G1 X-35.760 Y6.973 E2.03275
G1 X-35.928 Y6.407 E2.05235
G1 X-35.983 Y6.124 E2.06194
G1 X-36.039 Y5.472 E2.08373
G1 X-36.035 Y-18.630 E2.88534
G1 X-36.015 Y-18.875 E2.89352
G1 X-35.924 Y-19.424 E2.91205
G1 X-35.851 Y-19.700 E2.92153
G1 X-35.653 Y-20.235 E2.94051
G1 X-35.536 Y-20.481 E2.94957
G1 X-35.261 Y-20.944 E2.96749
G1 X-35.102 Y-21.165 E2.97653
G1 X-34.728 Y-21.594 E2.99545
G1 X-34.522 Y-21.789 E3.00492
G1 X-34.068 Y-22.145 E3.02409
G1 X-33.828 Y-22.299 E3.03357
G1 X-33.315 Y-22.562 E3.05275
G1 X-33.050 Y-22.668 E3.06223
G1 X-32.497 Y-22.830 E3.08141
G1 X-32.217 Y-22.884 E3.09090
G1 X-31.571 Y-22.938 E3.11244
G1 X-6.583 Y-22.938 E3.94356
G1 X-5.848 Y-22.860 E3.96814
G1 X-5.556 Y-22.795 E3.97807
G1 X-4.995 Y-22.609 E3.99773
G1 X-4.723 Y-22.488 E4.00763
G1 X-4.184 Y-22.180 E4.02830
G1 X-3.931 Y-21.999 E4.03863
G1 X-3.465 Y-21.587 E4.05933
G1 X-3.263 Y-21.368 E4.06924
G1 X-2.915 Y-20.908 E4.08842
G1 X-2.771 Y-20.677 E4.09747
G1 X-2.530 Y-20.197 E4.11534
G1 X-2.430 Y-19.944 E4.12439
G1 X-2.272 Y-19.403 E4.14314
G1 X-2.219 Y-19.136 E4.15218
G1 X-2.162 Y-18.504 E4.17328
G1 X-2.162 Y5.553 E4.97343
G1 X-2.175 Y5.750 E4.97998
G1 X-2.246 Y6.281 E4.99781
G1 X-2.310 Y6.562 E5.00738
G1 X-2.495 Y7.114 E5.02677
G1 X-2.612 Y7.378 E5.03636
G1 X-2.900 Y7.885 E5.05575
G1 X-3.065 Y8.121 E5.06534
G1 X-3.444 Y8.565 E5.08473
G1 X-3.651 Y8.765 E5.09432
G1 X-4.107 Y9.128 E5.11371
G1 X-4.349 Y9.285 E5.12330
G1 X-4.866 Y9.554 E5.14269
G1 X-5.133 Y9.662 E5.15228
G1 X-5.693 Y9.828 E5.17167
G1 X-5.917 Y9.871 E5.17926
G1 F1800.000 E4.17926
G92 E0
G1 X-5.892 Y8.939 F9000.000
G1 X-3.149 Y6.291
G1 X-0.000 Y-0.700
G1 X0.757 Y0.300
G1 F1800.000 E1.00000
G1 X-1.000 Y-1.457 F2520.000 E1.08266
G1 X-1.000 Y-22.143 E1.77066
G1 X0.757 Y-23.900 E1.85332
G1 X43.243 Y-23.900 E3.26638
G1 X45.000 Y-22.143 E3.34904
G1 X45.000 Y-1.457 E4.03704
G1 X43.243 Y0.300 E4.11970
G1 X0.817 Y0.300 E5.53077
G1 F1800.000 E4.53077
G92 E0
G1 X-0.000 Y-0.700 F9000.000
G1 X-3.149 Y6.291
G1 X-5.892 Y8.939
G1 X-4.878 Y13.347
G1 F1800.000 E1.00000
G1 X-4.633 Y13.500 F2520.000 E1.00961
G1 X18.058 Y13.500 E1.76433
G1 X19.581 Y15.023 E1.83596
G1 X19.581 Y21.177 E2.04064
G1 X18.058 Y22.700 E2.11228
G1 X-2.976 Y22.700 E2.81189
G1 X-2.977 Y40.556 E3.40576
G1 X-2.992 Y40.748 E3.41218
G1 X-3.056 Y41.180 E3.42671
G1 X-3.116 Y41.422 E3.43501
G1 X-3.272 Y41.861 E3.45048
G1 X-3.377 Y42.087 E3.45879
G1 X-3.614 Y42.488 E3.47427
G1 X-3.760 Y42.690 E3.48258
G1 X-4.069 Y43.039 E3.49806
G1 X-4.252 Y43.209 E3.50638
G1 X-4.621 Y43.492 E3.52185
G1 X-4.832 Y43.624 E3.53013
G1 X-5.243 Y43.830 E3.54542
G1 X-5.466 Y43.916 E3.55337
G1 X-5.884 Y44.036 E3.56783
G1 X-6.118 Y44.080 E3.57576
G1 X-6.638 Y44.124 E3.59310
G1 X-31.562 Y44.124 E4.42210
G1 X-32.093 Y44.079 E4.43982
G1 X-32.350 Y44.028 E4.44851
G1 X-32.824 Y43.883 E4.46502
G1 X-33.065 Y43.782 E4.47371
G1 X-33.479 Y43.557 E4.48938
G1 X-33.686 Y43.418 E4.49768
G1 X-34.045 Y43.122 E4.51315
G1 X-34.222 Y42.945 E4.52147
G1 X-34.518 Y42.586 E4.53695
G1 X-34.657 Y42.379 E4.54524
G1 X-34.879 Y41.970 E4.56072
G1 X-34.977 Y41.740 E4.56903
G1 X-35.117 Y41.296 E4.58451
G1 X-35.169 Y41.052 E4.59282
G1 X-35.224 Y40.493 E4.61149
G1 X-35.224 Y16.483 E5.41009
G1 X-35.124 Y15.723 E5.43556
G1 X-35.025 Y15.386 E5.44727
G1 X-34.756 Y14.783 E5.46923
G1 X-34.571 Y14.485 E5.48087
G1 X-34.165 Y13.992 E5.50212
G1 X-33.915 Y13.760 E5.51346
G1 X-33.404 Y13.395 E5.53437
G1 X-33.113 Y13.239 E5.54533
G1 X-32.555 Y13.025 E5.56521
G1 X-32.247 Y12.948 E5.57579
G1 X-31.579 Y12.876 E5.59811
G1 X-6.583 Y12.876 E6.42950
G1 X-5.824 Y12.976 E6.45497
G1 X-5.486 Y13.075 E6.46668
G1 X-4.933 Y13.322 E6.48684
G1 F1800.000 E5.48684
G92 E0
G1 X-5.892 Y8.939 F9000.000
G1 X-5.788 Y9.439
G1 F1800.000 E1.00000
G1 X-6.033 Y9.486 F2520.000 E1.00831
G1 X-6.638 Y9.538 E1.02849
G1 X-31.568 Y9.538 E1.85768
G1 X-32.221 Y9.477 E1.87951
G1 X-32.477 Y9.424 E1.88820
G1 X-33.002 Y9.258 E1.90651
G1 X-33.232 Y9.161 E1.91481
G1 X-33.711 Y8.901 E1.93293
G1 X-33.918 Y8.761 E1.94124
G1 X-34.338 Y8.414 E1.95936
G1 X-34.515 Y8.238 E1.96769
G1 X-34.866 Y7.812 E1.98603
G1 X-35.011 Y7.595 E1.99472
G1 X-35.284 Y7.081 E2.01406
G1 X-35.382 Y6.840 E2.02273
G1 X-35.539 Y6.312 E2.04103
G1 X-35.586 Y6.067 E2.04934
G1 X-35.639 Y5.462 E2.06953
G1 X-35.635 Y-18.613 E2.87028
G1 X-35.532 Y-19.340 E2.89470
G1 X-35.469 Y-19.579 E2.90291
G1 X-35.284 Y-20.079 E2.92065
G1 X-35.182 Y-20.293 E2.92851
G1 X-34.926 Y-20.725 E2.94522
G1 X-34.788 Y-20.916 E2.95306
G1 X-34.439 Y-21.317 E2.97075
G1 X-34.260 Y-21.486 E2.97895
G1 X-33.836 Y-21.818 E2.99686
G1 X-33.628 Y-21.952 E3.00507
G1 X-33.149 Y-22.198 E3.02299
G1 X-32.919 Y-22.289 E3.03121
G1 X-32.402 Y-22.441 E3.04912
G1 X-32.160 Y-22.487 E3.05734
G1 X-31.562 Y-22.538 E3.07731
G1 X-6.595 Y-22.538 E3.90771
G1 X-5.916 Y-22.465 E3.93042
G1 X-5.663 Y-22.409 E3.93903
G1 X-5.140 Y-22.236 E3.95736
G1 X-4.904 Y-22.131 E3.96595
G1 X-4.400 Y-21.843 E3.98526
G1 X-4.181 Y-21.686 E3.99421
G1 X-3.745 Y-21.300 E4.01356
G1 X-3.570 Y-21.111 E4.02216
G1 X-3.245 Y-20.681 E4.04007
G1 X-3.121 Y-20.481 E4.04791
G1 X-2.895 Y-20.033 E4.06458
G1 X-2.809 Y-19.814 E4.07242
G1 X-2.661 Y-19.308 E4.08996
G1 X-2.615 Y-19.076 E4.09781
G1 X-2.562 Y-18.494 E4.11726
G1 X-2.574 Y5.710 E4.92230
G1 X-2.640 Y6.210 E4.93906
G1 X-2.696 Y6.453 E4.94735
G1 X-2.869 Y6.969 E4.96546
G1 X-2.970 Y7.197 E4.97377
G1 X-3.238 Y7.671 E4.99189
G1 X-3.382 Y7.876 E5.00019
G1 X-3.735 Y8.290 E5.01831
G1 X-3.915 Y8.464 E5.02662
G1 X-4.341 Y8.803 E5.04473
G1 X-4.551 Y8.939 E5.05304
G1 X-5.034 Y9.190 E5.07116
G1 X-5.265 Y9.284 E5.07946
G1 X-5.730 Y9.422 E5.09559
G1 F1800.000 E4.09559
G92 E0
G1 X-5.892 Y8.939 F9000.000
G1 X-3.149 Y6.291
G1 X-0.000 Y-0.700
G1 X0.923 Y-0.100
G1 F1800.000 E1.00000
G1 X-0.600 Y-1.623 F2520.000 E1.07164
G1 X-0.600 Y-21.977 E1.74861
G1 X0.923 Y-23.500 E1.82025
G1 X43.077 Y-23.500 E3.22230
G1 X44.600 Y-21.977 E3.29394
G1 X44.600 Y-1.623 E3.97091
G1 X43.077 Y-0.100 E4.04255
G1 X0.983 Y-0.100 E5.44260
G1 F1800.000 E4.44260
G92 E0
G1 X-0.000 Y-0.700 F9000.000
G1 X-3.149 Y6.291
G1 X-5.892 Y8.939
G1 X-5.066 Y13.701
G1 F1800.000 E1.00000
G1 X-4.763 Y13.900 F2520.000 E1.01208
G1 X17.893 Y13.900 E1.76561
G1 X19.181 Y15.189 E1.82623
G1 X19.181 Y21.011 E2.01989
G1 X17.893 Y22.300 E2.08050
G1 X-3.376 Y22.300 E2.78790
G1 X-3.389 Y40.704 E3.40000
G1 X-3.449 Y41.102 E3.41340
G1 X-3.500 Y41.307 E3.42042
G1 X-3.642 Y41.709 E3.43461
G1 X-3.732 Y41.901 E3.44165
G1 X-3.948 Y42.269 E3.45585
G1 X-4.073 Y42.439 E3.46288
G1 X-4.356 Y42.759 E3.47708
G1 X-4.510 Y42.904 E3.48412
G1 X-4.849 Y43.163 E3.49831
G1 X-5.028 Y43.275 E3.50532
G1 X-5.405 Y43.463 E3.51936
G1 X-5.976 Y43.646 E3.53930
G1 X-6.175 Y43.684 E3.54601
G1 X-6.647 Y43.724 E3.56179
G1 X-31.553 Y43.724 E4.39015
G1 X-32.035 Y43.683 E4.40625
G1 X-32.252 Y43.640 E4.41360
G1 X-32.688 Y43.507 E4.42877
G1 X-32.892 Y43.421 E4.43613
G1 X-33.271 Y43.215 E4.45049
G1 X-33.446 Y43.097 E4.45751
G1 X-33.776 Y42.825 E4.47171
G1 X-33.925 Y42.676 E4.47875
G1 X-34.197 Y42.346 E4.49294
G1 X-34.315 Y42.171 E4.49997
G1 X-34.519 Y41.796 E4.51416
G1 X-34.601 Y41.602 E4.52120
G1 X-34.730 Y41.194 E4.53540
G1 X-34.774 Y40.988 E4.54243
G1 X-34.824 Y40.482 E4.55933
G1 X-34.824 Y16.498 E5.35705
G1 X-34.733 Y15.810 E5.38012
G1 X-34.649 Y15.524 E5.39003
G1 X-34.401 Y14.971 E5.41019
G1 X-34.245 Y14.719 E5.42005
G1 X-33.873 Y14.267 E5.43953
G1 X-33.662 Y14.070 E5.44912
G1 X-33.192 Y13.735 E5.46832
G1 X-32.946 Y13.603 E5.47759
G1 X-32.435 Y13.407 E5.49582
G1 X-32.174 Y13.342 E5.50476
G1 X-31.567 Y13.276 E5.52506
G1 X-6.598 Y13.276 E6.35554
G1 X-5.910 Y13.367 E6.37862
G1 X-5.624 Y13.451 E6.38852
G1 X-5.121 Y13.676 E6.40685
G1 F1800.000 E5.40685
G92 E0
G1 X-5.892 Y8.939 F9000.000
G1 X-6.090 Y9.090
G1 F1800.000 E1.00000
G1 X-6.647 Y9.138 F2520.000 E1.01859
G1 X-31.558 Y9.138 E1.84711
G1 X-32.160 Y9.081 E1.86723
G1 X-32.376 Y9.036 E1.87458
G1 X-32.863 Y8.883 E1.89158
G1 X-33.058 Y8.800 E1.89861
G1 X-33.503 Y8.558 E1.91545
G1 X-33.678 Y8.440 E1.92248
G1 X-34.069 Y8.118 E1.93932
G1 X-34.219 Y7.968 E1.94636
G1 X-34.544 Y7.573 E1.96340
G1 X-34.667 Y7.389 E1.97075
G1 X-34.921 Y6.911 E1.98875
G1 X-35.005 Y6.707 E1.99609
G1 X-35.150 Y6.217 E2.01309
G1 X-35.190 Y6.010 E2.02012
G1 X-35.239 Y5.453 E2.03871
G1 X-35.235 Y-18.597 E2.83859
G1 X-35.141 Y-19.256 E2.86075
G1 X-35.087 Y-19.458 E2.86770
G1 X-34.915 Y-19.924 E2.88420
G1 X-34.829 Y-20.104 E2.89085
G1 X-34.591 Y-20.505 E2.90635
G1 X-34.475 Y-20.666 E2.91299
G1 X-34.150 Y-21.039 E2.92944
G1 X-33.998 Y-21.183 E2.93638
G1 X-33.604 Y-21.492 E2.95303
G1 X-33.428 Y-21.605 E2.95998
G1 X-32.983 Y-21.833 E2.97663
G1 X-32.789 Y-21.911 E2.98358
G1 X-32.308 Y-22.052 E3.00024
G1 X-32.103 Y-22.091 E3.00719
