; generated by Slic3r 0.9.9 on 2016-04-04 at 12:22:10

; layer_height = 0.2
; perimeters = 1
; top_solid_layers = 3
; bottom_solid_layers = 3
; fill_density = 0.25
; perimeter_speed = 60
; infill_speed = 90
; travel_speed = 150
; nozzle_diameter = 0.4
; filament_diameter = 1.75
; extrusion_multiplier = 1
; perimeters extrusion width = 0.75mm
; infill extrusion width = 0.67mm
; solid infill extrusion width = 0.67mm
; top infill extrusion width = 0.67mm
; first layer extrusion width = 0.40mm

G21 ; set units to millimeters
M104 S190 ; set temperature
G28 ; home all axes
G1 Z5 F5000 ; lift nozzle
M106 S200
M109 S190 ; wait for temperature to be reached
G90 ; use absolute coordinates
G92 E0
M82 ; use absolute distances for extrusion
M106 S89
G1 F1800.000 E-1.00000
G92 E0
G1 Z0.270 F9000.000
G1 X2.645 Y-27.869
G1 F1800.000 E1.00000
G1 X43.275 Y-27.869 F2520.000 E2.35136
G1 X43.825 Y-27.849 E2.36966
G1 X44.095 Y-27.819 E2.37870
G1 X44.905 Y-27.669 E2.40610
G1 X45.425 Y-27.519 E2.42410
G1 X45.945 Y-27.329 E2.44251
G1 X46.675 Y-26.959 E2.46973
G1 X47.365 Y-26.509 E2.49713
G1 X47.985 Y-25.969 E2.52448
G1 X48.545 Y-25.369 E2.55178
G1 X48.715 Y-25.159 E2.56076
G1 X49.025 Y-24.699 E2.57921
G1 X49.295 Y-24.229 E2.59724
G1 X49.535 Y-23.739 E2.61539
G1 X49.725 Y-23.219 E2.63380
G1 X49.935 Y-22.429 E2.66099
G1 X50.055 Y-21.619 E2.68822
G1 X50.075 Y-21.069 E2.70653
G1 X50.075 Y-2.689 E3.31785
G1 X50.055 Y-2.119 E3.33682
G1 X50.025 Y-1.839 E3.34619
G1 X49.985 Y-1.559 E3.35559
G1 X49.865 Y-1.009 E3.37432
G1 X49.705 Y-0.469 E3.39305
G1 X49.375 Y0.321 E3.42153
G1 X49.105 Y0.811 E3.44013
G1 X48.795 Y1.291 E3.45914
G1 X48.445 Y1.731 E3.47784
G1 X47.855 Y2.341 E3.50606
G1 X-0.445 Y46.291 E5.67805
G1 X-1.105 Y46.821 E5.70621
G1 X-1.505 Y47.101 E5.72245
G1 X-1.925 Y47.351 E5.73870
G1 X-2.525 Y47.651 E5.76101
G1 X-2.965 Y47.831 E5.77683
G1 X-3.835 Y48.101 E5.80712
G1 X-4.075 Y48.161 E5.81535
G1 X-4.555 Y48.241 E5.83154
G1 X-4.995 Y48.291 E5.84627
G1 X-5.705 Y48.331 E5.86992
G1 X-30.755 Y48.331 E6.70308
G1 X-31.655 Y48.271 E6.73309
G1 X-32.765 Y48.061 E6.77066
G1 X-33.505 Y47.831 E6.79643
G1 X-34.045 Y47.601 E6.81595
G1 X-34.705 Y47.251 E6.84080
G1 X-35.155 Y46.971 E6.85843
G1 X-35.585 Y46.651 E6.87626
G1 X-35.965 Y46.331 E6.89278
G1 X-36.385 Y45.931 E6.91207
G1 X-36.765 Y45.491 E6.93141
G1 X-36.885 Y45.341 E6.93780
G1 X-37.505 Y44.421 E6.97470
G1 X-37.725 Y44.021 E6.98988
G1 X-37.955 Y43.511 E7.00849
G1 X-38.285 Y42.531 E7.04288
G1 X-38.405 Y42.021 E7.06031
G1 X-38.485 Y41.491 E7.07813
G1 X-38.545 Y40.651 E7.10614
G1 X-38.985 Y5.681 E8.26934
G1 X-38.985 Y-18.519 E9.07424
G1 X-38.965 Y-19.059 E9.09221
G1 X-38.915 Y-19.609 E9.11058
G1 X-38.815 Y-20.189 E9.13016
G1 X-38.585 Y-21.029 E9.15912
G1 X-38.165 Y-22.069 E9.19643
G1 X-38.055 Y-22.289 E9.20461
G1 X-37.475 Y-23.249 E9.24191
G1 X-37.125 Y-23.719 E9.26140
G1 X-36.705 Y-24.199 E9.28262
G1 X-36.035 Y-24.809 E9.31275
G1 X-35.105 Y-25.479 E9.35088
G1 X-34.385 Y-25.889 E9.37843
G1 X-33.895 Y-26.109 E9.39630
G1 X-33.045 Y-26.409 E9.42628
G1 X-32.725 Y-26.499 E9.43734
G1 X-32.085 Y-26.629 E9.45906
G1 X-31.005 Y-26.729 E9.49513
G1 X2.585 Y-27.867 E10.61298
G1 X2.655 Y-27.469 F9000.000
G1 X43.275 Y-27.469 F2520.000 E11.96401
G1 X43.805 Y-27.449 E11.98165
G1 X44.065 Y-27.419 E11.99035
G1 X44.585 Y-27.329 E12.00791
G1 X45.105 Y-27.199 E12.02573
G1 X45.845 Y-26.929 E12.05193
G1 X46.555 Y-26.569 E12.07841
G1 X47.205 Y-26.119 E12.10470
G1 X47.805 Y-25.599 E12.13111
G1 X48.325 Y-24.999 E12.15752
G1 X48.775 Y-24.349 E12.18381
G1 X49.025 Y-23.879 E12.20152
G1 X49.325 Y-23.149 E12.22777
G1 X49.535 Y-22.379 E12.25432
G1 X49.655 Y-21.599 E12.28056
G1 X49.675 Y-21.069 E12.29820
G1 X49.675 Y-2.689 E12.90953
G1 X49.655 Y-2.159 E12.92717
G1 X49.625 Y-1.889 E12.93620
G1 X49.475 Y-1.109 E12.96262
G1 X49.235 Y-0.349 E12.98913
G1 X49.015 Y0.141 E13.00699
G1 X48.765 Y0.611 E13.02470
G1 X48.465 Y1.051 E13.04241
G1 X47.965 Y1.671 E13.06890
G1 X47.585 Y2.041 E13.08654
G1 X-0.715 Y45.991 E15.25853
G1 X-1.345 Y46.501 E15.28549
G1 X-2.115 Y47.001 E15.31603
G1 X-2.685 Y47.281 E15.33715
G1 X-3.105 Y47.461 E15.35235
G1 X-3.935 Y47.711 E15.38118
G1 X-4.615 Y47.851 E15.40427
G1 X-5.705 Y47.931 E15.44062
G1 X-30.755 Y47.931 E16.27379
G1 X-31.615 Y47.871 E16.30246
G1 X-32.655 Y47.681 E16.33762
G1 X-33.365 Y47.461 E16.36235
G1 X-33.875 Y47.241 E16.38082
G1 X-34.285 Y47.031 E16.39614
G1 X-34.935 Y46.641 E16.42135
G1 X-35.495 Y46.211 E16.44484
G1 X-35.905 Y45.841 E16.46321
G1 X-36.275 Y45.451 E16.48109
G1 X-36.575 Y45.091 E16.49667
G1 X-37.155 Y44.231 E16.53117
G1 X-37.485 Y43.601 E16.55483
G1 X-37.685 Y43.111 E16.57243
G1 X-37.895 Y42.431 E16.59610
G1 X-38.015 Y41.941 E16.61288
G1 X-38.055 Y41.691 E16.62130
G1 X-38.105 Y41.271 E16.63537
G1 X-38.145 Y40.641 E16.65636
G1 X-38.585 Y5.671 E17.81956
G1 X-38.585 Y-18.519 E18.62413
G1 X-38.545 Y-19.279 E18.64944
G1 X-38.425 Y-20.109 E18.67733
G1 X-38.205 Y-20.909 E18.70493
G1 X-37.805 Y-21.889 E18.74013
G1 X-37.695 Y-22.109 E18.74831
G1 X-37.155 Y-23.009 E18.78322
G1 X-36.995 Y-23.229 E18.79227
G1 X-36.415 Y-23.919 E18.82225
G1 X-35.775 Y-24.509 E18.85120
G1 X-34.895 Y-25.139 E18.88720
G1 X-34.205 Y-25.529 E18.91356
G1 X-33.975 Y-25.639 E18.92204
G1 X-33.505 Y-25.829 E18.93890
G1 X-32.935 Y-26.019 E18.95889
G1 X-32.635 Y-26.109 E18.96930
G1 X-32.025 Y-26.229 E18.98998
G1 X-30.995 Y-26.329 E19.02440
G1 X2.595 Y-27.467 E20.14225
G1 F1800.000 E19.14225
G92 E0
G1 X-4.858 Y12.598 F9000.000
G1 F1800.000 E1.00000
G1 X-4.479 Y12.699 F2520.000 E1.01308
G1 X-3.786 Y13.001 E1.03822
G1 X19.181 Y13.001 E1.80208
G1 X20.938 Y14.758 E1.88474
G1 X20.938 Y21.284 E2.10177
G1 X19.181 Y23.041 E2.18443
G1 X-1.709 Y23.041 E2.87922
G1 X-1.710 Y40.708 E3.46681
G1 X-1.726 Y40.930 E3.47422
G1 X-1.792 Y41.370 E3.48904
G1 X-1.862 Y41.649 E3.49860
G1 X-2.021 Y42.101 E3.51453
G1 X-2.144 Y42.363 E3.52414
G1 X-2.387 Y42.775 E3.54007
G1 X-2.556 Y43.008 E3.54964
G1 X-2.873 Y43.366 E3.56555
G1 X-3.084 Y43.563 E3.57514
G1 X-3.460 Y43.852 E3.59092
G1 X-3.697 Y44.001 E3.60023
G1 X-4.107 Y44.208 E3.61553
G1 X-4.366 Y44.310 E3.62475
G1 X-4.809 Y44.439 E3.64012
G1 X-5.086 Y44.492 E3.64949
G1 X-5.630 Y44.538 E3.66766
G1 X-30.822 Y44.538 E4.50553
G1 X-31.370 Y44.492 E4.52383
G1 X-31.654 Y44.437 E4.53344
G1 X-32.113 Y44.301 E4.54937
G1 X-32.380 Y44.193 E4.55895
G1 X-32.810 Y43.969 E4.57508
G1 X-33.062 Y43.804 E4.58509
G1 X-33.457 Y43.484 E4.60202
G1 X-33.671 Y43.271 E4.61205
G1 X-33.980 Y42.897 E4.62819
G1 X-34.142 Y42.658 E4.63779
G1 X-34.370 Y42.237 E4.65371
G1 X-34.482 Y41.972 E4.66329
G1 X-34.626 Y41.516 E4.67920
G1 X-34.686 Y41.233 E4.68879
G1 X-34.744 Y40.646 E4.70841
G1 X-34.744 Y16.377 E5.51560
G1 X-34.642 Y15.588 E5.54208
G1 X-34.528 Y15.198 E5.55560
G1 X-34.251 Y14.574 E5.57832
G1 X-34.037 Y14.228 E5.59184
G1 X-33.617 Y13.719 E5.61376
G1 X-33.330 Y13.451 E5.62684
G1 X-32.807 Y13.078 E5.64821
G1 X-32.479 Y12.901 E5.66060
G1 X-31.916 Y12.682 E5.68069
G1 X-31.559 Y12.591 E5.69294
G1 X-30.845 Y12.512 E5.71685
G1 X-5.604 Y12.512 E6.55637
G1 X-4.918 Y12.590 E6.57932
G1 F1800.000 E5.57932
G92 E0
G1 X-4.874 Y8.976 F9000.000
G1 X-4.992 Y9.922
G1 F1800.000 E1.00000
G1 X-5.630 Y9.976 F2520.000 E1.02129
G1 X-30.822 Y9.976 E1.85918
G1 X-31.454 Y9.922 E1.88028
G1 X-31.737 Y9.867 E1.88987
G1 X-32.277 Y9.707 E1.90858
G1 X-32.544 Y9.599 E1.91817
G1 X-33.043 Y9.339 E1.93688
G1 X-33.285 Y9.183 E1.94647
G1 X-33.725 Y8.832 E1.96518
G1 X-33.932 Y8.632 E1.97477
G1 X-34.298 Y8.204 E1.99348
G1 X-34.463 Y7.968 E2.00307
G1 X-34.740 Y7.478 E2.02179
G1 X-34.857 Y7.215 E2.03137
G1 X-35.036 Y6.681 E2.05009
G1 X-35.101 Y6.401 E2.05967
G1 X-35.181 Y5.692 E2.08338
G1 X-35.182 Y-18.596 E2.89123
G1 X-35.126 Y-19.210 E2.91171
G1 X-35.074 Y-19.477 E2.92076
G1 X-34.921 Y-19.998 E2.93884
G1 X-34.821 Y-20.251 E2.94789
G1 X-34.588 Y-20.715 E2.96515
G1 X-34.444 Y-20.946 E2.97419
G1 X-34.113 Y-21.385 E2.99249
G1 X-33.920 Y-21.595 E3.00197
G1 X-33.502 Y-21.972 E3.02069
G1 X-33.262 Y-22.148 E3.03061
G1 X-32.745 Y-22.455 E3.05058
G1 X-32.463 Y-22.585 E3.06093
G1 X-31.888 Y-22.780 E3.08112
G1 X-31.585 Y-22.849 E3.09146
G1 X-30.865 Y-22.926 E3.11552
G1 X-5.631 Y-22.926 E3.95482
G1 X-5.005 Y-22.873 E3.97570
G1 X-4.726 Y-22.819 E3.98518
G1 X-4.191 Y-22.663 E4.00369
G1 X-3.927 Y-22.557 E4.01317
G1 X-3.432 Y-22.303 E4.03168
G1 X-3.192 Y-22.149 E4.04116
G1 X-2.754 Y-21.806 E4.05967
G1 X-2.547 Y-21.610 E4.06915
G1 X-2.181 Y-21.190 E4.08766
G1 X-2.016 Y-20.958 E4.09714
G1 X-1.736 Y-20.477 E4.11565
G1 X-1.617 Y-20.218 E4.12513
G1 X-1.433 Y-19.693 E4.14364
G1 X-1.365 Y-19.416 E4.15312
G1 X-1.272 Y-18.678 E4.17785
G1 X-1.277 Y5.760 E4.99067
G1 X-1.325 Y6.255 E5.00721
G1 X-1.383 Y6.550 E5.01723
G1 X-1.559 Y7.125 E5.03721
G1 X-1.675 Y7.403 E5.04723
G1 X-1.947 Y7.903 E5.06617
G1 X-2.108 Y8.142 E5.07575
G1 X-2.466 Y8.576 E5.09447
G1 X-2.670 Y8.780 E5.10405
G1 X-3.105 Y9.139 E5.12281
G1 X-3.346 Y9.301 E5.13248
G1 X-3.852 Y9.574 E5.15159
G1 X-4.130 Y9.690 E5.16161
G1 X-4.699 Y9.863 E5.18140
G1 X-4.933 Y9.910 E5.18935
G1 F1800.000 E4.18935
G92 E0
G1 X-4.874 Y8.976 F9000.000
G1 X-2.270 Y6.372
G1 X0.875 Y-0.687
G1 X1.632 Y0.313
G1 F1800.000 E1.00000
G1 X-0.125 Y-1.444 F2520.000 E1.08266
G1 X-0.125 Y-22.312 E1.77671
G1 X1.632 Y-24.069 E1.85937
G1 X44.518 Y-24.069 E3.28574
G1 X46.275 Y-22.312 E3.36840
G1 X46.275 Y-1.444 E4.06245
G1 X44.518 Y0.313 E4.14511
G1 X1.692 Y0.313 E5.56948
G1 F1800.000 E4.56948
G92 E0
G1 X0.875 Y-0.687 F9000.000
G1 X-2.270 Y6.372
G1 X-4.874 Y8.976
G1 X-4.053 Y13.309
G1 F1800.000 E1.00000
G1 X-3.893 Y13.401 F2520.000 E1.00615
G1 X19.015 Y13.401 E1.76807
G1 X20.538 Y14.924 E1.83971
G1 X20.538 Y21.118 E2.04572
G1 X19.015 Y22.641 E2.11736
G1 X-2.109 Y22.641 E2.81993
G1 X-2.110 Y40.693 E3.42034
G1 X-2.124 Y40.885 E3.42676
G1 X-2.185 Y41.292 E3.44044
G1 X-2.245 Y41.534 E3.44873
G1 X-2.392 Y41.949 E3.46338
G1 X-2.498 Y42.176 E3.47171
G1 X-2.722 Y42.556 E3.48636
G1 X-2.868 Y42.757 E3.49465
G1 X-3.160 Y43.087 E3.50929
G1 X-3.342 Y43.257 E3.51760
G1 X-3.689 Y43.523 E3.53212
G1 X-3.894 Y43.652 E3.54019
G1 X-4.271 Y43.843 E3.55425
G1 X-4.495 Y43.931 E3.56225
G1 X-4.903 Y44.050 E3.57637
G1 X-5.143 Y44.096 E3.58449
G1 X-5.640 Y44.138 E3.60109
G1 X-30.812 Y44.138 E4.43832
G1 X-31.312 Y44.096 E4.45502
G1 X-31.558 Y44.048 E4.46335
G1 X-31.981 Y43.923 E4.47801
G1 X-32.212 Y43.829 E4.48631
G1 X-32.608 Y43.623 E4.50113
G1 X-32.826 Y43.480 E4.50981
G1 X-33.190 Y43.185 E4.52540
G1 X-33.376 Y43.001 E4.53409
G1 X-33.659 Y42.657 E4.54893
G1 X-33.799 Y42.450 E4.55724
G1 X-34.009 Y42.063 E4.57189
G1 X-34.107 Y41.833 E4.58019
G1 X-34.239 Y41.414 E4.59482
G1 X-34.291 Y41.169 E4.60314
G1 X-34.344 Y40.635 E4.62098
G1 X-34.344 Y16.392 E5.42731
G1 X-34.251 Y15.674 E5.45140
G1 X-34.152 Y15.335 E5.46312
G1 X-33.896 Y14.761 E5.48403
G1 X-33.711 Y14.461 E5.49575
G1 X-33.325 Y13.994 E5.51590
G1 X-33.076 Y13.761 E5.52724
G1 X-32.595 Y13.418 E5.54690
G1 X-32.311 Y13.265 E5.55765
G1 X-31.794 Y13.063 E5.57609
G1 X-31.484 Y12.985 E5.58671
G1 X-30.832 Y12.912 E5.60855
G1 X-5.617 Y12.912 E6.44720
G1 X-4.937 Y12.991 E6.46998
G1 X-4.607 Y13.079 E6.48132
G1 X-4.108 Y13.286 E6.49928
G1 F1800.000 E5.49928
G92 E0
G1 X-4.874 Y8.976 F9000.000
G1 X-4.796 Y9.475
G1 F1800.000 E1.00000
G1 X-5.051 Y9.525 F2520.000 E1.00862
G1 X-5.640 Y9.576 E1.02829
G1 X-30.812 Y9.576 E1.86554
G1 X-31.397 Y9.526 E1.88505
G1 X-31.642 Y9.478 E1.89335
G1 X-32.145 Y9.329 E1.91079
G1 X-32.376 Y9.236 E1.91910
G1 X-32.841 Y8.994 E1.93654
G1 X-33.051 Y8.858 E1.94484
G1 X-33.461 Y8.531 E1.96228
G1 X-33.641 Y8.358 E1.97059
G1 X-33.981 Y7.959 E1.98803
G1 X-34.124 Y7.754 E1.99633
G1 X-34.383 Y7.298 E2.01377
G1 X-34.484 Y7.070 E2.02208
G1 X-34.651 Y6.573 E2.03952
G1 X-34.707 Y6.329 E2.04782
G1 X-34.781 Y5.679 E2.06959
G1 X-34.782 Y-18.586 E2.87665
G1 X-34.730 Y-19.150 E2.89550
G1 X-34.685 Y-19.382 E2.90334
G1 X-34.542 Y-19.869 E2.92022
G1 X-34.456 Y-20.088 E2.92806
G1 X-34.239 Y-20.519 E2.94411
G1 X-34.114 Y-20.719 E2.95195
G1 X-33.805 Y-21.128 E2.96901
G1 X-33.638 Y-21.310 E2.97723
G1 X-33.249 Y-21.661 E2.99466
G1 X-33.041 Y-21.814 E3.00325
G1 X-32.559 Y-22.100 E3.02188
G1 X-32.314 Y-22.213 E3.03084
G1 X-31.779 Y-22.395 E3.04965
G1 X-31.516 Y-22.455 E3.05862
G1 X-30.853 Y-22.526 E3.08078
G1 X-5.640 Y-22.526 E3.91937
G1 X-5.062 Y-22.477 E3.93866
G1 X-4.820 Y-22.430 E3.94688
G1 X-4.322 Y-22.285 E3.96412
G1 X-4.093 Y-22.193 E3.97234
G1 X-3.631 Y-21.956 E3.98959
G1 X-3.423 Y-21.823 E3.99780
G1 X-3.015 Y-21.503 E4.01505
G1 X-2.836 Y-21.333 E4.02326
G1 X-2.496 Y-20.942 E4.04051
G1 X-2.352 Y-20.741 E4.04873
G1 X-2.091 Y-20.293 E4.06597
G1 X-1.988 Y-20.068 E4.07419
G1 X-1.817 Y-19.579 E4.09144
G1 X-1.758 Y-19.339 E4.09965
G1 X-1.672 Y-18.664 E4.12229
G1 X-1.676 Y5.731 E4.93366
G1 X-1.721 Y6.196 E4.94921
G1 X-1.772 Y6.453 E4.95790
G1 X-1.936 Y6.989 E4.97654
G1 X-2.037 Y7.229 E4.98523
G1 X-2.289 Y7.695 E5.00286
G1 X-2.429 Y7.902 E5.01116
G1 X-2.763 Y8.307 E5.02860
G1 X-2.939 Y8.483 E5.03691
G1 X-3.345 Y8.818 E5.05438
G1 X-3.554 Y8.958 E5.06276
G1 X-4.024 Y9.213 E5.08056
G1 X-4.265 Y9.313 E5.08924
G1 X-4.739 Y9.457 E5.10571
G1 F1800.000 E4.10571
G92 E0
G1 X-4.874 Y8.976 F9000.000
G1 X-2.270 Y6.372
G1 X0.875 Y-0.687
G1 X1.798 Y-0.087
G1 F1800.000 E1.00000
G1 X0.275 Y-1.610 F2520.000 E1.07164
G1 X0.275 Y-22.146 E1.75467
G1 X1.798 Y-23.669 E1.82631
G1 X44.352 Y-23.669 E3.24165
G1 X45.875 Y-22.146 E3.31329
G1 X45.875 Y-1.610 E3.99632
G1 X44.352 Y-0.087 E4.06796
G1 X1.858 Y-0.087 E5.48131
G1 F1800.000 E4.48131
G92 E0
G1 X0.875 Y-0.687 F9000.000
G1 X-2.270 Y6.372
G1 X-4.874 Y8.976
G1 X-4.230 Y13.668
G1 F1800.000 E1.00000
G1 X-4.000 Y13.801 F2520.000 E1.00884
G1 X18.849 Y13.801 E1.76881
G1 X20.138 Y15.090 E1.82943
G1 X20.138 Y20.952 E2.02442
G1 X18.849 Y22.241 E2.08504
G1 X-2.509 Y22.241 E2.79541
G1 X-2.522 Y40.841 E3.41404
G1 X-2.578 Y41.214 E3.42659
G1 X-2.629 Y41.419 E3.43361
G1 X-2.763 Y41.798 E3.44697
G1 X-2.852 Y41.990 E3.45403
G1 X-3.056 Y42.336 E3.46740
G1 X-3.180 Y42.507 E3.47441
G1 X-3.447 Y42.807 E3.48777
G1 X-3.601 Y42.952 E3.49480
G1 X-3.917 Y43.194 E3.50806
G1 X-4.435 Y43.478 E3.52770
G1 X-4.997 Y43.661 E3.54733
G1 X-5.200 Y43.700 E3.55420
G1 X-5.649 Y43.738 E3.56922
G1 X-30.803 Y43.738 E4.40582
G1 X-31.255 Y43.699 E4.42092
G1 X-31.463 Y43.659 E4.42797
G1 X-31.849 Y43.545 E4.44135
G1 X-32.045 Y43.465 E4.44837
G1 X-32.405 Y43.278 E4.46189
G1 X-32.590 Y43.157 E4.46923
G1 X-32.923 Y42.887 E4.48349
G1 X-33.080 Y42.731 E4.49084
G1 X-33.339 Y42.418 E4.50437
G1 X-33.457 Y42.242 E4.51141
G1 X-33.649 Y41.889 E4.52477
G1 X-33.731 Y41.695 E4.53179
G1 X-33.852 Y41.312 E4.54515
G1 X-33.896 Y41.105 E4.55219
G1 X-33.944 Y40.624 E4.56826
G1 X-33.944 Y16.407 E5.37371
G1 X-33.859 Y15.760 E5.39543
G1 X-33.776 Y15.473 E5.40535
G1 X-33.542 Y14.948 E5.42446
G1 X-33.385 Y14.695 E5.43437
G1 X-33.033 Y14.269 E5.45275
G1 X-32.823 Y14.072 E5.46234
G1 X-32.383 Y13.758 E5.48031
G1 X-32.142 Y13.628 E5.48940
G1 X-31.672 Y13.445 E5.50620
G1 X-31.410 Y13.378 E5.51519
G1 X-30.819 Y13.312 E5.53495
G1 X-5.630 Y13.312 E6.37275
G1 X-5.015 Y13.384 E6.39335
G1 X-4.736 Y13.458 E6.40294
G1 X-4.286 Y13.645 E6.41916
G1 F1800.000 E5.41916
G92 E0
G1 X-4.874 Y8.976 F9000.000
G1 X-5.109 Y9.129
G1 F1800.000 E1.00000
G1 X-5.649 Y9.176 F2520.000 E1.01804
G1 X-30.803 Y9.176 E1.85466
G1 X-31.339 Y9.129 E1.87257
G1 X-31.547 Y9.089 E1.87960
G1 X-32.013 Y8.951 E1.89576
G1 X-32.209 Y8.872 E1.90279
G1 X-32.640 Y8.648 E1.91895
G1 X-32.817 Y8.533 E1.92597
G1 X-33.197 Y8.230 E1.94213
G1 X-33.349 Y8.083 E1.94916
G1 X-33.665 Y7.714 E1.96532
G1 X-33.786 Y7.541 E1.97235
G1 X-34.025 Y7.118 E1.98851
G1 X-34.111 Y6.925 E1.99554
G1 X-34.265 Y6.464 E2.01170
G1 X-34.313 Y6.258 E2.01873
G1 X-34.381 Y5.666 E2.03855
G1 X-34.382 Y-18.576 E2.84483
G1 X-34.334 Y-19.091 E2.86205
G1 X-34.296 Y-19.287 E2.86868
G1 X-34.163 Y-19.739 E2.88435
G1 X-34.090 Y-19.924 E2.89098
G1 X-33.784 Y-20.493 E2.91245
G1 X-33.497 Y-20.872 E2.92827
G1 X-33.356 Y-21.026 E2.93522
G1 X-32.996 Y-21.351 E2.95136
G1 X-32.820 Y-21.480 E2.95863
G1 X-32.373 Y-21.745 E2.97591
G1 X-32.166 Y-21.841 E2.98349
G1 X-31.669 Y-22.010 E3.00093
G1 X-31.447 Y-22.060 E3.00851
G1 X-30.841 Y-22.126 E3.02878
G1 X-5.650 Y-22.126 E3.86665
