; generated by Slic3r 0.9.9 on 2016-04-03 at 11:10:08

; layer_height = 0.3
; perimeters = 2
; top_solid_layers = 3
; bottom_solid_layers = 3
; fill_density = 0.5
; perimeter_speed = 50
; infill_speed = 80
; travel_speed = 130
; nozzle_diameter = 0.5
; filament_diameter = 1.75
; extrusion_multiplier = 1
; perimeters extrusion width = 0.75mm
; infill extrusion width = 0.70mm
; solid infill extrusion width = 0.70mm
; top infill extrusion width = 0.70mm
; support material extrusion width = 0.70mm
; first layer extrusion width = 0.60mm

G21 ; set units to millimeters
M104 S200 ; set temperature
G28 ; home all axes
G1 Z5 F5000 ; lift nozzle

M109 S200 ; wait for temperature to be reached
G90 ; use absolute coordinates
G92 E0
M82 ; use absolute distances for extrusion
M106 S89
G1 F1800.000 E-1.00000
G92 E0
G1 Z0.300 F7800.000
G1 X37.490 Y-43.720
G1 F1800.000 E1.00000
G1 X38.040 Y-43.700 F2100.000 E1.03971
G1 X38.850 Y-43.590 E1.09870
G1 X39.390 Y-43.460 E1.13878
G1 X39.910 Y-43.300 E1.17804
G1 X40.170 Y-43.200 E1.19814
G1 X40.910 Y-42.850 E1.25721
G1 X41.380 Y-42.570 E1.29668
G1 X41.830 Y-42.250 E1.33653
G1 X42.450 Y-41.720 E1.39538
G1 X43.010 Y-41.110 E1.45514
G1 X43.340 Y-40.680 E1.49425
G1 X43.500 Y-40.450 E1.51447
G1 X43.780 Y-39.980 E1.55394
G1 X44.020 Y-39.490 E1.59331
G1 X44.230 Y-38.980 E1.63311
G1 X44.460 Y-38.190 E1.69248
G1 X44.520 Y-37.920 E1.71244
G1 X44.630 Y-37.110 E1.77143
G1 X44.650 Y-36.560 E1.81114
G1 X44.650 Y37.490 E7.15449
G1 X44.630 Y38.040 E7.19420
G1 X44.520 Y38.850 E7.25319
G1 X44.390 Y39.390 E7.29327
G1 X44.230 Y39.910 E7.33253
G1 X44.130 Y40.170 E7.35263
G1 X43.780 Y40.910 E7.41170
G1 X43.500 Y41.380 E7.45117
G1 X43.180 Y41.830 E7.49102
G1 X42.650 Y42.450 E7.54987
G1 X42.040 Y43.010 E7.60963
G1 X41.380 Y43.500 E7.66894
G1 X40.910 Y43.780 E7.70842
G1 X40.170 Y44.130 E7.76749
G1 X39.910 Y44.230 E7.78759
G1 X39.390 Y44.390 E7.82685
G1 X38.850 Y44.520 E7.86693
G1 X38.040 Y44.630 E7.92591
G1 X37.490 Y44.650 E7.96563
G1 X-37.500 Y44.650 E13.37680
G1 X-38.050 Y44.630 E13.41652
G1 X-38.860 Y44.520 E13.47550
G1 X-39.400 Y44.390 E13.51558
G1 X-39.920 Y44.230 E13.55484
G1 X-40.180 Y44.130 E13.57494
G1 X-40.920 Y43.780 E13.63401
G1 X-41.390 Y43.500 E13.67349
G1 X-41.840 Y43.180 E13.71333
G1 X-42.460 Y42.650 E13.77219
G1 X-43.020 Y42.040 E13.83194
G1 X-43.510 Y41.380 E13.89126
G1 X-43.790 Y40.910 E13.93073
G1 X-44.140 Y40.170 E13.98980
G1 X-44.240 Y39.910 E14.00990
G1 X-44.400 Y39.390 E14.04916
G1 X-44.530 Y38.850 E14.08924
G1 X-44.640 Y38.040 E14.14822
G1 X-44.660 Y37.490 E14.18794
G1 X-44.660 Y-36.560 E19.53129
G1 X-44.640 Y-37.110 E19.57100
G1 X-44.530 Y-37.920 E19.62999
G1 X-44.400 Y-38.460 E19.67006
G1 X-44.240 Y-38.980 E19.70932
G1 X-44.140 Y-39.240 E19.72942
G1 X-43.790 Y-39.980 E19.78849
G1 X-43.510 Y-40.450 E19.82797
G1 X-43.190 Y-40.900 E19.86781
G1 X-42.660 Y-41.520 E19.92667
G1 X-42.050 Y-42.080 E19.98642
G1 X-41.390 Y-42.570 E20.04574
G1 X-40.920 Y-42.850 E20.08522
G1 X-40.180 Y-43.200 E20.14428
G1 X-39.920 Y-43.300 E20.16439
G1 X-39.400 Y-43.460 E20.20364
G1 X-38.860 Y-43.590 E20.24372
G1 X-38.050 Y-43.700 E20.30271
G1 X-37.500 Y-43.720 E20.34242
G1 X37.403 Y-43.720 E25.74734
G1 X37.490 Y-43.140 F7800.000
G1 X38.020 Y-43.120 F2100.000 E25.78561
G1 X38.810 Y-43.010 E25.84316
G1 X39.320 Y-42.880 E25.88114
G1 X40.070 Y-42.610 E25.93866
G1 X40.550 Y-42.390 E25.97676
G1 X41.010 Y-42.120 E26.01525
G1 X41.650 Y-41.660 E26.07212
G1 X42.050 Y-41.300 E26.11096
G1 X42.590 Y-40.720 E26.16814
G1 X42.750 Y-40.510 E26.18719
G1 X43.050 Y-40.080 E26.22502
G1 X43.320 Y-39.620 E26.26351
G1 X43.640 Y-38.890 E26.32103
G1 X43.810 Y-38.390 E26.35913
G1 X43.940 Y-37.880 E26.39711
G1 X44.050 Y-37.090 E26.45467
G1 X44.070 Y-36.560 E26.49294
G1 X44.070 Y37.490 E31.83629
G1 X44.050 Y38.020 E31.87456
G1 X43.940 Y38.810 E31.93211
G1 X43.810 Y39.320 E31.97009
G1 X43.540 Y40.070 E32.02761
G1 X43.320 Y40.550 E32.06571
G1 X43.050 Y41.010 E32.10420
G1 X42.590 Y41.650 E32.16107
G1 X42.230 Y42.050 E32.19990
G1 X41.650 Y42.590 E32.25709
G1 X41.230 Y42.900 E32.29475
G1 X40.550 Y43.320 E32.35243
G1 X40.070 Y43.540 E32.39053
G1 X39.320 Y43.810 E32.44805
G1 X38.810 Y43.940 E32.48603
G1 X38.020 Y44.050 E32.54358
G1 X37.490 Y44.070 E32.58185
G1 X-37.500 Y44.070 E37.99303
G1 X-38.030 Y44.050 E38.03130
G1 X-38.820 Y43.940 E38.08886
G1 X-39.330 Y43.810 E38.12683
G1 X-40.080 Y43.540 E38.18435
G1 X-40.560 Y43.320 E38.22245
G1 X-41.020 Y43.050 E38.26094
G1 X-41.660 Y42.590 E38.31782
G1 X-42.060 Y42.230 E38.35665
G1 X-42.600 Y41.650 E38.41383
G1 X-42.910 Y41.230 E38.45150
G1 X-43.330 Y40.550 E38.50917
G1 X-43.550 Y40.070 E38.54727
G1 X-43.820 Y39.320 E38.60479
G1 X-43.950 Y38.810 E38.64277
G1 X-44.060 Y38.020 E38.70032
G1 X-44.080 Y37.490 E38.73860
G1 X-44.080 Y-36.560 E44.08195
G1 X-44.060 Y-37.090 E44.12022
G1 X-43.950 Y-37.880 E44.17777
G1 X-43.820 Y-38.390 E44.21575
G1 X-43.550 Y-39.140 E44.27327
G1 X-43.330 Y-39.620 E44.31137
G1 X-43.060 Y-40.080 E44.34986
G1 X-42.600 Y-40.720 E44.40673
G1 X-42.240 Y-41.120 E44.44556
G1 X-41.660 Y-41.660 E44.50275
G1 X-41.240 Y-41.970 E44.54041
G1 X-40.560 Y-42.390 E44.59809
G1 X-40.080 Y-42.610 E44.63619
G1 X-39.330 Y-42.880 E44.69371
G1 X-38.820 Y-43.010 E44.73168
G1 X-38.030 Y-43.120 E44.78924
G1 X-37.500 Y-43.140 E44.82751
G1 X37.403 Y-43.140 E50.23243
G1 F1800.000 E49.23243
G92 E0
G1 X25.226 Y-31.925 F7800.000
G1 F1800.000 E1.00000
G1 X37.500 Y-31.925 F2520.000 E1.88569
G1 X37.500 Y-30.768 E1.96918
G1 X24.124 Y-30.768 E2.93438
G1 X23.022 Y-29.611 E3.04968
G1 X37.500 Y-29.611 E4.09441
G1 X37.500 Y-28.454 E4.17790
G1 X33.000 Y-28.454 E4.50262
G1 X33.000 Y-27.296 E4.58611
G1 X37.500 Y-27.296 E4.91084
G1 X37.500 Y-26.139 E4.99433
G1 X33.000 Y-26.139 E5.31905
G1 X33.000 Y-24.982 E5.40254
G1 X37.500 Y-24.982 E5.72726
G1 X37.500 Y-23.825 E5.81076
G1 X33.000 Y-23.825 E6.13548
G1 X33.000 Y-22.668 E6.21897
G1 X37.500 Y-22.668 E6.54369
G1 X37.500 Y-21.511 E6.62719
G1 X33.000 Y-21.511 E6.95191
G1 X33.000 Y-20.354 E7.03540
G1 X37.500 Y-20.354 E7.36012
G1 X37.500 Y-19.197 E7.44362
G1 X33.000 Y-19.197 E7.76834
G1 X33.000 Y-18.040 E7.85183
G1 X37.500 Y-18.040 E8.17655
G1 X37.500 Y-16.883 E8.26005
G1 X33.000 Y-16.883 E8.58477
G1 X33.000 Y-15.726 E8.66826
G1 X37.500 Y-15.726 E8.99298
G1 X37.500 Y-14.569 E9.07647
G1 X33.000 Y-14.569 E9.40120
G1 X33.000 Y-13.412 E9.48469
G1 X37.500 Y-13.412 E9.80941
G1 X37.500 Y-12.254 E9.89290
G1 X33.000 Y-12.254 E10.21762
G1 X33.000 Y-11.097 E10.30112
G1 X37.500 Y-11.097 E10.62584
G1 X37.500 Y-9.940 E10.70933
G1 X33.000 Y-9.940 E11.03405
G1 X33.000 Y-8.783 E11.11755
G1 X37.500 Y-8.783 E11.44227
G1 X37.500 Y-7.626 E11.52576
G1 X33.000 Y-7.626 E11.85048
G1 X33.000 Y-6.469 E11.93398
G1 X37.500 Y-6.469 E12.25870
G1 X37.500 Y-5.312 E12.34219
G1 X33.000 Y-5.312 E12.66691
G1 X33.000 Y-4.155 E12.75040
G1 X37.500 Y-4.155 E13.07513
G1 X37.500 Y-2.998 E13.15862
G1 X33.000 Y-2.998 E13.48334
G1 X33.000 Y-1.841 E13.56683
G1 X37.500 Y-1.841 E13.89155
G1 X37.500 Y-0.684 E13.97505
G1 X33.000 Y-0.684 E14.29977
G1 X33.000 Y0.473 E14.38326
G1 X37.500 Y0.473 E14.70798
G1 X37.500 Y1.631 E14.79148
G1 X33.000 Y1.631 E15.11620
G1 X33.000 Y2.788 E15.19969
G1 X37.500 Y2.788 E15.52441
G1 X37.500 Y3.945 E15.60791
G1 X33.000 Y3.945 E15.93263
G1 X33.000 Y5.102 E16.01612
G1 X37.500 Y5.102 E16.34084
G1 X37.500 Y6.259 E16.42433
G1 X33.000 Y6.259 E16.74906
G1 X33.000 Y7.416 E16.83255
G1 X37.500 Y7.416 E17.15727
G1 X37.500 Y8.573 E17.24076
G1 X33.000 Y8.573 E17.56549
G1 X33.000 Y9.730 E17.64898
G1 X37.500 Y9.730 E17.97370
G1 X37.500 Y10.887 E18.05719
G1 X33.000 Y10.887 E18.38191
G1 X33.000 Y12.044 E18.46541
G1 X37.500 Y12.044 E18.79013
G1 X37.500 Y13.201 E18.87362
G1 X33.000 Y13.201 E19.19834
G1 X33.000 Y14.358 E19.28184
G1 X37.500 Y14.358 E19.60656
G1 X37.500 Y15.515 E19.69005
G1 X33.000 Y15.515 E20.01477
G1 X33.000 Y16.673 E20.09827
G1 X37.500 Y16.673 E20.42299
G1 X37.500 Y17.830 E20.50648
G1 X33.000 Y17.830 E20.83120
G1 X33.000 Y18.987 E20.91469
G1 X37.500 Y18.987 E21.23942
G1 X37.500 Y20.144 E21.32291
G1 X33.000 Y20.144 E21.64763
G1 X33.000 Y21.301 E21.73112
G1 X37.500 Y21.301 E22.05584
G1 X37.500 Y22.458 E22.13934
G1 X33.000 Y22.458 E22.46406
G1 X33.000 Y23.615 E22.54755
G1 X37.500 Y23.615 E22.87227
G1 X37.500 Y24.772 E22.95577
G1 X33.000 Y24.772 E23.28049
G1 X33.000 Y25.929 E23.36398
G1 X37.500 Y25.929 E23.68870
G1 X37.500 Y27.086 E23.77220
G1 X33.000 Y27.086 E24.09692
G1 X32.390 Y27.086 F7800.000
G1 X21.783 Y27.086 F2520.000 E24.86230
G1 X22.940 Y28.243 E24.98037
G1 X37.500 Y28.243 E26.03101
G1 X37.500 Y29.400 E26.11450
G1 X24.097 Y29.400 E27.08165
G1 X25.254 Y30.558 E27.19972
G1 X37.500 Y30.558 E28.08337
G1 X37.500 Y31.715 E28.16687
G1 X26.411 Y31.715 E28.96702
G1 X27.568 Y32.872 E29.08510
G1 X37.500 Y32.872 E29.80176
G1 X37.500 Y34.029 E29.88525
G1 X-37.500 Y34.029 E35.29716
G1 X-37.500 Y35.186 E35.38065
G1 X37.500 Y35.186 E40.79255
G1 X37.500 Y36.343 E40.87604
G1 X-37.500 Y36.343 E46.28794
G1 X-37.500 Y37.500 E46.37144
G1 X37.500 Y37.500 E51.78334
G1 F1800.000 E50.78334
G92 E0
G1 X20.626 Y25.929 F7800.000
G1 F1800.000 E1.00000
G1 X31.233 Y25.929 F2520.000 E1.76538
G1 X30.076 Y24.772 E1.88346
G1 X19.469 Y24.772 E2.64884
G1 F1800.000 E1.64884
G92 E0
G1 X24.290 Y18.987 F7800.000
G1 F1800.000 E1.00000
G1 X12.047 Y18.987 F2520.000 E1.88344
G1 X10.014 Y20.144 E2.05222
G1 X25.447 Y20.144 E3.16583
G1 X26.604 Y21.301 E3.28391
G1 X7.221 Y21.301 E4.68261
G1 F1800.000 E3.68261
G92 E0
G1 X1.078 Y22.458 F7800.000
G1 F1800.000 E1.00000
G1 X27.761 Y22.458 F2520.000 E2.92544
G1 X28.918 Y23.615 E3.04351
G1 X-27.669 Y23.615 E7.12681
G1 X-28.771 Y24.772 E7.24211
G1 X-18.414 Y24.772 E7.98949
G1 X-19.516 Y25.929 E8.10479
G1 X-29.873 Y25.929 E8.85216
G1 X-30.975 Y27.086 E8.96746
G1 X-20.618 Y27.086 E9.71484
G1 X-21.720 Y28.243 E9.83014
G1 X-32.077 Y28.243 E10.57752
G1 F1800.000 E9.57752
G92 E0
G1 X-37.500 Y32.872 F7800.000
G1 F1800.000 E1.00000
G1 X-26.128 Y32.872 F2520.000 E1.82061
G1 X-25.026 Y31.715 E1.93591
G1 X-37.500 Y31.715 E2.83604
G1 X-37.500 Y30.558 E2.91954
G1 X-23.924 Y30.558 E3.89919
G1 X-22.822 Y29.400 E4.01449
G1 X-37.500 Y29.400 E5.07365
G1 X-37.500 Y28.243 E5.15715
G1 X-33.000 Y28.243 E5.48187
G1 X-33.000 Y27.086 E5.56536
G1 X-37.500 Y27.086 E5.89008
G1 X-37.500 Y25.929 E5.97357
G1 X-33.000 Y25.929 E6.29830
G1 X-33.000 Y24.772 E6.38179
G1 X-37.500 Y24.772 E6.70651
G1 X-37.500 Y23.615 E6.79000
G1 X-33.000 Y23.615 E7.11472
G1 X-33.000 Y22.458 E7.19822
G1 X-37.500 Y22.458 E7.52294
G1 X-37.500 Y21.301 E7.60643
G1 X-33.000 Y21.301 E7.93115
G1 X-33.000 Y20.144 E8.01465
G1 X-37.500 Y20.144 E8.33937
G1 X-37.500 Y18.987 E8.42286
G1 X-33.000 Y18.987 E8.74758
G1 X-33.000 Y17.830 E8.83108
G1 X-37.500 Y17.830 E9.15580
G1 X-37.500 Y16.673 E9.23929
G1 X-33.000 Y16.673 E9.56401
G1 X-33.000 Y15.515 E9.64750
G1 X-37.500 Y15.515 E9.97223
G1 X-37.500 Y14.358 E10.05572
G1 X-33.000 Y14.358 E10.38044
G1 X-33.000 Y13.201 E10.46393
G1 X-37.500 Y13.201 E10.78865
G1 X-37.500 Y12.044 E10.87215
G1 X-33.000 Y12.044 E11.19687
G1 X-33.000 Y10.887 E11.28036
G1 X-37.500 Y10.887 E11.60508
G1 X-37.500 Y9.730 E11.68858
G1 X-33.000 Y9.730 E12.01330
G1 X-33.000 Y8.573 E12.09679
G1 X-37.500 Y8.573 E12.42151
G1 X-37.500 Y7.416 E12.50501
G1 X-33.000 Y7.416 E12.82973
G1 X-33.000 Y6.259 E12.91322
G1 X-37.500 Y6.259 E13.23794
G1 X-37.500 Y5.102 E13.32144
G1 X-33.000 Y5.102 E13.64616
G1 X-33.000 Y3.945 E13.72965
G1 X-37.500 Y3.945 E14.05437
G1 X-37.500 Y2.788 E14.13786
G1 X-33.000 Y2.788 E14.46259
G1 X-33.000 Y1.631 E14.54608
G1 X-37.500 Y1.631 E14.87080
G1 X-37.500 Y0.473 E14.95429
G1 X-33.000 Y0.473 E15.27901
G1 X-33.000 Y-0.684 E15.36251
G1 X-37.500 Y-0.684 E15.68723
G1 X-37.500 Y-1.841 E15.77072
G1 X-33.000 Y-1.841 E16.09544
G1 X-33.000 Y-2.998 E16.17894
G1 X-37.500 Y-2.998 E16.50366
G1 X-37.500 Y-4.155 E16.58715
G1 X-33.000 Y-4.155 E16.91187
G1 X-33.000 Y-5.312 E16.99537
G1 X-37.500 Y-5.312 E17.32009
G1 X-37.500 Y-6.469 E17.40358
G1 X-33.000 Y-6.469 E17.72830
G1 X-33.000 Y-7.626 E17.81179
G1 X-37.500 Y-7.626 E18.13652
G1 X-37.500 Y-8.783 E18.22001
G1 X-33.000 Y-8.783 E18.54473
G1 X-33.000 Y-9.940 E18.62822
G1 X-37.500 Y-9.940 E18.95294
G1 X-37.500 Y-11.097 E19.03644
G1 X-33.000 Y-11.097 E19.36116
G1 X-33.000 Y-12.254 E19.44465
G1 X-37.500 Y-12.254 E19.76937
G1 X-37.500 Y-13.412 E19.85287
G1 X-33.000 Y-13.412 E20.17759
G1 X-33.000 Y-14.569 E20.26108
G1 X-37.500 Y-14.569 E20.58580
G1 X-37.500 Y-15.726 E20.66930
G1 X-33.000 Y-15.726 E20.99402
G1 X-33.000 Y-16.883 E21.07751
G1 X-37.500 Y-16.883 E21.40223
G1 X-37.500 Y-18.040 E21.48572
G1 X-33.000 Y-18.040 E21.81045
G1 X-33.000 Y-19.197 E21.89394
G1 X-37.500 Y-19.197 E22.21866
G1 X-37.500 Y-20.354 E22.30215
G1 X-33.000 Y-20.354 E22.62688
G1 X-33.000 Y-21.511 E22.71037
G1 X-37.500 Y-21.511 E23.03509
G1 X-37.500 Y-22.668 E23.11858
G1 X-33.000 Y-22.668 E23.44330
G1 X-33.000 Y-23.825 E23.52680
G1 X-37.500 Y-23.825 E23.85152
G1 X-37.500 Y-24.982 E23.93501
G1 X-33.000 Y-24.982 E24.25973
G1 X-33.000 Y-26.139 E24.34323
G1 X-37.500 Y-26.139 E24.66795
G1 X-37.500 Y-27.296 E24.75144
G1 X-33.000 Y-27.296 E25.07616
G1 X-32.600 Y-27.296 F7800.000
G1 X-21.993 Y-27.296 F2520.000 E25.84154
G1 X-20.836 Y-26.139 E25.95962
G1 X-31.443 Y-26.139 E26.72500
G1 X-30.286 Y-24.982 E26.84307
G1 X-19.679 Y-24.982 E27.60845
G1 X-18.522 Y-23.825 E27.72653
G1 X-29.129 Y-23.825 E28.49191
G1 X-27.972 Y-22.668 E28.60999
G1 X26.767 Y-22.668 E32.55988
G1 X27.869 Y-23.825 E32.67518
G1 X-18.221 Y-23.825 E36.00098
G1 X-16.596 Y-24.982 E36.14487
G1 X16.586 Y-24.982 E38.53930
G1 F1800.000 E37.53930
G92 E0
G1 X18.614 Y-24.982 F7800.000
G1 F1800.000 E1.00000
G1 X28.971 Y-24.982 F2520.000 E1.74738
G1 X30.073 Y-26.139 E1.86268
G1 X19.716 Y-26.139 E2.61006
G1 X20.818 Y-27.296 E2.72536
G1 X31.175 Y-27.296 E3.47273
G1 X32.277 Y-28.454 E3.58803
G1 X21.920 Y-28.454 E4.33541
G1 F1800.000 E3.33541
G92 E0
G1 X18.062 Y-13.412 F7800.000
G1 F1800.000 E1.00000
G1 X26.818 Y-13.412 F2520.000 E1.63183
G1 X26.213 Y-14.569 E1.72607
G1 X8.696 Y-14.569 E2.99004
G1 X9.798 Y-15.726 E3.10534
G1 X25.543 Y-15.726 E4.24150
G1 X24.782 Y-16.883 E4.34145
G1 X10.900 Y-16.883 E5.34314
G1 X12.002 Y-18.040 E5.45844
G1 X23.952 Y-18.040 E6.32072
G1 X23.461 Y-19.197 E6.41140
G1 X11.706 Y-19.197 E7.25966
G1 X9.586 Y-20.354 E7.43396
G1 X24.563 Y-20.354 E8.51473
G1 X25.665 Y-21.511 E8.63003
G1 X6.580 Y-21.511 E10.00717
G1 F1800.000 E9.00717
G92 E0
G1 X-4.738 Y-29.611 F7800.000
G1 F1800.000 E1.00000
G1 X4.721 Y-29.611 F2520.000 E1.68255
G1 X9.482 Y-28.454 E2.03614
G1 X-9.473 Y-28.454 E3.40392
G1 X-12.408 Y-27.296 E3.63155
G1 X12.420 Y-27.296 E5.42309
G1 X14.710 Y-26.139 E5.60825
G1 X-14.696 Y-26.139 E7.73019
G1 F1800.000 E6.73019
G92 E0
G1 X-11.726 Y-19.197 F7800.000
G1 F1800.000 E1.00000
G1 X-24.500 Y-19.197 F2520.000 E1.92175
G1 X-25.657 Y-20.354 E2.03983
G1 X-9.555 Y-20.354 E3.20179
G1 X-6.555 Y-21.511 E3.43377
G1 X-26.815 Y-21.511 E4.89567
G1 F1800.000 E3.89567
G92 E0
G1 X-23.150 Y-28.454 F7800.000
G1 F1800.000 E1.00000
G1 X-37.500 Y-28.454 F2520.000 E2.03547
G1 X-37.500 Y-29.611 E2.11896
G1 X-24.307 Y-29.611 E3.07094
G1 X-25.464 Y-30.768 E3.18902
G1 X-37.500 Y-30.768 E4.05750
G1 X-37.500 Y-31.925 E4.14099
G1 X-26.621 Y-31.925 E4.92598
G1 F1800.000 E3.92598
G92 E0
G1 X-37.500 Y-33.082 F7800.000
G1 F1800.000 E1.00000
G1 X37.500 Y-33.082 F2520.000 E6.41190
G1 X37.500 Y-34.239 E6.49539
G1 X-37.500 Y-34.239 E11.90729
G1 X-37.500 Y-35.396 E11.99079
G1 X37.500 Y-35.396 E17.40269
G1 X37.500 Y-36.553 E17.48618
G1 X-37.500 Y-36.553 E22.89808
G1 F1800.000 E21.89808
G92 E0
G1 X-12.736 Y-18.040 F7800.000
G1 F1800.000 E1.00000
G1 X-23.956 Y-18.040 F2520.000 E1.80959
G1 X-24.794 Y-16.883 E1.91269
G1 X-11.579 Y-16.883 E2.86625
G1 X-10.422 Y-15.726 E2.98433
G1 X-25.533 Y-15.726 E4.07468
G1 X-26.209 Y-14.569 E4.17137
G1 X-9.265 Y-14.569 E5.39399
G1 X-8.108 Y-13.412 E5.51207
G1 X-26.831 Y-13.412 E6.86308
G1 X-27.370 Y-12.254 E6.95519
G1 X-18.852 Y-12.254 E7.56986
G1 X-19.556 Y-11.097 E7.66760
G1 X-27.856 Y-11.097 E8.26654
G1 X-28.303 Y-9.940 E8.35604
G1 X-20.176 Y-9.940 E8.94251
G1 X-20.710 Y-8.783 E9.03448
G1 X-28.671 Y-8.783 E9.60894
G1 X-29.001 Y-7.626 E9.69577
