; generated by Slic3r 0.9.9 on 2016-04-03 at 13:31:35

; layer_height = 0.2
; perimeters = 1
; top_solid_layers = 3
; bottom_solid_layers = 3
; fill_density = 0.5
; perimeter_speed = 50
; infill_speed = 80
; travel_speed = 130
; nozzle_diameter = 0.5
; filament_diameter = 1.75
; extrusion_multiplier = 1
; perimeters extrusion width = 0.75mm
; infill extrusion width = 1.02mm
; solid infill extrusion width = 0.85mm
; top infill extrusion width = 0.85mm
; support material extrusion width = 0.85mm
; first layer extrusion width = 0.40mm

G21 ; set units to millimeters
M104 S200 ; set temperature
G28 ; home all axes
G1 Z5 F5000 ; lift nozzle

M109 S200 ; wait for temperature to be reached
G90 ; use absolute coordinates
G92 E0
M82 ; use absolute distances for extrusion
M106 S89
G1 F1800.000 E-1.00000
G92 E0
G1 Z0.200 F7800.000
G1 X14.712 Y-11.768
G1 F1800.000 E1.00000
G1 X20.812 Y10.992 F2100.000 E1.82576
G1 X21.082 Y12.242 E1.87058
G1 X21.172 Y12.812 E1.89080
G1 X21.212 Y13.382 E1.91083
G1 X21.202 Y13.962 E1.93116
G1 X21.152 Y14.532 E1.95121
G1 X21.052 Y15.102 E1.97149
G1 X20.902 Y15.652 E1.99147
G1 X20.702 Y16.202 E2.01198
G1 X20.592 Y16.462 E2.02187
G1 X20.032 Y17.562 E2.06513
G1 X19.772 Y18.032 E2.08395
G1 X19.472 Y18.482 E2.10290
G1 X19.132 Y18.902 E2.12184
G1 X18.572 Y19.482 E2.15009
G1 X18.372 Y19.662 E2.15952
G1 X17.942 Y19.992 E2.17852
G1 X17.492 Y20.292 E2.19747
G1 X17.022 Y20.552 E2.21630
G1 X16.782 Y20.672 E2.22570
G1 X16.032 Y20.962 E2.25388
G1 X15.242 Y21.162 E2.28244
G1 X14.712 Y21.242 E2.30122
G1 X14.172 Y21.282 E2.32020
G1 X13.642 Y21.282 E2.33877
G1 X13.102 Y21.232 E2.35778
G1 X12.572 Y21.142 E2.37662
G1 X8.762 Y20.212 E2.51406
G1 X-19.828 Y12.542 E3.55141
G1 X-20.368 Y12.352 E3.57147
G1 X-20.888 Y12.112 E3.59154
G1 X-21.388 Y11.832 E3.61162
G1 X-22.088 Y11.332 E3.64177
G1 X-22.308 Y11.142 E3.65196
G1 X-22.718 Y10.752 E3.67179
G1 X-23.098 Y10.322 E3.69190
G1 X-23.778 Y9.482 E3.72977
G1 X-24.108 Y9.032 E3.74933
G1 X-24.528 Y8.332 E3.77794
G1 X-24.768 Y7.832 E3.79737
G1 X-24.868 Y7.572 E3.80713
G1 X-25.038 Y7.052 E3.82631
G1 X-25.168 Y6.512 E3.84577
G1 X-25.258 Y5.972 E3.86496
G1 X-25.298 Y5.422 E3.88428
G1 X-25.298 Y4.872 E3.90356
G1 X-25.278 Y4.602 E3.91304
G1 X-25.208 Y4.052 E3.93247
G1 X-25.098 Y3.512 E3.95179
G1 X-25.028 Y3.242 E3.96156
G1 X-24.848 Y2.722 E3.98085
G1 X-24.748 Y2.472 E3.99028
G1 X-24.378 Y1.732 E4.01928
G1 X-23.918 Y1.042 E4.04834
G1 X-23.058 Y-0.008 E4.09590
G1 X-22.608 Y-0.508 E4.11947
G1 X-0.688 Y-22.428 E5.20584
G1 X0.742 Y-23.708 E5.27310
G1 X1.182 Y-24.048 E5.29258
G1 X1.652 Y-24.348 E5.31212
G1 X1.892 Y-24.478 E5.32169
G1 X2.392 Y-24.718 E5.34113
G1 X2.912 Y-24.918 E5.36065
G1 X3.442 Y-25.068 E5.37995
G1 X3.992 Y-25.178 E5.39961
G1 X4.812 Y-25.268 E5.42852
G1 X5.702 Y-25.268 E5.45971
G1 X6.522 Y-25.188 E5.48858
G1 X7.062 Y-25.078 E5.50789
G1 X7.582 Y-24.928 E5.52686
G1 X8.092 Y-24.728 E5.54606
G1 X8.592 Y-24.498 E5.56535
G1 X9.062 Y-24.228 E5.58434
G1 X9.522 Y-23.918 E5.60378
G1 X9.942 Y-23.578 E5.62272
G1 X10.342 Y-23.198 E5.64205
G1 X10.872 Y-22.578 E5.67064
G1 X11.692 Y-21.498 E5.71816
G1 X12.012 Y-20.988 E5.73926
G1 X12.282 Y-20.468 E5.75979
G1 X12.402 Y-20.188 E5.77047
G1 X12.602 Y-19.638 E5.79098
G1 X12.682 Y-19.348 E5.80152
G1 X14.696 Y-11.829 E6.07430
G1 X14.292 Y-11.698 F7800.000
G1 X20.402 Y11.102 F2100.000 E6.90151
G1 X20.662 Y12.332 E6.94557
G1 X20.752 Y12.862 E6.96441
G1 X20.792 Y13.402 E6.98338
G1 X20.782 Y13.942 E7.00231
G1 X20.732 Y14.482 E7.02132
G1 X20.642 Y15.012 E7.04016
G1 X20.502 Y15.532 E7.05903
G1 X20.312 Y16.042 E7.07810
G1 X20.092 Y16.532 E7.09692
G1 X19.662 Y17.372 E7.12999
G1 X19.392 Y17.832 E7.14869
G1 X19.092 Y18.282 E7.16764
G1 X18.752 Y18.692 E7.18631
G1 X18.382 Y19.082 E7.20515
G1 X17.972 Y19.442 E7.22427
G1 X17.542 Y19.762 E7.24305
G1 X16.852 Y20.172 E7.27118
G1 X16.362 Y20.392 E7.29000
G1 X15.852 Y20.572 E7.30895
G1 X15.332 Y20.712 E7.32783
G1 X14.812 Y20.802 E7.34632
G1 X14.272 Y20.852 E7.36533
G1 X13.732 Y20.862 E7.38425
G1 X13.202 Y20.822 E7.40288
G1 X12.402 Y20.682 E7.43134
G1 X8.992 Y19.842 E7.55441
G1 X-19.718 Y12.132 E8.59619
G1 X-20.258 Y11.932 E8.61637
G1 X-20.778 Y11.692 E8.63644
G1 X-21.028 Y11.552 E8.64648
G1 X-21.518 Y11.232 E8.66699
G1 X-21.968 Y10.882 E8.68697
G1 X-22.388 Y10.482 E8.70730
G1 X-22.578 Y10.272 E8.71722
G1 X-23.448 Y9.212 E8.76528
G1 X-23.768 Y8.782 E8.78406
G1 X-24.178 Y8.102 E8.81189
G1 X-24.398 Y7.612 E8.83071
G1 X-24.658 Y6.862 E8.85853
G1 X-24.718 Y6.602 E8.86788
G1 X-24.818 Y6.082 E8.88644
G1 X-24.848 Y5.812 E8.89596
G1 X-24.878 Y5.282 E8.91456
G1 X-24.868 Y4.752 E8.93314
G1 X-24.768 Y3.962 E8.96105
G1 X-24.568 Y3.182 E8.98927
G1 X-24.478 Y2.932 E8.99858
G1 X-24.268 Y2.442 E9.01726
G1 X-24.028 Y1.972 E9.03575
G1 X-23.588 Y1.302 E9.06384
G1 X-23.418 Y1.092 E9.07331
G1 X-22.728 Y0.252 E9.11141
G1 X-22.308 Y-0.208 E9.13324
G1 X-0.388 Y-22.128 E10.21960
G1 X1.022 Y-23.398 E10.28610
G1 X1.462 Y-23.728 E10.30538
G1 X2.172 Y-24.148 E10.33429
G1 X2.932 Y-24.478 E10.36332
G1 X3.462 Y-24.638 E10.38273
G1 X3.992 Y-24.758 E10.40177
G1 X4.272 Y-24.798 E10.41168
G1 X4.812 Y-24.848 E10.43069
G1 X5.702 Y-24.848 E10.46188
G1 X6.502 Y-24.758 E10.49009
G1 X7.022 Y-24.648 E10.50872
G1 X7.542 Y-24.498 E10.52768
G1 X8.042 Y-24.298 E10.54655
G1 X8.522 Y-24.058 E10.56536
G1 X8.752 Y-23.928 E10.57462
G1 X9.202 Y-23.628 E10.59357
G1 X9.622 Y-23.298 E10.61229
G1 X10.012 Y-22.928 E10.63113
G1 X10.542 Y-22.318 E10.65945
G1 X11.362 Y-21.228 E10.70725
G1 X11.842 Y-20.418 E10.74025
G1 X11.972 Y-20.128 E10.75138
G1 X12.192 Y-19.538 E10.77345
G1 X12.282 Y-19.238 E10.78443
G1 X14.276 Y-11.759 E11.05567
G1 X12.921 Y-11.526 F7800.000
G1 X18.993 Y11.136 F2100.000 E11.87787
G1 X20.247 Y13.173 E11.96171
G1 X19.397 Y14.858 E12.02783
G1 X19.397 Y16.658 E12.09093
G1 X16.558 Y19.497 E12.23164
G1 X10.917 Y19.497 E12.42933
G1 X10.398 Y18.654 E12.46402
G1 X7.928 Y18.654 E12.55059
G1 X7.085 Y17.811 E12.59236
G1 X4.782 Y17.811 E12.67307
G1 X3.939 Y16.968 E12.71484
G1 X1.636 Y16.968 E12.79555
G1 X0.793 Y16.125 E12.83732
G1 X-1.510 Y16.125 E12.91803
G1 X-2.353 Y15.283 E12.95980
G1 X-4.656 Y15.283 E13.04051
G1 X-5.498 Y14.440 E13.08228
G1 X-7.801 Y14.440 E13.16299
G1 X-8.644 Y13.597 E13.20476
G1 X-10.947 Y13.597 E13.28547
G1 X-11.790 Y12.754 E13.32724
G1 X-14.093 Y12.754 E13.40795
G1 X-14.936 Y11.911 E13.44972
G1 X-17.239 Y11.911 E13.53043
G1 X-18.082 Y11.068 E13.57221
G1 X-18.975 Y11.068 E13.60350
G1 X-20.962 Y10.115 E13.68073
G1 X-24.561 Y5.634 E13.88214
G1 X-23.741 Y3.924 E13.94862
G1 X-23.958 Y3.398 E13.96855
G1 X-23.056 Y2.496 E14.01328
G1 X-21.922 Y0.131 E14.10516
G1 X-20.692 Y0.131 E14.14829
G1 X-1.289 Y-19.271 E15.10989
G1 X-1.289 Y-19.788 E15.12801
G1 X1.550 Y-22.627 E15.26872
G1 X1.648 Y-22.627 E15.27215
G1 X2.491 Y-23.470 E15.31392
G1 X6.679 Y-23.470 E15.46071
G1 X8.722 Y-22.452 E15.54068
G1 X12.151 Y-17.903 E15.74034
G1 X11.540 Y-16.678 E15.78830
G1 X12.905 Y-11.587 E15.97299
G1 F1800.000 E14.97299
G92 E0
G1 X2.362 Y-6.751 F7800.000
G1 F1800.000 E1.00000
G1 X5.561 Y5.189 F2100.000 E1.43318
G1 X3.440 Y5.189 E1.50751
G1 X2.597 Y4.346 E1.54928
G1 X0.294 Y4.346 E1.62999
G1 X-0.549 Y3.503 E1.67176
G1 X-2.851 Y3.503 E1.75247
G1 X-3.694 Y2.660 E1.79424
G1 X-5.997 Y2.660 E1.87495
G1 X-6.523 Y2.135 E1.90100
G1 X2.317 Y-6.706 E2.33913
G1 F1800.000 E1.33913
G92 E0
G1 X12.981 Y-9.675 F7800.000
G1 F1800.000 E1.00000
G1 X18.602 Y11.304 F2100.000 E1.76113
G1 X19.765 Y13.193 E1.83887
G1 X18.976 Y14.757 E1.90026
G1 X18.976 Y16.483 E1.96075
G1 X16.383 Y19.076 E2.08922
G1 X11.152 Y19.076 E2.27255
G1 X10.634 Y18.233 E2.30723
G1 X8.102 Y18.233 E2.39594
G1 X7.259 Y17.390 E2.43771
G1 X4.957 Y17.390 E2.51842
G1 X4.114 Y16.547 E2.56019
G1 X1.811 Y16.547 E2.64090
G1 X0.968 Y15.704 E2.68267
G1 X-1.335 Y15.704 E2.76338
G1 X-2.178 Y14.861 E2.80515
G1 X-4.481 Y14.861 E2.88586
G1 X-5.324 Y14.018 E2.92763
G1 X-7.627 Y14.018 E3.00834
G1 X-8.470 Y13.175 E3.05011
G1 X-10.773 Y13.175 E3.13082
G1 X-11.616 Y12.332 E3.17259
G1 X-13.918 Y12.332 E3.25330
G1 X-14.761 Y11.489 E3.29507
G1 X-17.064 Y11.489 E3.37578
G1 X-17.907 Y10.647 E3.41755
G1 X-18.879 Y10.647 E3.45161
G1 X-20.693 Y9.777 E3.52212
G1 X-24.066 Y5.577 E3.71088
G1 X-23.279 Y3.936 E3.77465
G1 X-23.461 Y3.497 E3.79131
G1 X-22.707 Y2.743 E3.82869
G1 X-21.657 Y0.553 E3.91380
G1 X-20.517 Y0.553 E3.95375
G1 X-0.868 Y-19.096 E4.92758
G1 X-0.868 Y-19.614 E4.94570
G1 X1.725 Y-22.206 E5.07418
G1 X1.822 Y-22.206 E5.07760
G1 X2.665 Y-23.049 E5.11938
G1 X6.580 Y-23.049 E5.25657
G1 X8.445 Y-22.119 E5.32959
G1 X11.657 Y-17.857 E5.51663
G1 X11.092 Y-16.723 E5.56104
G1 X12.964 Y-9.736 E5.81455
G1 F1800.000 E4.81455
G92 E0
G1 X2.678 Y-7.198 F7800.000
G1 F1800.000 E1.00000
G1 X6.309 Y6.351 F2100.000 E1.49156
G1 X5.568 Y5.610 E1.52825
G1 X3.266 Y5.610 E1.60896
G1 X2.423 Y4.768 E1.65073
G1 X0.120 Y4.768 E1.73144
G1 X-0.723 Y3.925 E1.77321
G1 X-3.026 Y3.925 E1.85392
G1 X-3.869 Y3.082 E1.89569
G1 X-6.172 Y3.082 E1.97640
G1 X-7.015 Y2.239 E2.01817
G1 X-7.223 Y2.239 E2.02548
G1 X2.580 Y-7.565 E2.51134
G1 X2.662 Y-7.259 E2.52244
G1 F1800.000 E1.52244
G92 E0
G1 X12.520 Y-9.766 F7800.000
G1 F1800.000 E1.00000
G1 X18.211 Y11.473 F2100.000 E1.77057
G1 X19.282 Y13.214 E1.84222
G1 X18.554 Y14.657 E1.89886
G1 X18.554 Y16.309 E1.95675
G1 X16.209 Y18.654 E2.07299
G1 X11.388 Y18.654 E2.24194
G1 X10.869 Y17.811 E2.27663
G1 X8.277 Y17.811 E2.36747
G1 X7.434 Y16.968 E2.40924
G1 X5.131 Y16.968 E2.48995
G1 X4.288 Y16.125 E2.53172
G1 X1.985 Y16.125 E2.61243
G1 X1.142 Y15.283 E2.65420
G1 X-1.161 Y15.283 E2.73491
G1 X-2.003 Y14.440 E2.77669
G1 X-4.306 Y14.440 E2.85739
G1 X-5.149 Y13.597 E2.89917
G1 X-7.452 Y13.597 E2.97987
G1 X-8.295 Y12.754 E3.02165
G1 X-10.598 Y12.754 E3.10235
G1 X-11.441 Y11.911 E3.14413
G1 X-13.744 Y11.911 E3.22483
G1 X-14.587 Y11.068 E3.26661
G1 X-16.890 Y11.068 E3.34731
G1 X-17.733 Y10.225 E3.38909
G1 X-18.783 Y10.225 E3.42590
G1 X-20.425 Y9.438 E3.48970
G1 X-23.571 Y5.520 E3.66580
G1 X-22.818 Y3.949 E3.72687
G1 X-22.964 Y3.596 E3.74025
G1 X-22.358 Y2.990 E3.77028
G1 X-21.392 Y0.974 E3.84862
G1 X-20.343 Y0.974 E3.88539
G1 X-0.446 Y-18.922 E4.87146
G1 X-0.446 Y-19.439 E4.88958
G1 X1.899 Y-21.784 E5.00582
G1 X1.997 Y-21.784 E5.00924
G1 X2.840 Y-22.627 E5.05102
G1 X6.481 Y-22.627 E5.17861
G1 X8.168 Y-21.786 E5.24468
G1 X11.164 Y-17.812 E5.41910
G1 X10.644 Y-16.768 E5.45997
G1 X12.503 Y-9.827 E5.71179
G1 F1800.000 E4.71179
G92 E0
G1 X3.049 Y-7.445 F7800.000
G1 F1800.000 E1.00000
G1 X6.886 Y6.875 F2100.000 E1.51954
G1 X6.237 Y6.875 E1.54228
G1 X5.394 Y6.032 E1.58405
G1 X3.091 Y6.032 E1.66476
G1 X2.248 Y5.189 E1.70653
G1 X-0.055 Y5.189 E1.78724
G1 X-0.898 Y4.346 E1.82901
G1 X-3.201 Y4.346 E1.90972
G1 X-4.044 Y3.503 E1.95149
G1 X-6.346 Y3.503 E2.03220
G1 X-7.189 Y2.660 E2.07397
G1 X-8.241 Y2.660 E2.11082
G1 X2.798 Y-8.379 E2.65792
G1 X3.032 Y-7.506 E2.68959
G1 F1800.000 E1.68959
G92 E0
G1 X12.059 Y-9.858 F7800.000
G1 F1800.000 E1.00000
G1 X17.820 Y11.641 F2100.000 E1.78001
G1 X18.800 Y13.234 E1.84556
G1 X18.133 Y14.557 E1.89747
G1 X18.133 Y16.134 E1.95276
G1 X16.034 Y18.233 E2.05676
G1 X11.623 Y18.233 E2.21134
G1 X11.105 Y17.390 E2.24603
G1 X8.452 Y17.390 E2.33900
G1 X7.609 Y16.547 E2.38078
G1 X5.306 Y16.547 E2.46148
G1 X4.463 Y15.704 E2.50326
G1 X2.160 Y15.704 E2.58396
G1 X1.317 Y14.861 E2.62574
G1 X-0.986 Y14.861 E2.70644
G1 X-1.829 Y14.018 E2.74822
G1 X-4.132 Y14.018 E2.82892
G1 X-4.975 Y13.175 E2.87070
G1 X-7.278 Y13.175 E2.95140
G1 X-8.121 Y12.332 E2.99318
G1 X-10.423 Y12.332 E3.07388
G1 X-11.266 Y11.489 E3.11566
G1 X-13.569 Y11.489 E3.19636
G1 X-14.412 Y10.647 E3.23814
G1 X-16.715 Y10.647 E3.31884
G1 X-17.558 Y9.804 E3.36062
G1 X-18.687 Y9.804 E3.40020
G1 X-20.156 Y9.099 E3.45728
G1 X-23.077 Y5.463 E3.62072
G1 X-22.357 Y3.961 E3.67908
G1 X-22.467 Y3.695 E3.68919
G1 X-22.009 Y3.237 E3.71188
G1 X-21.126 Y1.396 E3.78344
G1 X-20.168 Y1.396 E3.81703
G1 X-0.025 Y-18.747 E4.81533
G1 X-0.025 Y-19.264 E4.83345
G1 X2.074 Y-21.363 E4.93746
G1 X2.171 Y-21.363 E4.94088
G1 X3.014 Y-22.206 E4.98266
G1 X6.381 Y-22.206 E5.10066
G1 X7.891 Y-21.453 E5.15977
G1 X10.670 Y-17.767 E5.32157
G1 X10.195 Y-16.814 E5.35889
G1 X12.043 Y-9.919 E5.60903
G1 F1800.000 E4.60903
G92 E0
G1 X3.419 Y-7.692 F7800.000
G1 F1800.000 E1.00000
G1 X7.435 Y7.296 F2100.000 E1.54380
G1 X6.062 Y7.296 E1.59191
G1 X5.219 Y6.453 E1.63368
G1 X2.916 Y6.453 E1.71439
G1 X2.074 Y5.610 E1.75616
G1 X-0.229 Y5.610 E1.83687
G1 X-1.072 Y4.768 E1.87864
G1 X-3.375 Y4.768 E1.95935
G1 X-4.218 Y3.925 E2.00112
G1 X-6.521 Y3.925 E2.08182
G1 X-7.364 Y3.082 E2.12360
G1 X-9.258 Y3.082 E2.18999
G1 X3.017 Y-9.193 E2.79833
G1 X3.402 Y-7.754 E2.85056
G1 F1800.000 E1.85056
G92 E0
G1 X11.598 Y-9.950 F7800.000
G1 F1800.000 E1.00000
G1 X17.428 Y11.810 F2100.000 E1.78945
G1 X18.318 Y13.255 E1.84890
G1 X17.711 Y14.456 E1.89608
G1 X17.711 Y15.960 E1.94876
G1 X15.860 Y17.811 E2.04053
G1 X11.859 Y17.811 E2.18074
G1 X11.340 Y16.968 E2.21543
G1 X8.626 Y16.968 E2.31053
G1 X7.783 Y16.125 E2.35231
G1 X5.480 Y16.125 E2.43301
G1 X4.637 Y15.283 E2.47479
G1 X2.334 Y15.283 E2.55549
G1 X1.492 Y14.440 E2.59727
G1 X-0.811 Y14.440 E2.67797
G1 X-1.654 Y13.597 E2.71975
G1 X-3.957 Y13.597 E2.80045
G1 X-4.800 Y12.754 E2.84223
G1 X-7.103 Y12.754 E2.92294
G1 X-7.946 Y11.911 E2.96471
G1 X-10.249 Y11.911 E3.04542
G1 X-11.092 Y11.068 E3.08719
G1 X-13.395 Y11.068 E3.16790
G1 X-14.238 Y10.225 E3.20967
G1 X-16.541 Y10.225 E3.29038
G1 X-17.383 Y9.382 E3.33215
G1 X-18.592 Y9.382 E3.37449
G1 X-19.888 Y8.761 E3.42486
G1 X-22.582 Y5.406 E3.57564
G1 X-21.895 Y3.974 E3.63130
G1 X-21.970 Y3.794 E3.63814
G1 X-21.660 Y3.484 E3.65347
G1 X-20.861 Y1.817 E3.71826
G1 X-19.993 Y1.817 E3.74866
G1 X0.397 Y-18.573 E4.75921
G1 X0.397 Y-19.090 E4.77733
G1 X2.248 Y-20.942 E4.86910
G1 X2.346 Y-20.942 E4.87252
G1 X3.189 Y-21.784 E4.91429
G1 X6.282 Y-21.784 E5.02270
G1 X7.614 Y-21.120 E5.07486
G1 X10.177 Y-17.721 E5.22404
G1 X9.747 Y-16.859 E5.25782
G1 X11.582 Y-10.011 E5.50627
G1 F1800.000 E4.50627
G92 E0
G1 X3.789 Y-7.940 F7800.000
G1 F1800.000 E1.00000
G1 X7.984 Y7.718 F2100.000 E1.56807
G1 X5.888 Y7.718 E1.64154
G1 X5.045 Y6.875 E1.68331
G1 X2.742 Y6.875 E1.76401
G1 X1.899 Y6.032 E1.80579
G1 X-0.404 Y6.032 E1.88649
G1 X-1.247 Y5.189 E1.92827
G1 X-3.550 Y5.189 E2.00897
G1 X-4.393 Y4.346 E2.05075
G1 X-6.696 Y4.346 E2.13145
G1 X-7.539 Y3.503 E2.17323
G1 X-9.841 Y3.503 E2.25393
G1 X-10.059 Y3.286 E2.26470
G1 X3.235 Y-10.007 E2.92352
G1 X3.772 Y-8.001 E2.99632
G1 F1800.000 E1.99632
G92 E0
G1 X11.137 Y-10.041 F7800.000
G1 F1800.000 E1.00000
G1 X17.037 Y11.978 F2100.000 E1.79889
G1 X17.835 Y13.275 E1.85225
G1 X17.290 Y14.356 E1.89468
G1 X17.290 Y15.785 E1.94477
G1 X15.685 Y17.390 E2.02430
G1 X12.094 Y17.390 E2.15014
G1 X11.575 Y16.547 E2.18483
G1 X8.801 Y16.547 E2.28207
G1 X7.958 Y15.704 E2.32384
G1 X5.655 Y15.704 E2.40455
G1 X4.812 Y14.861 E2.44632
G1 X2.509 Y14.861 E2.52703
G1 X1.666 Y14.018 E2.56880
G1 X-0.637 Y14.018 E2.64951
G1 X-1.480 Y13.175 E2.69128
G1 X-3.783 Y13.175 E2.77199
G1 X-4.626 Y12.332 E2.81376
G1 X-6.928 Y12.332 E2.89447
G1 X-7.771 Y11.489 E2.93624
G1 X-10.074 Y11.489 E3.01695
G1 X-10.917 Y10.647 E3.05872
G1 X-13.220 Y10.647 E3.13943
G1 X-14.063 Y9.804 E3.18120
G1 X-16.366 Y9.804 E3.26191
G1 X-17.209 Y8.961 E3.30368
G1 X-18.496 Y8.961 E3.34878
G1 X-19.619 Y8.422 E3.39243
G1 X-22.087 Y5.349 E3.53056
G1 X-21.434 Y3.986 E3.58352
G1 X-21.473 Y3.893 E3.58708
G1 X-21.311 Y3.731 E3.59507
G1 X-20.596 Y2.239 E3.65308
G1 X-19.819 Y2.239 E3.68030
G1 X0.818 Y-18.398 E4.70308
G1 X0.818 Y-18.915 E4.72120
G1 X2.423 Y-20.520 E4.80074
G1 X2.520 Y-20.520 E4.80416
G1 X3.363 Y-21.363 E4.84593
G1 X6.183 Y-21.363 E4.94475
G1 X7.337 Y-20.788 E4.98995
G1 X9.683 Y-17.676 E5.12651
G1 X9.298 Y-16.904 E5.15674
G1 X11.121 Y-10.102 E5.40350
G1 F1800.000 E4.40350
G92 E0
G1 X4.159 Y-8.187 F7800.000
G1 F1800.000 E1.00000
G1 X8.723 Y8.846 F2100.000 E1.61797
G1 X8.016 Y8.139 E1.65300
G1 X5.713 Y8.139 E1.73370
G1 X4.870 Y7.296 E1.77547
G1 X2.567 Y7.296 E1.85618
G1 X1.724 Y6.453 E1.89795
G1 X-0.579 Y6.453 E1.97866
G1 X-1.421 Y5.610 E2.02043
G1 X-3.724 Y5.610 E2.10114
G1 X-4.567 Y4.768 E2.14291
G1 X-6.870 Y4.768 E2.22362
G1 X-7.713 Y3.925 E2.26539
G1 X-10.016 Y3.925 E2.34610
