; generated by Slic3r 0.9.9 on 2016-04-03 at 23:23:04

; layer_height = 0.2
; perimeters = 1
; top_solid_layers = 3
; bottom_solid_layers = 3
; fill_density = 0.5
; perimeter_speed = 60
; infill_speed = 90
; travel_speed = 150
; nozzle_diameter = 0.4
; filament_diameter = 1.75
; extrusion_multiplier = 1
; perimeters extrusion width = 0.75mm
; infill extrusion width = 0.67mm
; solid infill extrusion width = 0.67mm
; top infill extrusion width = 0.67mm
; first layer extrusion width = 0.40mm

G21 ; set units to millimeters
M104 S190 ; set temperature
G28 ; home all axes
G1 Z5 F5000 ; lift nozzle
M109 S190 ; wait for temperature to be reached
G90 ; use absolute coordinates
G92 E0
M82 ; use absolute distances for extrusion
M106 S89
G1 F1800.000 E-1.00000
G92 E0
G1 Z0.270 F9000.000
G1 X-31.702 Y2.318
G1 F1800.000 E1.00000
G1 X2.318 Y-31.702 F2520.000 E2.60020
G1 X2.888 Y-32.222 E2.62586
G1 X3.708 Y-32.862 E2.66046
G1 X4.478 Y-33.362 E2.69099
G1 X4.958 Y-33.632 E2.70931
G1 X5.208 Y-33.752 E2.71853
G1 X5.718 Y-33.952 E2.73675
G1 X5.978 Y-34.042 E2.74590
G1 X6.518 Y-34.182 E2.76446
G1 X7.058 Y-34.282 E2.78272
G1 X7.328 Y-34.312 E2.79176
G1 X7.878 Y-34.342 E2.81008
G1 X8.438 Y-34.332 E2.82871
G1 X9.258 Y-34.222 E2.85623
G1 X9.788 Y-34.102 E2.87430
G1 X10.458 Y-33.912 E2.89746
G1 X11.248 Y-33.602 E2.92569
G1 X11.758 Y-33.342 E2.94473
G1 X12.238 Y-33.042 E2.96356
G1 X12.898 Y-32.522 E2.99150
G1 X13.498 Y-31.912 E3.01996
G1 X13.858 Y-31.472 E3.03887
G1 X14.318 Y-30.762 E3.06701
G1 X14.738 Y-29.942 E3.09765
G1 X15.178 Y-28.872 E3.13613
G1 X15.308 Y-28.452 E3.15075
G1 X27.828 Y18.268 E4.75949
G1 X28.078 Y19.398 E4.79799
G1 X28.138 Y19.898 E4.81474
G1 X28.188 Y21.058 E4.85335
G1 X28.168 Y21.608 E4.87166
G1 X28.108 Y22.158 E4.89006
G1 X27.998 Y22.698 E4.90839
G1 X27.848 Y23.238 E4.92703
G1 X27.538 Y24.008 E4.95464
G1 X27.278 Y24.498 E4.97309
G1 X26.988 Y24.958 E4.99117
G1 X26.648 Y25.408 E5.00993
G1 X26.008 Y26.098 E5.04123
G1 X25.528 Y26.548 E5.06312
G1 X25.008 Y26.958 E5.08514
G1 X24.448 Y27.308 E5.10711
G1 X23.878 Y27.598 E5.12838
G1 X23.338 Y27.808 E5.14765
G1 X22.788 Y27.978 E5.16680
G1 X22.218 Y28.098 E5.18617
G1 X21.648 Y28.168 E5.20527
G1 X21.068 Y28.188 E5.22457
G1 X19.898 Y28.138 E5.26352
G1 X19.398 Y28.078 E5.28027
G1 X18.268 Y27.828 E5.31876
G1 X-28.202 Y15.378 E6.91887
G1 X-28.872 Y15.178 E6.94213
G1 X-29.942 Y14.738 E6.98061
G1 X-31.022 Y14.168 E7.02122
G1 X-31.722 Y13.668 E7.04984
G1 X-32.362 Y13.078 E7.07879
G1 X-32.742 Y12.638 E7.09812
G1 X-33.082 Y12.178 E7.11715
G1 X-33.382 Y11.688 E7.13626
G1 X-33.642 Y11.158 E7.15589
G1 X-33.852 Y10.638 E7.17455
G1 X-34.122 Y9.718 E7.20644
G1 X-34.242 Y9.158 E7.22548
G1 X-34.282 Y8.878 E7.23489
G1 X-34.332 Y8.308 E7.25392
G1 X-34.342 Y7.738 E7.27288
G1 X-34.252 Y6.888 E7.30131
G1 X-34.202 Y6.598 E7.31110
G1 X-34.062 Y6.048 E7.32998
G1 X-33.762 Y5.248 E7.35840
G1 X-33.372 Y4.478 E7.38710
G1 X-32.862 Y3.708 E7.41782
G1 X-32.222 Y2.888 E7.45242
G1 X-31.742 Y2.363 E7.47608
G1 X-31.422 Y2.598 F9000.000
G1 X2.598 Y-31.422 F2520.000 E9.07628
G1 X3.148 Y-31.932 E9.10123
G1 X3.928 Y-32.532 E9.13396
G1 X4.688 Y-33.032 E9.16422
G1 X5.168 Y-33.292 E9.18237
G1 X5.668 Y-33.512 E9.20054
G1 X6.448 Y-33.752 E9.22769
G1 X7.258 Y-33.902 E9.25508
G1 X7.798 Y-33.942 E9.27309
G1 X8.338 Y-33.932 E9.29106
G1 X8.888 Y-33.882 E9.30943
G1 X9.418 Y-33.782 E9.32736
G1 X10.338 Y-33.532 E9.35907
G1 X10.838 Y-33.342 E9.37686
G1 X11.318 Y-33.122 E9.39443
G1 X12.008 Y-32.712 E9.42112
G1 X12.638 Y-32.222 E9.44767
G1 X13.198 Y-31.652 E9.47424
G1 X13.528 Y-31.242 E9.49175
G1 X13.828 Y-30.802 E9.50946
G1 X13.968 Y-30.572 E9.51842
G1 X14.378 Y-29.762 E9.54861
G1 X14.788 Y-28.752 E9.58487
G1 X14.988 Y-28.102 E9.60749
G1 X27.438 Y18.368 E11.20759
G1 X27.638 Y19.238 E11.23728
G1 X27.738 Y19.928 E11.26047
G1 X27.788 Y21.348 E11.30773
G1 X27.738 Y21.888 E11.32577
G1 X27.648 Y22.438 E11.34431
G1 X27.428 Y23.228 E11.37158
G1 X27.218 Y23.738 E11.38993
G1 X26.978 Y24.228 E11.40807
G1 X26.688 Y24.688 E11.42616
G1 X26.358 Y25.128 E11.44445
G1 X25.728 Y25.818 E11.47553
G1 X25.268 Y26.248 E11.49647
G1 X24.778 Y26.628 E11.51710
G1 X24.258 Y26.958 E11.53758
G1 X23.688 Y27.238 E11.55870
G1 X23.138 Y27.458 E11.57841
G1 X22.568 Y27.618 E11.59810
G1 X21.988 Y27.728 E11.61773
G1 X21.098 Y27.788 E11.64740
G1 X19.928 Y27.738 E11.68635
G1 X19.468 Y27.678 E11.70178
G1 X18.368 Y27.438 E11.73923
G1 X-28.102 Y14.988 E13.33933
G1 X-28.752 Y14.788 E13.36195
G1 X-29.762 Y14.378 E13.39821
G1 X-30.572 Y13.968 E13.42840
G1 X-30.812 Y13.828 E13.43764
G1 X-31.472 Y13.358 E13.46459
G1 X-32.072 Y12.798 E13.49189
G1 X-32.592 Y12.178 E13.51880
G1 X-33.032 Y11.488 E13.54602
G1 X-33.282 Y10.988 E13.56462
G1 X-33.562 Y10.248 E13.59093
G1 X-33.792 Y9.358 E13.62151
G1 X-33.892 Y8.828 E13.63944
G1 X-33.932 Y8.288 E13.65745
G1 X-33.942 Y7.748 E13.67542
G1 X-33.862 Y6.948 E13.70216
G1 X-33.752 Y6.418 E13.72016
G1 X-33.592 Y5.908 E13.73794
G1 X-33.402 Y5.408 E13.75573
G1 X-33.282 Y5.158 E13.76495
G1 X-33.162 Y4.918 E13.77388
G1 X-32.882 Y4.458 E13.79179
G1 X-32.532 Y3.928 E13.81291
G1 X-31.932 Y3.148 E13.84564
G1 X-31.463 Y2.642 E13.86860
G1 F1800.000 E12.86860
G92 E0
G1 X-28.647 Y4.481 F9000.000
G1 F1800.000 E1.00000
G1 X-28.378 Y4.413 F2520.000 E1.00923
G1 X4.413 Y-28.378 E2.55162
G1 X4.481 Y-28.647 E2.56086
G1 X5.292 Y-29.257 E2.59463
G1 X6.217 Y-30.182 E2.63811
G1 X6.523 Y-30.182 E2.64828
G1 X6.744 Y-30.348 E2.65747
G1 X8.101 Y-30.611 E2.70347
G1 X9.838 Y-30.145 E2.76327
G1 X10.882 Y-29.239 E2.80927
G1 X10.991 Y-28.984 E2.81846
G1 X11.255 Y-28.832 E2.82863
G1 X11.594 Y-27.569 E2.87211
G1 X11.992 Y-26.635 E2.90587
G1 X11.916 Y-26.368 E2.91511
G1 X23.918 Y18.426 E4.45752
G1 X24.117 Y18.619 E4.46675
G1 X24.240 Y19.627 E4.50051
G1 X24.578 Y20.890 E4.54399
G1 X24.425 Y21.154 E4.55416
G1 X24.458 Y21.421 E4.56308
G1 X24.018 Y22.715 E4.60855
G1 X23.160 Y23.592 E4.64936
G1 X22.929 Y23.784 E4.65935
G1 X22.337 Y24.185 E4.68313
G1 X21.281 Y24.441 E4.71926
G1 X21.154 Y24.425 E4.72351
G1 X20.890 Y24.578 E4.73368
G1 X19.627 Y24.240 E4.77717
G1 X18.619 Y24.117 E4.81092
G1 X18.426 Y23.918 E4.82016
G1 X-26.368 Y11.916 E6.36256
G1 X-26.635 Y11.992 E6.37180
G1 X-27.569 Y11.594 E6.40556
G1 X-28.832 Y11.255 E6.44905
G1 X-28.984 Y10.991 E6.45922
G1 X-29.102 Y10.940 E6.46347
G1 X-29.889 Y10.191 E6.49961
G1 X-30.201 Y9.548 E6.52338
G1 X-30.304 Y9.266 E6.53337
G1 X-30.610 Y8.078 E6.57418
G1 X-30.343 Y6.737 E6.61964
G1 X-30.182 Y6.523 E6.62857
G1 X-30.182 Y6.217 E6.63874
G1 X-29.257 Y5.292 E6.68222
G1 X-28.683 Y4.529 E6.71399
G1 X-28.412 Y4.834 F9000.000
G1 X-28.173 Y4.774 F2520.000 E6.72220
G1 X4.774 Y-28.173 E8.27194
G1 X4.834 Y-28.413 E8.28015
G1 X5.555 Y-28.954 E8.31014
G1 X6.382 Y-29.782 E8.34905
G1 X6.656 Y-29.782 E8.35816
G1 X6.910 Y-29.972 E8.36873
G1 X8.087 Y-30.200 E8.40859
G1 X9.645 Y-29.783 E8.46225
G1 X10.550 Y-28.997 E8.50212
G1 X10.675 Y-28.705 E8.51269
G1 X10.912 Y-28.568 E8.52179
G1 X11.215 Y-27.438 E8.56070
G1 X11.568 Y-26.608 E8.59069
G1 X11.501 Y-26.371 E8.59890
G1 X23.560 Y18.636 E10.14866
G1 X23.737 Y18.808 E10.15686
G1 X23.846 Y19.703 E10.18685
G1 X24.149 Y20.833 E10.22576
G1 X24.012 Y21.070 E10.23486
G1 X24.049 Y21.378 E10.24520
G1 X23.669 Y22.500 E10.28460
G1 X22.888 Y23.297 E10.32171
G1 X22.688 Y23.464 E10.33037
G1 X22.173 Y23.813 E10.35107
G1 X21.258 Y24.035 E10.38238
G1 X21.070 Y24.012 E10.38867
G1 X20.833 Y24.149 E10.39777
G1 X19.703 Y23.846 E10.43669
G1 X18.808 Y23.737 E10.46667
G1 X18.636 Y23.560 E10.47488
G1 X-26.371 Y11.501 E12.02463
G1 X-26.608 Y11.568 E12.03284
G1 X-27.438 Y11.215 E12.06284
G1 X-28.568 Y10.912 E12.10175
G1 X-28.705 Y10.675 E12.11085
G1 X-28.879 Y10.601 E12.11714
G1 X-29.561 Y9.951 E12.14845
G1 X-29.832 Y9.391 E12.16916
G1 X-29.922 Y9.147 E12.17781
G1 X-30.199 Y8.066 E12.21493
G1 X-29.968 Y6.904 E12.25433
G1 X-29.782 Y6.656 E12.26466
G1 X-29.782 Y6.383 E12.27376
G1 X-28.954 Y5.555 E12.31268
G1 X-28.449 Y4.882 E12.34068
G1 X-28.178 Y5.188 F9000.000
G1 X-27.969 Y5.135 F2520.000 E12.34785
G1 X5.135 Y-27.969 E13.90495
G1 X5.188 Y-28.178 E13.91213
G1 X5.818 Y-28.652 E13.93835
G1 X6.548 Y-29.382 E13.97269
G1 X6.790 Y-29.382 E13.98072
G1 X7.077 Y-29.597 E13.99267
G1 X8.072 Y-29.790 E14.02640
G1 X9.453 Y-29.420 E14.07393
G1 X10.219 Y-28.755 E14.10766
G1 X10.359 Y-28.425 E14.11960
G1 X10.568 Y-28.304 E14.12763
G1 X10.836 Y-27.307 E14.16198
G1 X11.145 Y-26.582 E14.18820
G1 X11.086 Y-26.374 E14.19537
G1 X23.202 Y18.847 E15.75249
G1 X23.357 Y18.997 E15.75966
G1 X23.452 Y19.779 E15.78587
G1 X23.720 Y20.777 E15.82022
G1 X23.599 Y20.986 E15.82825
G1 X23.641 Y21.336 E15.83999
G1 X23.319 Y22.285 E15.87333
G1 X22.616 Y23.003 E15.90675
G1 X22.447 Y23.144 E15.91408
G1 X22.008 Y23.442 E15.93171
G1 X21.234 Y23.629 E15.95820
G1 X20.986 Y23.599 E15.96652
G1 X20.777 Y23.720 E15.97455
G1 X19.779 Y23.452 E16.00890
G1 X18.997 Y23.357 E16.03511
G1 X18.847 Y23.202 E16.04229
G1 X-26.374 Y11.086 E17.59940
G1 X-26.582 Y11.145 E17.60657
G1 X-27.307 Y10.836 E17.63280
G1 X-28.304 Y10.568 E17.66714
G1 X-28.425 Y10.359 E17.67517
G1 X-28.655 Y10.261 E17.68349
G1 X-29.232 Y9.712 E17.70999
G1 X-29.464 Y9.235 E17.72762
G1 X-29.539 Y9.028 E17.73494
G1 X-29.789 Y8.055 E17.76836
G1 X-29.594 Y7.072 E17.80170
G1 X-29.382 Y6.790 E17.81344
G1 X-29.382 Y6.548 E17.82147
G1 X-28.651 Y5.818 E17.85582
G1 X-28.214 Y5.236 E17.88005
G1 X-27.943 Y5.541 F9000.000
G1 X-27.764 Y5.496 F2520.000 E17.88619
G1 X5.496 Y-27.764 E19.45065
G1 X5.541 Y-27.943 E19.45679
G1 X6.081 Y-28.349 E19.47925
G1 X6.714 Y-28.982 E19.50902
G1 X6.923 Y-28.982 E19.51598
G1 X7.243 Y-29.222 E19.52930
G1 X8.058 Y-29.380 E19.55690
G1 X9.260 Y-29.058 E19.59829
G1 X9.887 Y-28.514 E19.62589
G1 X10.044 Y-28.146 E19.63921
G1 X10.225 Y-28.041 E19.64617
G1 X10.457 Y-27.176 E19.67594
G1 X10.721 Y-26.555 E19.69839
G1 X10.671 Y-26.378 E19.70453
G1 X22.845 Y19.057 E21.26901
G1 X22.977 Y19.186 E21.27515
G1 X23.059 Y19.855 E21.29759
G1 X23.290 Y20.720 E21.32736
G1 X23.186 Y20.901 E21.33433
G1 X23.233 Y21.294 E21.34748
G1 X22.970 Y22.071 E21.37476
G1 X22.344 Y22.709 E21.40448
G1 X22.206 Y22.825 E21.41048
G1 X21.844 Y23.070 E21.42503
G1 X21.210 Y23.223 E21.44671
G1 X20.901 Y23.186 E21.45706
G1 X20.720 Y23.290 E21.46402
G1 X19.855 Y23.059 E21.49380
G1 X19.186 Y22.977 E21.51624
G1 X19.057 Y22.845 E21.52238
G1 X-26.378 Y10.671 E23.08685
G1 X-26.555 Y10.721 E23.09299
G1 X-27.176 Y10.457 E23.11545
G1 X-28.041 Y10.225 E23.14522
G1 X-28.146 Y10.044 E23.15218
G1 X-28.432 Y9.922 E23.16254
G1 X-28.904 Y9.472 E23.18422
G1 X-29.095 Y9.078 E23.19877
G1 X-29.157 Y8.909 E23.20476
G1 X-29.379 Y8.044 E23.23449
G1 X-29.219 Y7.239 E23.26176
G1 X-28.982 Y6.923 E23.27492
G1 X-28.982 Y6.714 E23.28188
G1 X-28.349 Y6.081 E23.31165
G1 X-27.979 Y5.589 E23.33211
G1 X-27.708 Y5.895 F9000.000
G1 X-27.559 Y5.857 F2520.000 E23.33722
G1 X5.857 Y-27.559 E24.90904
G1 X5.895 Y-27.708 E24.91415
G1 X6.344 Y-28.046 E24.93283
G1 X6.879 Y-28.582 E24.95803
G1 X7.057 Y-28.582 E24.96392
G1 X7.410 Y-28.847 E24.97862
G1 X8.044 Y-28.970 E25.00008
G1 X9.067 Y-28.695 E25.03534
G1 X9.555 Y-28.272 E25.05681
G1 X9.728 Y-27.866 E25.07150
G1 X9.881 Y-27.777 E25.07739
G1 X10.078 Y-27.045 E25.10259
G1 X10.298 Y-26.529 E25.12127
G1 X10.256 Y-26.381 E25.12639
G1 X22.487 Y19.267 E26.69821
G1 X22.597 Y19.374 E26.70332
G1 X22.665 Y19.932 E26.72200
G1 X22.861 Y20.664 E26.74720
G1 X22.772 Y20.817 E26.75309
G1 X22.825 Y21.252 E26.76766
G1 X22.620 Y21.856 E26.78888
G1 X22.073 Y22.415 E26.81490
G1 X21.679 Y22.698 E26.83102
G1 X21.187 Y22.817 E26.84788
G1 X20.817 Y22.772 E26.86027
G1 X20.664 Y22.861 E26.86616
G1 X19.932 Y22.665 E26.89137
G1 X19.374 Y22.597 E26.91004
G1 X19.267 Y22.487 E26.91515
G1 X-26.381 Y10.256 E28.48698
G1 X-26.529 Y10.298 E28.49209
G1 X-27.045 Y10.078 E28.51077
G1 X-27.777 Y9.881 E28.53597
G1 X-27.866 Y9.728 E28.54186
G1 X-28.209 Y9.582 E28.55425
G1 X-28.576 Y9.232 E28.57112
G1 X-28.775 Y8.790 E28.58724
G1 X-28.969 Y8.032 E28.61326
G1 X-28.845 Y7.407 E28.63448
G1 X-28.582 Y7.057 E28.64904
G1 X-28.582 Y6.880 E28.65494
G1 X-28.046 Y6.344 E28.68014
G1 X-27.744 Y5.943 E28.69683
G1 X-27.474 Y6.248 F9000.000
G1 X-27.355 Y6.218 F2520.000 E28.70091
G1 X6.218 Y-27.355 E30.28008
G1 X6.248 Y-27.474 E30.28416
G1 X6.607 Y-27.743 E30.29907
G1 X7.045 Y-28.182 E30.31970
G1 X7.190 Y-28.182 E30.32452
G1 X7.576 Y-28.472 E30.34059
G1 X8.029 Y-28.559 E30.35593
G1 X8.875 Y-28.333 E30.38505
G1 X9.223 Y-28.031 E30.40038
G1 X9.412 Y-27.586 E30.41645
G1 X9.538 Y-27.514 E30.42127
G1 X9.698 Y-26.915 E30.44190
G1 X9.874 Y-26.502 E30.45681
G1 X9.841 Y-26.384 E30.46089
G1 X22.129 Y19.478 E32.04007
G1 X22.217 Y19.563 E32.04415
G1 X22.271 Y20.008 E32.05906
G1 X22.432 Y20.607 E32.07969
G1 X22.359 Y20.733 E32.08451
G1 X22.417 Y21.210 E32.10049
G1 X22.271 Y21.641 E32.11565
G1 X21.801 Y22.121 E32.13797
G1 X21.515 Y22.326 E32.14969
G1 X21.163 Y22.412 E32.16174
G1 X20.733 Y22.359 E32.17616
G1 X20.607 Y22.432 E32.18098
G1 X20.008 Y22.271 E32.20161
G1 X19.563 Y22.217 E32.21652
G1 X19.478 Y22.129 E32.22060
G1 X-25.923 Y9.964 E33.78390
G1 X-26.384 Y9.841 E33.79978
G1 X-26.502 Y9.874 E33.80386
G1 X-26.915 Y9.698 E33.81877
G1 X-27.514 Y9.538 E33.83940
G1 X-27.586 Y9.412 E33.84422
G1 X-27.985 Y9.242 E33.85865
G1 X-28.247 Y8.993 E33.87069
G1 X-28.392 Y8.671 E33.88241
G1 X-28.559 Y8.021 E33.90474
G1 X-28.470 Y7.574 E33.91989
G1 X-28.182 Y7.190 E33.93587
G1 X-28.182 Y7.045 E33.94069
G1 X-27.743 Y6.607 E33.96132
G1 X-27.510 Y6.296 E33.97424
G1 X-27.239 Y6.602 F9000.000
G1 X-27.150 Y6.579 F2520.000 E33.97729
G1 X6.579 Y-27.150 E35.56382
G1 X6.602 Y-27.239 E35.56687
G1 X6.870 Y-27.440 E35.57801
G1 X7.211 Y-27.782 E35.59407
G1 X7.324 Y-27.782 E35.59782
G1 X7.743 Y-28.097 E35.61527
G1 X8.015 Y-28.149 E35.62447
G1 X8.682 Y-27.970 E35.64746
G1 X8.891 Y-27.789 E35.65666
G1 X9.097 Y-27.307 E35.67410
G1 X9.194 Y-27.250 E35.67785
G1 X9.319 Y-26.784 E35.69391
G1 X9.451 Y-26.476 E35.70505
G1 X9.426 Y-26.387 E35.70810
G1 X21.771 Y19.688 E37.29463
G1 X21.837 Y19.752 E37.29768
G1 X21.878 Y20.084 E37.30882
G1 X22.003 Y20.551 E37.32488
G1 X21.946 Y20.648 E37.32863
G1 X22.009 Y21.167 E37.34602
G1 X21.921 Y21.426 E37.35512
G1 X21.529 Y21.826 E37.37375
G1 X21.351 Y21.955 E37.38106
G1 X21.139 Y22.006 E37.38829
G1 X20.648 Y21.946 E37.40474
G1 X20.551 Y22.003 E37.40850
G1 X20.084 Y21.878 E37.42456
G1 X19.752 Y21.837 E37.43570
G1 X19.688 Y21.771 E37.43875
G1 X-25.820 Y9.578 E39.00573
G1 X-26.387 Y9.426 E39.02528
G1 X-26.476 Y9.451 E39.02833
G1 X-26.784 Y9.319 E39.03947
G1 X-27.250 Y9.194 E39.05553
G1 X-27.307 Y9.097 E39.05928
G1 X-27.762 Y8.903 E39.07574
G1 X-27.919 Y8.753 E39.08296
G1 X-28.010 Y8.552 E39.09028
G1 X-28.149 Y8.010 E39.10891
G1 X-28.096 Y7.742 E39.11801
G1 X-27.782 Y7.324 E39.13539
G1 X-27.782 Y7.211 E39.13915
G1 X-27.440 Y6.869 E39.15521
G1 X-27.275 Y6.650 E39.16435
G1 X-27.004 Y6.955 F9000.000
G1 X-26.945 Y6.940 F2520.000 E39.16637
G1 X6.940 Y-26.945 E40.76026
G1 X6.955 Y-27.004 E40.76228
G1 X7.132 Y-27.137 E40.76965
G1 X7.377 Y-27.382 E40.78113
G1 X7.457 Y-27.382 E40.78382
G1 X7.910 Y-27.721 E40.80264
G1 X8.000 Y-27.739 E40.80570
G1 X8.490 Y-27.608 E40.82256
G1 X8.559 Y-27.547 E40.82563
G1 X8.781 Y-27.027 E40.84444
G1 X8.851 Y-26.987 E40.84713
G1 X8.940 Y-26.653 E40.85862
G1 X9.027 Y-26.449 E40.86599
G1 X9.011 Y-26.391 E40.86800
G1 X21.414 Y19.898 E42.46189
G1 X21.457 Y19.940 E42.46391
G1 X21.484 Y20.160 E42.47128
G1 X21.573 Y20.494 E42.48277
G1 X21.533 Y20.564 E42.48545
G1 X21.601 Y21.125 E42.50425
G1 X21.572 Y21.211 E42.50728
G1 X21.258 Y21.532 E42.52222
G1 X21.186 Y21.583 E42.52513
G1 X21.116 Y21.600 E42.52754
G1 X20.564 Y21.533 E42.54603
G1 X20.494 Y21.573 E42.54872
G1 X20.160 Y21.484 E42.56020
G1 X19.940 Y21.457 E42.56757
G1 X19.898 Y21.414 E42.56959
G1 X-25.716 Y9.191 E44.14025
G1 X-26.391 Y9.011 E44.16348
G1 X-26.449 Y9.027 E44.16549
G1 X-26.653 Y8.940 E44.17287
G1 X-26.987 Y8.851 E44.18435
G1 X-27.027 Y8.781 E44.18704
G1 X-27.538 Y8.563 E44.20553
G1 X-27.591 Y8.513 E44.20794
G1 X-27.627 Y8.433 E44.21085
G1 X-27.739 Y7.999 E44.22579
G1 X-27.721 Y7.909 E44.22882
G1 X-27.382 Y7.457 E44.24762
G1 X-27.382 Y7.377 E44.25030
G1 X-27.137 Y7.132 E44.26179
G1 X-27.040 Y7.003 E44.26717
G1 X-26.835 Y7.395 F9000.000
