; generated by Slic3r 0.9.9 on 2016-04-04 at 09:06:02

; layer_height = 0.4
; perimeters = 1
; top_solid_layers = 3
; bottom_solid_layers = 3
; fill_density = 0.25
; perimeter_speed = 60
; infill_speed = 90
; travel_speed = 150
; nozzle_diameter = 0.4
; filament_diameter = 1.75
; extrusion_multiplier = 1
; perimeters extrusion width = 0.75mm
; infill extrusion width = 0.42mm
; solid infill extrusion width = 0.42mm
; top infill extrusion width = 0.42mm
; first layer extrusion width = 0.80mm

G21 ; set units to millimeters
M104 S190 ; set temperature
G28 ; home all axes
G1 Z5 F5000 ; lift nozzle
M109 S190 ; wait for temperature to be reached
G90 ; use absolute coordinates
G92 E0
M82 ; use absolute distances for extrusion
M106 S176
G1 F1800.000 E-1.00000
G92 E0
G1 Z0.470 F9000.000
G1 X1.878 Y-32.762
G1 F1800.000 E1.00000
G1 X2.768 Y-33.522 F2520.000 E1.13900
G1 X3.688 Y-34.162 E1.27210
G1 X4.228 Y-34.462 E1.34546
G1 X4.508 Y-34.592 E1.38213
G1 X5.088 Y-34.822 E1.45623
G1 X5.688 Y-35.002 E1.53063
G1 X6.288 Y-35.122 E1.60330
G1 X6.908 Y-35.202 E1.67754
G1 X7.458 Y-35.232 E1.74296
G1 X8.188 Y-35.232 E1.82966
G1 X9.168 Y-35.142 E1.94654
G1 X9.788 Y-35.032 E2.02132
G1 X10.098 Y-34.952 E2.05934
G1 X10.898 Y-34.712 E2.15854
G1 X11.398 Y-34.512 E2.22250
G1 X11.958 Y-34.252 E2.29582
G1 X12.768 Y-33.792 E2.40646
G1 X13.218 Y-33.492 E2.47069
G1 X13.698 Y-33.112 E2.54340
G1 X14.158 Y-32.702 E2.61658
G1 X14.568 Y-32.252 E2.68888
G1 X14.948 Y-31.772 E2.76159
G1 X15.438 Y-30.992 E2.87099
G1 X15.908 Y-30.002 E3.00114
G1 X16.298 Y-28.902 E3.13975
G1 X28.978 Y18.418 E8.95799
G1 X29.188 Y19.598 E9.10034
G1 X29.268 Y20.408 E9.19700
G1 X29.278 Y21.028 E9.27065
G1 X29.198 Y21.948 E9.38032
G1 X29.078 Y22.558 E9.45416
G1 X28.808 Y23.438 E9.56348
G1 X28.568 Y24.008 E9.63693
G1 X28.318 Y24.498 E9.70227
G1 X27.948 Y25.118 E9.78802
G1 X27.588 Y25.658 E9.86509
G1 X27.218 Y26.138 E9.93707
G1 X26.588 Y26.798 E10.04543
G1 X25.908 Y27.408 E10.15393
G1 X25.118 Y27.948 E10.26758
G1 X24.498 Y28.318 E10.35333
G1 X24.008 Y28.568 E10.41866
G1 X23.438 Y28.808 E10.49211
G1 X22.558 Y29.078 E10.60143
G1 X21.948 Y29.198 E10.67527
G1 X21.028 Y29.278 E10.78494
G1 X20.408 Y29.268 E10.85859
G1 X19.598 Y29.188 E10.95526
G1 X18.418 Y28.978 E11.09760
G1 X-28.902 Y16.298 E16.91584
G1 X-30.002 Y15.908 E17.05445
G1 X-30.992 Y15.438 E17.18460
G1 X-31.772 Y14.948 E17.29400
G1 X-32.482 Y14.368 E17.40289
G1 X-32.912 Y13.928 E17.47595
G1 X-33.302 Y13.468 E17.54758
G1 X-33.792 Y12.768 E17.64906
G1 X-34.252 Y11.958 E17.75969
G1 X-34.512 Y11.398 E17.83301
G1 X-34.712 Y10.898 E17.89697
G1 X-35.032 Y9.788 E18.03417
G1 X-35.142 Y9.168 E18.10895
G1 X-35.212 Y8.538 E18.18424
G1 X-35.232 Y8.188 E18.22587
G1 X-35.232 Y7.428 E18.31613
G1 X-35.202 Y6.918 E18.37681
G1 X-35.132 Y6.328 E18.44737
G1 X-35.012 Y5.748 E18.51771
G1 X-34.932 Y5.458 E18.55344
G1 X-34.742 Y4.898 E18.62367
G1 X-34.512 Y4.348 E18.69448
G1 X-34.082 Y3.578 E18.79922
G1 X-33.472 Y2.688 E18.92737
G1 X-33.132 Y2.268 E18.99154
G1 X-32.952 Y2.068 E19.02350
G1 X1.803 Y-32.686 E24.86080
G1 X2.378 Y-32.262 F9000.000
G1 X3.188 Y-32.952 F2520.000 E24.98717
G1 X3.818 Y-33.402 E25.07912
G1 X4.058 Y-33.552 E25.11273
G1 X4.798 Y-33.942 E25.21208
G1 X5.588 Y-34.232 E25.31202
G1 X6.408 Y-34.422 E25.41199
G1 X6.968 Y-34.492 E25.47902
G1 X7.488 Y-34.522 E25.54088
G1 X8.148 Y-34.512 E25.61927
G1 X9.068 Y-34.442 E25.72885
G1 X9.908 Y-34.262 E25.83088
G1 X10.658 Y-34.042 E25.92371
G1 X11.108 Y-33.862 E25.98127
G1 X11.638 Y-33.602 E26.05138
G1 X12.378 Y-33.192 E26.15185
G1 X13.058 Y-32.712 E26.25071
G1 X13.728 Y-32.122 E26.35673
G1 X14.308 Y-31.442 E26.46288
G1 X14.478 Y-31.202 E26.49781
G1 X14.788 Y-30.692 E26.56869
G1 X15.058 Y-30.162 E26.63934
G1 X15.258 Y-29.712 E26.69782
G1 X15.608 Y-28.722 E26.82253
G1 X28.288 Y18.598 E32.64077
G1 X28.478 Y19.668 E32.76984
G1 X28.548 Y20.448 E32.86284
G1 X28.558 Y21.008 E32.92936
G1 X28.518 Y21.568 E32.99604
G1 X28.438 Y22.118 E33.06205
G1 X28.228 Y22.928 E33.16143
G1 X28.038 Y23.448 E33.22718
G1 X27.688 Y24.168 E33.32226
G1 X27.358 Y24.728 E33.39946
G1 X26.848 Y25.468 E33.50619
G1 X26.488 Y25.888 E33.57189
G1 X25.888 Y26.488 E33.67267
G1 X25.468 Y26.848 E33.73837
G1 X24.728 Y27.358 E33.84510
G1 X24.168 Y27.688 E33.92230
G1 X23.448 Y28.038 E34.01738
G1 X22.928 Y28.228 E34.08313
G1 X22.388 Y28.378 E34.14969
G1 X21.838 Y28.488 E34.21631
G1 X21.288 Y28.548 E34.28201
G1 X21.008 Y28.558 E34.31529
G1 X20.448 Y28.548 E34.38181
G1 X19.668 Y28.478 E34.47482
G1 X18.598 Y28.288 E34.60388
G1 X-28.722 Y15.608 E40.42212
G1 X-29.712 Y15.258 E40.54683
G1 X-30.162 Y15.058 E40.60532
G1 X-30.692 Y14.788 E40.67596
G1 X-30.952 Y14.638 E40.71161
G1 X-31.442 Y14.308 E40.78177
G1 X-32.122 Y13.728 E40.88792
G1 X-32.712 Y13.058 E40.99395
G1 X-33.192 Y12.378 E41.09280
G1 X-33.602 Y11.638 E41.19327
G1 X-33.862 Y11.108 E41.26339
G1 X-34.042 Y10.658 E41.32095
G1 X-34.332 Y9.628 E41.44803
G1 X-34.442 Y9.068 E41.51581
G1 X-34.472 Y8.788 E41.54925
G1 X-34.512 Y8.148 E41.62541
G1 X-34.522 Y7.468 E41.70618
G1 X-34.462 Y6.668 E41.80146
G1 X-34.362 Y6.098 E41.87019
G1 X-34.122 Y5.268 E41.97280
G1 X-33.902 Y4.738 E42.04096
G1 X-33.772 Y4.478 E42.07548
G1 X-33.632 Y4.218 E42.11055
G1 X-33.332 Y3.738 E42.17778
G1 X-33.042 Y3.318 E42.23839
G1 X-32.592 Y2.738 E42.32558
G1 X-32.262 Y2.378 E42.38358
G1 X2.303 Y-32.186 E48.18897
G1 F1800.000 E47.18897
G92 E0
G1 X6.101 Y-30.004 F9000.000
G1 F1800.000 E1.00000
G1 X6.350 Y-30.004 F2520.000 E1.02957
G1 X6.928 Y-30.264 E1.10487
G1 X7.870 Y-30.310 E1.21687
G1 X8.419 Y-30.271 E1.28224
G1 X8.653 Y-30.231 E1.31042
G1 X9.170 Y-30.093 E1.37406
G1 X9.393 Y-30.010 E1.40224
G1 X10.032 Y-29.688 E1.48726
G1 X10.681 Y-29.259 E1.57962
G1 X11.051 Y-28.744 E1.65489
G1 X11.267 Y-28.620 E1.68447
G1 X24.482 Y20.701 E7.74870
G1 X24.358 Y20.917 E7.77830
G1 X24.294 Y21.547 E7.85353
G1 X23.863 Y22.386 E7.96552
G1 X23.554 Y22.841 E8.03088
G1 X23.403 Y23.024 E8.05907
G1 X23.024 Y23.403 E8.12271
G1 X22.841 Y23.554 E8.15090
G1 X22.388 Y23.862 E8.21598
G1 X21.879 Y24.129 E8.28420
G1 X21.249 Y24.345 E8.36336
G1 X20.928 Y24.351 E8.40149
G1 X20.701 Y24.482 E8.43257
G1 X-28.620 Y11.267 E14.49681
G1 X-28.744 Y11.051 E14.52639
G1 X-29.259 Y10.681 E14.60166
G1 X-29.770 Y9.888 E14.71367
G1 X-30.010 Y9.393 E14.77903
G1 X-30.093 Y9.170 E14.80722
G1 X-30.231 Y8.653 E14.87085
G1 X-30.271 Y8.419 E14.89904
G1 X-30.312 Y7.728 E14.98121
G1 X-30.276 Y6.981 E15.07010
G1 X-30.004 Y6.350 E15.15162
G1 X-30.004 Y6.101 E15.18125
G1 X6.025 Y-29.928 E21.23268
G1 X6.397 Y-29.290 F9000.000
G1 X6.504 Y-29.290 F2520.000 E21.24545
G1 X7.102 Y-29.559 E21.32329
G1 X7.842 Y-29.596 E21.41133
G1 X8.501 Y-29.533 E21.48992
G1 X9.112 Y-29.352 E21.56557
G1 X9.658 Y-29.079 E21.63813
G1 X10.178 Y-28.735 E21.71214
G1 X10.561 Y-28.203 E21.78997
G1 X10.654 Y-28.149 E21.80274
G1 X23.716 Y20.600 E27.79670
G1 X23.662 Y20.693 E27.80947
G1 X23.597 Y21.345 E27.88728
G1 X23.259 Y22.005 E27.97531
G1 X22.874 Y22.543 E28.05390
G1 X22.412 Y22.982 E28.12956
G1 X22.006 Y23.258 E28.18789
G1 X21.584 Y23.479 E28.24447
G1 X21.132 Y23.633 E28.30119
G1 X20.729 Y23.641 E28.34902
G1 X20.600 Y23.716 E28.36674
G1 X-28.149 Y10.654 E34.36071
G1 X-28.203 Y10.561 E34.37348
G1 X-28.735 Y10.178 E34.45131
G1 X-29.137 Y9.555 E34.53935
G1 X-29.412 Y8.953 E34.61794
G1 X-29.561 Y8.334 E34.69359
G1 X-29.597 Y7.741 E34.76413
G1 X-29.569 Y7.144 E34.83506
G1 X-29.290 Y6.526 E34.91563
G1 X-29.290 Y6.397 E34.93096
G1 X6.321 Y-29.214 E40.91214
G1 X6.693 Y-28.576 F9000.000
G1 X6.800 Y-28.576 F2520.000 E40.92491
G1 X6.918 Y-28.693 E40.94464
G1 X7.276 Y-28.854 E40.99127
G1 X7.814 Y-28.882 E41.05534
G1 X8.349 Y-28.834 E41.11906
G1 X8.831 Y-28.695 E41.17863
G1 X9.284 Y-28.470 E41.23874
G1 X9.675 Y-28.212 E41.29439
G1 X9.904 Y-27.893 E41.34102
G1 X9.947 Y-27.733 E41.36074
G1 X10.040 Y-27.679 E41.37351
G1 X22.950 Y20.499 E47.29720
G1 X22.896 Y20.592 E47.30996
G1 X22.939 Y20.752 E47.32967
G1 X22.899 Y21.143 E47.37630
G1 X22.690 Y21.562 E47.43195
G1 X22.410 Y21.984 E47.49205
G1 X22.062 Y22.345 E47.55162
G1 X21.624 Y22.654 E47.61523
G1 X21.288 Y22.828 E47.66017
G1 X21.015 Y22.921 E47.69446
G1 X20.710 Y22.927 E47.73069
G1 X20.592 Y22.896 E47.74521
G1 X20.499 Y22.950 E47.75797
G1 X-27.679 Y10.040 E53.68166
G1 X-27.733 Y9.947 E53.69443
G1 X-27.893 Y9.904 E53.71415
G1 X-28.212 Y9.675 E53.76078
G1 X-28.505 Y9.222 E53.82485
G1 X-28.730 Y8.735 E53.88857
G1 X-28.851 Y8.248 E53.94814
G1 X-28.883 Y7.754 E54.00704
G1 X-28.862 Y7.308 E54.06002
G1 X-28.707 Y6.951 E54.10625
G1 X-28.576 Y6.814 E54.12878
G1 X-28.576 Y6.693 E54.14318
G1 X6.617 Y-28.500 E60.05412
G1 X6.988 Y-27.862 F9000.000
G1 X7.096 Y-27.862 F2520.000 E60.06689
G1 X7.330 Y-28.096 E60.10620
G1 X7.449 Y-28.149 E60.12174
G1 X7.787 Y-28.168 E60.16184
G1 X8.197 Y-28.135 E60.21070
G1 X8.549 Y-28.038 E60.25420
G1 X8.889 Y-27.873 E60.29905
G1 X9.172 Y-27.688 E60.33915
G1 X9.248 Y-27.582 E60.35469
G1 X9.334 Y-27.262 E60.39400
G1 X9.427 Y-27.208 E60.40677
G1 X22.183 Y20.398 E66.26019
G1 X22.129 Y20.491 E66.27296
G1 X22.215 Y20.811 E66.31226
G1 X22.202 Y20.941 E66.32781
G1 X22.050 Y21.242 E66.36790
G1 X21.838 Y21.555 E66.41276
G1 X21.555 Y21.838 E66.46026
G1 X21.223 Y22.061 E66.50780
G1 X20.898 Y22.209 E66.55015
G1 X20.797 Y22.211 E66.56223
G1 X20.491 Y22.129 E66.59980
G1 X20.398 Y22.183 E66.61257
G1 X-27.208 Y9.427 E72.46599
G1 X-27.262 Y9.334 E72.47875
G1 X-27.582 Y9.248 E72.51806
G1 X-27.688 Y9.172 E72.53360
G1 X-27.873 Y8.889 E72.57371
G1 X-28.049 Y8.518 E72.62257
G1 X-28.141 Y8.163 E72.66606
G1 X-28.168 Y7.788 E72.71078
G1 X-28.154 Y7.472 E72.74834
G1 X-28.103 Y7.353 E72.76376
G1 X-27.862 Y7.102 E72.80507
G1 X-27.862 Y6.988 E72.81855
G1 X6.913 Y-27.786 E78.65923
G1 X7.136 Y-27.000 F9000.000
G1 X7.190 Y-26.946 F2520.000 E78.66826
G1 X7.691 Y-27.447 E78.75243
G1 X8.061 Y-27.432 E78.79636
G1 X8.284 Y-27.373 E78.82375
G1 X8.611 Y-27.201 E78.86767
G1 X8.795 Y-26.516 E78.95186
G1 X8.868 Y-26.536 E78.96089
G1 X21.363 Y20.095 E84.69434
G1 X21.289 Y20.115 E84.70336
G1 X21.473 Y20.799 E84.78757
G1 X21.275 Y21.112 E84.83150
G1 X21.112 Y21.275 E84.85888
G1 X20.799 Y21.473 E84.90281
G1 X20.115 Y21.289 E84.98702
G1 X20.095 Y21.363 E84.99605
G1 X-26.536 Y8.868 E90.72950
G1 X-26.516 Y8.795 E90.73853
G1 X-27.201 Y8.611 E90.82271
G1 X-27.373 Y8.284 E90.86664
G1 X-27.432 Y8.061 E90.89402
G1 X-27.447 Y7.691 E90.93795
G1 X-26.946 Y7.190 E91.02212
G1 X-27.000 Y7.136 E91.03115
G1 X7.061 Y-26.924 E96.75192
G1 X7.576 Y-25.179 F9000.000
G1 X19.566 Y19.566 F1764.000 E102.25347
G1 X-25.179 Y7.576 E107.75501
G1 X7.501 Y-25.103 E113.24383
G1 X8.224 Y-25.481 F9000.000
G1 F1800.000 E112.24383
G92 E0
G1 X7.650 Y-25.455 F9000.000
G1 X-27.144 Y8.046
G1 X-26.658 Y7.973
G1 F1800.000 E1.00000
G1 X-25.633 Y6.960 F840.000 E1.17253
G1 X-25.693 Y6.900 E1.18267
G1 X-25.184 Y6.391 E1.26893
G1 X-25.124 Y6.451 E1.27907
G1 X-24.615 Y5.942 E1.36534
G1 X-24.674 Y5.882 E1.37548
G1 X-24.165 Y5.373 E1.46174
G1 X-24.105 Y5.433 E1.47188
G1 X-23.596 Y4.923 E1.55815
G1 X-23.656 Y4.863 E1.56829
G1 X-23.147 Y4.354 E1.65455
G1 X-23.087 Y4.414 E1.66469
G1 X-22.578 Y3.905 E1.75095
G1 X-22.637 Y3.845 E1.76109
G1 X-22.128 Y3.336 E1.84736
G1 X-22.068 Y3.395 E1.85750
G1 X-21.559 Y2.886 E1.94376
G1 X-21.619 Y2.826 E1.95390
G1 X-21.110 Y2.317 E2.04017
G1 X-21.050 Y2.377 E2.05031
G1 X-20.540 Y1.868 E2.13657
G1 X-20.600 Y1.808 E2.14671
G1 X-20.091 Y1.298 E2.23297
G1 X-20.031 Y1.358 E2.24311
G1 X-19.522 Y0.849 E2.32938
G1 X-19.582 Y0.789 E2.33952
G1 X-19.072 Y0.280 E2.42578
G1 X-19.013 Y0.340 E2.43592
G1 X-18.503 Y-0.169 E2.52219
G1 X-18.563 Y-0.229 E2.53233
G1 X-18.054 Y-0.739 E2.61859
G1 X-17.994 Y-0.679 E2.62873
G1 X-17.485 Y-1.188 E2.71499
G1 X-17.545 Y-1.248 E2.72513
G1 X-17.035 Y-1.757 E2.81140
G1 X-16.976 Y-1.697 E2.82154
G1 X-16.466 Y-2.207 E2.90780
G1 X-16.526 Y-2.266 E2.91794
G1 X-16.017 Y-2.776 E3.00421
G1 X-15.957 Y-2.716 E3.01435
G1 X-15.448 Y-3.225 E3.10061
G1 X-15.508 Y-3.285 E3.11075
G1 X-14.998 Y-3.794 E3.19701
G1 X-14.938 Y-3.734 E3.20715
G1 X-14.429 Y-4.244 E3.29342
G1 X-14.489 Y-4.304 E3.30356
G1 X-13.980 Y-4.813 E3.38982
G1 X-13.920 Y-4.753 E3.39996
G1 X-13.411 Y-5.262 E3.48623
G1 X-13.470 Y-5.322 E3.49637
G1 X-12.961 Y-5.831 E3.58263
G1 X-12.901 Y-5.772 E3.59277
G1 X-12.392 Y-6.281 E3.67903
G1 X-12.452 Y-6.341 E3.68917
G1 X-11.943 Y-6.850 E3.77544
G1 X-11.883 Y-6.790 E3.78558
G1 X-11.374 Y-7.299 E3.87184
G1 X-11.433 Y-7.359 E3.88198
G1 X-10.924 Y-7.868 E3.96825
G1 X-10.864 Y-7.809 E3.97839
G1 X-10.355 Y-8.318 E4.06465
G1 X-10.415 Y-8.378 E4.07479
G1 X-9.906 Y-8.887 E4.16105
G1 X-9.846 Y-8.827 E4.17119
G1 X-9.336 Y-9.336 E4.25746
G1 X-9.396 Y-9.396 E4.26760
G1 X-8.887 Y-9.906 E4.35386
G1 X-8.827 Y-9.846 E4.36400
G1 X-8.318 Y-10.355 E4.45027
G1 X-8.378 Y-10.415 E4.46041
G1 X-7.868 Y-10.924 E4.54667
G1 X-7.809 Y-10.864 E4.55681
G1 X-7.299 Y-11.374 E4.64307
G1 X-7.359 Y-11.433 E4.65321
G1 X-6.850 Y-11.943 E4.73948
G1 X-6.790 Y-11.883 E4.74962
G1 X-6.281 Y-12.392 E4.83588
G1 X-6.341 Y-12.452 E4.84602
G1 X-5.831 Y-12.961 E4.93229
G1 X-5.771 Y-12.901 E4.94243
G1 X-5.262 Y-13.411 E5.02869
G1 X-5.322 Y-13.470 E5.03883
G1 X-4.813 Y-13.980 E5.12509
G1 X-4.753 Y-13.920 E5.13523
G1 X-4.244 Y-14.429 E5.22150
G1 X-4.304 Y-14.489 E5.23164
G1 X-3.794 Y-14.998 E5.31790
G1 X-3.734 Y-14.938 E5.32804
G1 X-3.225 Y-15.448 E5.41431
G1 X-3.285 Y-15.508 E5.42445
G1 X-2.776 Y-16.017 E5.51071
G1 X-2.716 Y-15.957 E5.52085
G1 X-2.207 Y-16.466 E5.60711
G1 X-2.266 Y-16.526 E5.61725
G1 X-1.757 Y-17.035 E5.70352
G1 X-1.697 Y-16.976 E5.71366
G1 X-1.188 Y-17.485 E5.79992
G1 X-1.248 Y-17.545 E5.81006
G1 X-0.739 Y-18.054 E5.89633
G1 X-0.679 Y-17.994 E5.90647
G1 X-0.169 Y-18.503 E5.99273
G1 X-0.229 Y-18.563 E6.00287
G1 X0.280 Y-19.072 E6.08913
G1 X0.340 Y-19.013 E6.09927
G1 X0.849 Y-19.522 E6.18554
G1 X0.789 Y-19.582 E6.19568
G1 X1.298 Y-20.091 E6.28194
G1 X1.358 Y-20.031 E6.29208
G1 X1.868 Y-20.540 E6.37835
G1 X1.808 Y-20.600 E6.38849
G1 X2.317 Y-21.110 E6.47475
G1 X2.377 Y-21.050 E6.48489
G1 X2.886 Y-21.559 E6.57115
G1 X2.826 Y-21.619 E6.58129
G1 X3.336 Y-22.128 E6.66756
G1 X3.395 Y-22.068 E6.67770
G1 X3.905 Y-22.578 E6.76396
G1 X3.845 Y-22.637 E6.77410
G1 X4.354 Y-23.147 E6.86036
G1 X4.414 Y-23.087 E6.87051
G1 X4.923 Y-23.596 E6.95677
G1 X4.863 Y-23.656 E6.96691
G1 X5.373 Y-24.165 E7.05317
G1 X5.433 Y-24.105 E7.06331
G1 X5.942 Y-24.615 E7.14958
G1 X5.882 Y-24.675 E7.15972
G1 X6.391 Y-25.184 E7.24598
G1 X6.451 Y-25.124 E7.25612
G1 X6.960 Y-25.633 E7.34238
G1 X6.900 Y-25.693 E7.35253
G1 X7.470 Y-26.142 E7.43938
G1 X7.973 Y-26.658 E7.52565
G1 X8.333 Y-25.279 E7.69640
G1 X8.453 Y-25.159 E7.71670
G1 X8.706 Y-23.887 E7.87198
G1 X8.826 Y-23.767 E7.89228
G1 X9.079 Y-22.496 E8.04756
G1 X9.199 Y-22.376 E8.06786
G1 X9.452 Y-21.105 E8.22314
G1 X9.572 Y-20.985 E8.24344
G1 X9.825 Y-19.713 E8.39871
G1 X9.944 Y-19.593 E8.41902
G1 X10.197 Y-18.322 E8.57429
G1 X10.317 Y-18.202 E8.59460
G1 X10.570 Y-16.931 E8.74987
G1 X10.690 Y-16.811 E8.77018
G1 X10.943 Y-15.539 E8.92545
G1 X11.063 Y-15.419 E8.94575
G1 X11.316 Y-14.148 E9.10103
G1 X11.436 Y-14.028 E9.12133
G1 X11.689 Y-12.756 E9.27661
G1 X11.809 Y-12.637 E9.29691
G1 X12.061 Y-11.365 E9.45219
G1 X12.181 Y-11.245 E9.47249
G1 X12.434 Y-9.974 E9.62777
G1 X12.554 Y-9.854 E9.64807
G1 X12.807 Y-8.582 E9.80335
G1 X12.927 Y-8.463 E9.82365
G1 X13.180 Y-7.191 E9.97893
G1 X13.300 Y-7.071 E9.99923
G1 X13.553 Y-5.800 E10.15450
G1 X13.673 Y-5.680 E10.17481
G1 X13.926 Y-4.408 E10.33008
G1 X14.045 Y-4.288 E10.35038
G1 X14.298 Y-3.017 E10.50566
G1 X14.418 Y-2.897 E10.52596
G1 X14.671 Y-1.626 E10.68124
G1 X14.791 Y-1.506 E10.70154
G1 X15.044 Y-0.234 E10.85682
G1 X15.164 Y-0.114 E10.87712
G1 X15.417 Y1.157 E11.03240
G1 X15.537 Y1.277 E11.05270
G1 X15.790 Y2.549 E11.20798
G1 X15.909 Y2.668 E11.22828
G1 X16.162 Y3.940 E11.38356
G1 X16.282 Y4.060 E11.40385
G1 X16.535 Y5.331 E11.55913
G1 X16.655 Y5.451 E11.57943
G1 X16.908 Y6.723 E11.73471
G1 X17.028 Y6.842 E11.75501
G1 X17.281 Y8.114 E11.91029
G1 X17.401 Y8.234 E11.93059
G1 X17.654 Y9.505 E12.08587
G1 X17.774 Y9.625 E12.10617
G1 X18.027 Y10.897 E12.26145
G1 X18.146 Y11.017 E12.28174
G1 X18.399 Y12.288 E12.43703
G1 X18.519 Y12.408 E12.45732
G1 X18.772 Y13.679 E12.61260
